P3
341 256
255
10 55 57 59 58 60 59 62 63 59 64 62 68 68 67 68 68 72 76 79 80 82 84 87 91 92 92 92 92 93 94 95 93 94 96 96 98 99 98 99 99 103 108 111 115 128 156 190 215 231 240 246 249 253 255 255 255 255 255 255 255 255 255 255 255 255 255 255 255 255 255 255 255 255 255 255 255 255 255 255 255 255 255 255 255 255 255 255 255 255 255 255 255 255 255 255 255 255 255 254 252 252 251 251 251 252 253 255 255 255 255 254 253 251 250 249 248 248 247 243 238 229 219 201 181 170 169 191 209 218 222 222 221 221 222 224 230 233 236 239 241 239 233 226 218 205 191 181 177 186 192 187 181 173 161 151 143 132 116 100 86 74 75 75 73 68 62 59 55 56 55 58 63 67 68 64 53 47 44 45 48 47 42 41 38 35 30 26 25 26 24 26 25 21 19 20 20 22 24 26 29 32 32 31 29 31 25 19 17 13 9 10 12 20 29 33 38 39 32 28 25 25 22 25 33 39 43 50 51 47 40 34 29 22 20 18 15 10 14 7 3 6 13 15 10 8 3 1 2 12 31 44 51 58 62 65 67 68 70 64 51 45 40 30 29 29 27 20 18 16 11 10 13 9 8 9 10 13 22 35 44 47 50 50 51 49 42 36 36 34 31 24 18 18 22 29 31 38 41 41 42 40 40 41 37 35 36 44 47 50 54 54 51 48 49 44 43 44 48 50 47 46 41 34 31 28 24 25 24 21 25 24 22 19 17 18 19 21 19 16 15  61 62 62 60 64 64 65 65 62 65 67 68 67 66 64 66 72 72 73 78 79 79 82 88 88 88 88 88 88 89 90 90 89 91 92 93 92 95 96 99 102 108 113 117 128 155 183 210 226 236 243 249 253 255 255 255 255 255 255 255 255 255 255 255 255 255 255 255 255 255 255 255 255 255 255 255 255 255 255 255 255 255 255 255 255 255 255 255 255 255 255 255 255 255 255 255 255 255 254 252 252 251 251 251 252 253 255 255 255 255 254 253 251 250 249 248 247 246 242 236 229 220 208 197 188 187 203 214 219 223 224 224 224 224 226 230 234 236 239 241 238 233 226 220 212 205 201 198 203 206 204 201 197 189 179 171 160 148 135 127 121 123 124 124 124 125 126 126 127 126 125 126 125 126 120 120 117 115 119 121 126 131 134 135 135 131 127 121 117 115 115 115 112 110 114 117 117 117 116 117 112 113 112 111 108 108 105 101 98 96 96 96 94 98 103 103 107 105 99 99 101 99 103 113 118 124 128 124 123 120 112 108 103 99 96 93 91 89 89 84 84 87 91 93 94 93 90 88 90 100 112 122 129 135 139 141 138 139 137 126 114 105 96 91 88 84 86 81 78 78 76 77 75 71 70 71 77 82 90 96 98 103 107 109 113 111 109 113 112 112 110 111 111 113 114 116 115 111 110 110 110 111 113 115 120 127 132 138 143 145 146 146 146 146 144 145 143 139 134 130 129 126 118 115 115 114 113 111 111 111 112 111 105 103 100 100 101 97 89 84 82  63 66 65 65 64 67 70 69 68 68 68 71 72 73 73 72 75 78 82 82 83 86 89 92 93 92 94 94 96 99 97 94 94 94 97 98 97 97 98 100 102 108 114 117 128 155 183 209 224 235 243 249 253 255 255 255 255 255 255 255 255 255 255 255 255 255 255 255 255 255 255 255 255 255 255 255 255 255 255 255 255 255 255 255 255 255 255 255 255 255 255 255 255 255 255 255 255 255 254 252 252 251 251 251 252 253 255 255 255 255 254 253 251 250 249 249 249 248 245 238 232 226 220 215 211 210 217 224 227 229 229 230 230 229 231 234 236 238 239 241 239 235 231 227 224 220 217 217 218 220 219 218 216 213 208 200 193 185 175 169 164 162 163 163 166 168 168 169 171 170 170 167 167 166 164 162 161 161 164 166 170 172 176 176 175 174 172 170 167 165 163 161 162 162 162 163 162 164 164 162 161 161 160 160 158 157 155 151 151 148 148 147 148 149 152 153 151 151 153 148 147 150 155 158 163 164 167 169 167 162 158 154 151 148 145 142 141 140 138 136 135 140 143 145 146 146 146 145 145 149 156 161 166 169 172 174 175 174 169 161 153 144 136 132 130 130 130 128 126 123 123 123 123 122 121 122 126 131 136 140 143 145 145 147 146 145 145 147 146 146 144 146 147 147 148 148 148 147 145 144 144 144 145 147 147 147 151 156 161 163 164 165 165 165 166 165 165 164 163 161 161 158 154 153 152 150 146 139 139 135 133 128 122 119 115 112 108 102 98 97 97 
16 65 66 67 66 66 66 68 67 66 68 67 71 72 72 71 70 73 79 81 82 85 87 89 94 95 95 94 95 97 99 98 97 97 98 99 100 100 100 103 103 104 110 114 117 128 154 185 212 228 238 246 249 252 254 255 255 255 255 255 255 255 255 255 255 255 255 255 255 255 255 255 255 255 255 255 255 255 255 255 255 255 255 255 255 255 255 255 255 255 255 255 255 255 255 255 255 255 254 253 252 251 250 250 252 254 255 255 255 255 255 255 254 253 252 251 250 249 247 244 239 232 226 211 197 185 183 197 212 218 222 222 214 215 220 223 228 232 237 240 241 239 236 227 219 206 186 175 179 186 193 196 192 187 180 172 160 146 128 112 95 84 83 84 78 72 65 58 54 52 52 55 59 65 63 58 52 51 49 50 53 52 47 46 42 36 30 24 24 25 24 27 24 20 22 23 23 25 25 30 30 29 31 29 30 31 31 26 24 22 16 16 16 20 25 33 38 37 35 32 27 26 23 26 33 41 47 48 50 47 40 35 32 26 24 22 16 9 11 9 7 7 7 14 13 9 6 3 5 11 27 44 57 63 66 69 70 68 70 66 59 50 40 34 30 29 25 22 21 17 10 11 11 11 9 5 11 12 20 34 44 52 54 53 53 51 46 41 39 36 35 28 25 26 32 36 38 41 40 43 44 43 40 38 36 37 40 48 48 52 55 53 47 46 42 40 43 48 49 49 50 49 41 32 28 28 25 25 26 26 25 22 21 20 19 25 28 25 21 20 16  67 67 67 65 67 69 69 71 67 69 70 71 70 71 71 67 73 74 77 79 80 82 86 91 91 91 90 90 92 93 92 93 92 92 95 95 94 97 100 101 104 111 115 119 129 153 180 206 223 234 241 247 252 254 255 255 255 255 255 255 255 255 255 255 255 255 255 255 255 255 255 255 255 255 255 255 255 255 255 255 255 255 255 255 255 255 255 255 255 255 255 255 255 255 255 255 255 254 253 252 251 250 250 252 254 255 255 255 255 255 255 254 253 252 251 250 249 247 243 238 232 225 214 205 198 197 206 215 219 222 223 220 221 223 225 230 233 236 240 241 238 235 227 222 214 204 200 201 203 207 208 206 204 199 191 179 167 153 141 133 125 123 128 126 125 125 126 126 127 126 126 126 123 120 119 118 116 116 122 126 130 133 136 138 133 129 125 119 116 115 114 113 115 113 115 114 119 120 120 120 115 114 112 112 112 111 109 106 102 100 99 96 94 96 103 107 108 108 104 102 100 103 105 111 117 123 128 125 124 119 113 109 104 101 98 94 91 89 89 86 82 85 91 95 94 93 90 91 92 98 114 127 133 138 141 141 140 141 135 127 119 108 98 93 88 85 84 81 78 80 78 77 76 73 70 73 78 80 87 94 99 102 109 111 111 111 110 113 115 113 113 111 111 114 114 113 113 111 108 110 111 113 114 119 127 131 135 139 142 144 146 145 144 144 142 142 141 135 127 126 124 126 118 113 116 115 115 113 115 111 108 108 106 104 104 104 102 98 90 86 84  71 73 74 72 72 73 77 75 74 74 71 75 76 76 76 75 77 82 84 86 88 89 92 95 97 97 97 98 98 100 101 98 97 98 101 103 103 102 102 103 104 111 115 119 128 153 181 207 222 233 241 247 252 254 255 255 255 255 255 255 255 255 255 255 255 255 255 255 255 255 255 255 255 255 255 255 255 255 255 255 255 255 255 255 255 255 255 255 255 255 255 255 255 255 255 255 255 254 253 252 251 250 250 252 254 255 255 255 255 255 255 254 253 252 251 250 249 248 244 239 234 229 223 218 215 214 217 225 227 229 229 227 227 230 231 233 236 238 240 241 240 238 232 229 224 219 216 218 219 221 221 221 218 216 212 205 196 187 177 171 167 165 166 166 168 170 170 171 173 171 170 168 167 166 166 164 162 163 164 168 174 176 178 179 177 174 170 168 165 164 163 163 163 163 163 165 166 166 167 166 164 164 162 162 161 160 157 154 153 151 150 149 148 149 152 153 152 153 154 152 151 152 155 158 163 166 168 169 169 164 159 155 152 148 146 145 145 142 139 137 137 140 144 146 146 146 147 144 144 148 155 164 169 171 174 174 175 176 171 164 155 146 140 134 132 131 130 129 128 124 122 123 123 122 123 123 125 128 133 138 142 145 147 149 148 147 147 148 149 149 148 148 149 149 151 151 150 149 147 147 147 146 145 145 146 148 152 157 160 162 164 164 163 165 166 166 165 161 159 159 160 157 154 151 151 150 146 141 140 136 132 124 118 120 118 116 113 107 101 99 98 
14 74 75 73 73 71 74 77 74 72 73 70 72 73 73 74 73 76 80 84 86 87 91 94 97 97 98 97 99 100 101 101 100 100 102 102 105 105 104 106 106 108 113 115 117 126 150 181 209 226 237 245 249 251 253 255 255 255 255 255 255 255 255 255 255 255 255 255 255 255 255 255 255 255 255 255 255 255 255 255 255 255 255 255 255 255 255 255 255 255 255 255 255 255 255 255 255 255 253 251 250 250 251 253 254 255 255 255 255 255 255 255 255 254 253 252 250 249 249 247 242 237 231 219 211 202 200 209 217 220 223 219 212 211 215 222 226 233 239 240 238 238 236 228 219 205 186 181 183 185 192 197 202 206 203 192 177 162 142 122 106 95 91 95 87 77 63 54 51 49 47 50 53 55 57 52 52 53 49 52 59 60 54 48 46 38 32 25 24 29 29 27 24 22 23 24 22 22 26 33 32 31 32 33 32 30 31 30 27 27 24 22 21 22 20 31 36 37 33 30 25 24 23 24 30 41 48 51 50 48 43 40 34 32 28 21 17 15 11 9 7 5 8 15 15 12 8 5 4 9 24 40 52 62 69 69 69 66 69 63 55 49 43 34 25 24 21 21 19 14 11 12 10 9 9 12 11 10 16 29 38 50 55 53 54 54 51 44 42 41 38 37 32 37 41 40 43 43 42 44 45 42 37 35 37 36 38 44 49 48 50 48 44 42 41 40 42 46 49 51 50 50 42 33 30 30 27 25 27 28 27 20 19 21 22 27 29 30 26 20 18  74 74 70 72 74 72 73 73 70 74 71 71 71 73 73 71 73 77 83 83 82 86 89 92 91 92 92 94 95 95 95 93 93 94 98 101 99 100 104 103 106 113 117 120 127 150 175 202 221 232 239 245 250 253 255 255 255 255 255 255 255 255 255 255 255 255 255 255 255 255 255 255 255 255 255 255 255 255 255 255 255 255 255 255 255 255 255 255 255 255 255 255 255 255 255 255 255 253 251 250 250 251 253 254 255 255 255 255 255 255 255 255 254 253 252 250 249 249 247 241 235 229 221 213 207 208 214 219 221 223 223 219 219 222 225 228 233 239 239 236 236 235 228 222 215 205 201 202 204 208 211 213 213 208 201 189 174 160 147 138 132 129 133 131 126 124 125 126 126 125 126 124 122 121 122 119 118 118 124 132 138 139 140 138 132 128 122 114 114 114 115 114 114 116 118 116 117 120 121 118 119 117 116 115 115 116 114 111 107 104 102 101 101 101 104 109 112 114 113 106 102 103 105 110 115 123 125 125 125 121 116 114 108 103 101 94 92 91 89 88 84 87 94 96 95 93 92 91 90 94 107 123 132 140 140 138 134 137 133 125 119 110 97 91 88 90 85 82 81 81 78 77 77 76 75 77 79 80 85 89 96 105 110 111 111 112 112 112 113 115 115 114 116 115 111 110 108 108 109 113 117 118 117 125 129 132 134 139 140 140 143 143 141 142 140 135 131 129 127 124 124 125 119 115 117 116 117 115 114 111 110 107 106 103 103 104 104 100 93 88 86  76 77 79 79 77 79 80 78 77 76 76 78 80 78 78 77 80 85 86 89 91 93 96 97 100 102 100 98 99 103 104 101 100 100 104 106 106 106 106 107 108 113 118 120 126 149 177 203 220 232 239 246 250 253 255 255 255 255 255 255 255 255 255 255 255 255 255 255 255 255 255 255 255 255 255 255 255 255 255 255 255 255 255 255 255 255 255 255 255 255 255 255 255 255 255 255 255 253 251 250 250 251 253 254 255 255 255 255 255 255 255 255 254 253 252 250 249 249 247 242 238 233 227 223 219 218 221 225 228 230 230 227 227 228 230 232 235 239 241 240 239 237 232 229 225 220 218 219 220 221 221 222 222 219 215 210 202 190 182 176 171 169 171 170 170 172 171 173 173 173 170 169 166 164 166 166 165 166 168 171 177 179 181 181 178 174 169 166 164 164 164 165 166 165 164 166 169 168 168 169 169 167 166 165 163 163 161 160 157 153 152 152 150 150 154 156 155 155 155 155 156 153 155 159 163 168 170 171 168 164 159 156 153 149 148 146 145 143 140 137 138 139 144 146 145 146 146 144 143 149 155 163 170 174 177 175 174 175 169 164 156 148 142 136 135 133 130 128 127 125 122 122 125 124 124 125 125 129 134 138 142 144 146 148 149 148 149 149 150 152 151 152 153 152 152 151 151 150 148 146 147 146 144 145 148 150 152 157 160 163 165 164 163 164 166 167 165 161 159 157 159 157 152 152 150 149 146 142 139 134 130 124 121 119 118 119 117 113 107 103 101 
17 77 77 78 77 77 77 79 80 76 76 73 76 78 74 73 76 77 81 86 89 92 92 95 100 103 103 101 101 100 103 103 103 102 103 105 110 109 109 110 110 111 114 117 119 125 147 179 206 223 235 243 248 250 253 255 255 255 255 255 255 255 255 255 255 255 255 255 255 255 255 255 255 255 255 255 255 255 255 255 255 255 255 255 255 255 255 255 255 255 255 255 255 255 255 255 255 254 252 251 250 250 253 255 255 255 255 255 255 255 255 254 254 254 254 253 252 251 252 250 246 240 233 224 217 213 213 219 222 222 224 218 212 210 211 217 226 235 237 238 237 234 231 228 218 202 191 192 189 186 190 198 206 216 216 207 194 176 154 135 119 107 99 98 98 86 70 57 51 49 48 47 50 54 55 53 55 52 51 57 62 61 57 53 50 43 34 26 28 31 30 32 29 27 25 25 24 26 29 34 34 37 37 36 34 31 34 33 33 29 27 26 22 25 25 31 38 39 37 33 30 28 22 21 31 40 45 46 48 46 43 43 34 32 28 24 22 17 15 8 6 8 11 17 16 13 7 3 6 6 18 34 47 59 67 70 66 62 62 58 47 41 41 32 20 19 20 22 18 14 14 15 12 10 9 12 10 14 16 21 33 44 49 52 53 60 56 50 47 45 44 43 40 46 48 45 42 43 47 44 44 42 38 34 35 37 41 42 45 48 46 47 45 40 40 43 46 46 48 51 52 50 38 35 34 30 30 28 25 23 23 20 23 20 18 26 26 26 27 21 17  75 75 74 75 76 76 75 78 73 75 73 75 76 75 74 75 76 81 85 87 88 87 91 95 96 95 93 93 95 99 96 95 94 95 100 103 105 104 105 106 109 114 118 120 126 147 173 198 217 229 238 244 249 253 255 255 255 255 255 255 255 255 255 255 255 255 255 255 255 255 255 255 255 255 255 255 255 255 255 255 255 255 255 255 255 255 255 255 255 255 255 255 255 255 255 255 254 252 251 250 250 253 255 255 255 255 255 255 255 255 254 254 254 254 253 251 251 252 250 245 239 230 223 217 214 217 221 224 225 226 222 219 218 220 222 228 234 237 237 234 231 231 229 222 213 207 206 206 204 206 211 215 220 217 209 199 184 169 155 146 140 136 137 136 131 129 125 125 126 126 125 124 122 121 121 122 119 118 124 135 141 143 142 138 133 127 119 115 114 115 115 117 117 116 116 120 121 120 121 121 121 121 120 117 115 116 117 115 112 108 106 104 103 105 109 115 117 115 112 110 108 105 105 112 119 122 123 125 125 123 120 114 108 104 100 96 95 93 88 87 87 87 93 96 98 94 89 86 88 92 105 117 128 135 136 134 129 131 133 121 114 108 98 88 86 85 83 80 78 77 76 76 79 79 80 81 81 80 82 88 95 102 105 108 111 111 112 113 114 116 117 118 118 118 112 109 105 106 109 114 116 122 123 127 131 134 136 138 138 139 140 138 137 135 134 130 126 123 124 124 126 123 119 117 115 118 117 117 114 113 110 108 105 102 104 103 101 99 97 91 82  81 82 83 83 79 82 84 82 78 78 78 78 80 81 79 79 82 87 90 90 91 94 97 99 102 103 102 102 103 105 105 104 103 105 106 108 109 110 111 109 110 114 118 120 126 147 174 199 218 229 237 243 249 253 255 255 255 255 255 255 255 255 255 255 255 255 255 255 255 255 255 255 255 255 255 255 255 255 255 255 255 255 255 255 255 255 255 255 255 255 255 255 255 255 255 255 254 252 251 250 250 253 255 255 255 255 255 255 255 255 254 254 254 254 253 252 251 252 250 246 241 235 230 226 223 222 225 228 228 229 229 228 227 227 228 231 235 237 239 237 236 235 233 228 224 221 221 221 220 220 221 222 225 223 219 214 208 197 188 181 176 174 176 175 172 172 173 174 173 173 171 168 166 166 166 167 166 167 169 175 179 182 183 182 179 174 168 166 164 164 166 166 167 167 167 168 169 169 169 170 170 170 169 168 165 164 164 164 162 157 154 154 154 153 158 159 159 159 158 156 154 154 155 159 163 167 170 169 168 163 159 157 153 150 148 145 145 144 141 138 138 138 143 145 145 147 146 144 144 146 154 159 167 173 175 172 171 172 169 162 156 149 143 136 134 135 131 128 125 123 123 126 127 127 125 124 126 129 134 137 141 144 145 149 151 150 151 150 149 152 154 155 157 155 154 151 151 151 149 148 149 146 146 148 150 152 154 156 160 163 165 164 163 162 163 163 162 161 158 157 159 155 152 153 152 149 147 142 138 132 128 125 122 119 118 118 117 114 112 106 102 
16 81 83 82 82 82 82 81 83 79 78 75 79 79 77 79 79 82 85 89 91 94 95 97 102 104 103 104 104 103 106 107 106 105 106 108 111 113 112 111 112 113 115 120 122 124 144 174 202 222 233 241 247 250 252 254 254 254 255 255 255 255 255 255 255 255 255 255 255 255 255 255 255 255 255 255 255 255 255 255 255 255 255 255 255 255 255 255 255 255 255 255 255 255 255 255 255 254 253 252 251 251 253 255 255 255 255 255 255 255 255 254 253 253 254 254 254 254 255 252 247 241 235 227 218 216 221 224 226 223 224 222 214 213 215 216 225 234 235 234 232 230 227 224 214 202 199 201 199 197 198 203 211 218 219 215 206 192 169 147 130 118 111 108 104 94 78 59 50 48 47 44 44 50 55 52 54 54 51 56 62 65 60 53 50 42 34 26 28 31 32 36 31 30 28 26 26 26 30 32 34 36 37 38 38 36 37 37 37 33 30 30 27 28 29 35 42 45 45 41 39 33 26 23 31 36 42 45 46 50 47 44 36 30 28 27 22 17 12 9 3 5 9 17 18 15 10 7 7 7 15 31 43 54 62 64 62 55 53 53 44 38 31 26 21 17 18 18 16 16 18 15 13 13 11 13 13 8 9 17 28 36 46 49 51 61 61 55 55 50 49 48 50 52 52 49 47 46 47 45 44 40 37 35 36 39 40 39 39 41 45 45 40 38 43 44 47 48 49 50 47 47 38 35 34 32 31 28 28 29 26 21 20 22 20 20 24 26 22 23 21  77 82 80 77 76 80 78 79 77 77 75 77 77 76 76 76 78 84 86 87 90 89 93 98 99 97 96 96 97 101 101 98 97 96 101 105 108 106 105 107 110 115 120 122 126 144 170 194 215 227 236 242 247 252 254 254 254 255 255 255 255 255 255 255 255 255 255 255 255 255 255 255 255 255 255 255 255 255 255 255 255 255 255 255 255 255 255 255 255 255 255 255 255 255 255 255 254 253 252 251 251 253 255 255 255 255 255 255 255 255 254 253 253 254 254 254 254 255 252 247 240 233 225 218 215 221 226 228 227 228 226 221 220 221 222 227 232 233 232 231 228 228 226 221 214 211 212 210 208 209 212 216 221 220 216 208 196 179 166 154 148 145 142 141 139 132 127 127 127 126 126 123 122 122 123 119 121 124 128 138 143 144 143 141 134 127 119 117 116 116 117 118 117 116 117 119 120 119 119 123 124 124 123 121 119 119 118 118 114 112 107 107 107 110 115 118 119 120 117 114 109 105 105 111 117 120 123 125 126 123 120 114 110 105 101 100 97 92 88 84 88 88 92 96 97 94 90 88 90 94 103 114 125 131 132 130 126 125 125 119 112 104 94 87 86 84 82 83 79 79 82 81 81 83 82 82 83 81 81 86 92 99 103 108 113 115 116 117 117 117 120 121 119 117 112 110 105 107 109 116 123 125 127 128 133 135 135 135 136 137 138 134 133 133 129 125 122 122 124 123 126 123 120 118 116 118 118 119 116 114 111 107 104 103 103 103 100 95 95 92 85  84 87 86 86 84 85 88 86 82 82 80 80 82 82 81 82 84 88 92 93 94 96 97 102 105 105 105 104 106 107 108 107 106 107 107 112 113 113 113 112 112 115 120 121 126 144 170 196 215 227 235 242 247 252 254 254 254 255 255 255 255 255 255 255 255 255 255 255 255 255 255 255 255 255 255 255 255 255 255 255 255 255 255 255 255 255 255 255 255 255 255 255 255 255 255 255 254 253 252 251 251 253 255 255 255 255 255 255 255 255 254 253 253 254 254 254 254 255 252 247 242 237 231 227 225 226 228 230 229 231 230 228 227 227 228 230 235 236 235 234 233 233 231 228 224 223 223 223 222 221 220 223 225 226 222 218 212 203 193 185 181 179 179 179 178 174 175 175 175 174 173 170 168 167 167 168 166 167 171 176 180 183 185 183 178 174 170 166 164 165 167 169 168 168 169 169 169 170 170 170 171 171 171 168 167 167 165 165 164 161 157 157 155 155 159 163 165 164 163 160 156 154 155 159 161 166 168 168 168 164 160 157 153 150 149 145 145 145 141 139 139 140 143 145 145 147 146 145 144 144 151 157 165 169 170 169 168 168 167 162 155 148 142 136 132 131 129 127 127 126 124 126 130 129 127 127 129 133 135 137 142 144 145 148 151 152 153 154 154 155 156 158 158 156 153 152 151 150 150 149 149 148 149 151 152 153 155 157 161 161 164 165 163 161 161 160 158 159 158 158 158 154 154 153 151 149 148 145 139 133 128 125 120 118 120 119 115 113 114 110 103 
16 86 89 87 86 86 86 85 85 82 80 80 81 81 79 80 79 82 84 88 94 94 95 100 103 104 105 104 103 105 109 111 109 107 108 112 114 116 114 115 114 114 116 120 121 124 140 169 197 218 231 240 246 250 251 253 254 254 254 255 255 255 255 255 255 255 255 255 255 255 255 255 255 255 255 255 255 255 255 255 255 255 255 255 255 255 255 255 255 255 255 255 255 255 255 255 255 255 255 254 253 253 254 255 255 255 255 255 255 255 255 255 254 253 253 253 254 254 255 253 249 243 236 226 220 218 222 228 228 225 226 227 223 219 221 223 227 229 231 228 226 224 222 216 211 206 207 207 207 209 212 213 214 216 219 218 209 197 181 159 142 131 123 119 113 101 85 66 51 45 46 47 44 46 53 52 51 53 53 57 64 66 62 57 52 44 36 27 30 36 36 36 32 31 26 26 28 26 26 29 34 36 35 40 43 35 35 37 38 37 32 31 31 29 33 40 49 53 54 53 47 39 31 28 31 37 41 46 52 52 46 41 35 31 30 29 22 17 9 8 8 5 8 17 20 19 12 8 6 7 15 29 43 54 59 61 57 50 47 45 40 35 25 18 13 14 14 13 12 15 18 17 20 17 16 16 15 9 5 12 20 29 41 47 53 60 64 66 65 62 56 55 55 54 49 49 47 47 43 44 43 38 38 39 38 39 37 38 37 37 42 42 37 39 42 43 45 48 47 47 45 41 37 35 35 36 35 35 32 31 25 23 18 17 20 25 27 26 21 19 19  83 87 82 82 83 84 84 81 80 79 77 79 79 77 78 77 79 82 86 90 91 92 95 98 98 99 99 98 99 103 105 102 100 101 105 107 109 109 108 108 111 115 119 122 125 141 166 189 210 225 233 240 245 250 253 254 254 254 255 255 255 255 255 255 255 255 255 255 255 255 255 255 255 255 255 255 255 255 255 255 255 255 255 255 255 255 255 255 255 255 255 255 255 255 255 255 255 255 254 253 253 254 255 255 255 255 255 255 255 255 255 254 253 253 253 254 254 255 253 249 242 235 226 220 217 221 228 230 228 230 230 226 224 225 225 226 228 229 227 227 224 225 221 219 215 217 216 215 216 217 216 217 219 220 218 211 201 185 171 162 156 152 150 148 142 136 130 128 128 126 129 123 122 122 122 124 124 126 131 139 145 145 145 142 132 125 120 117 119 120 118 118 118 116 118 117 117 119 121 121 122 125 123 123 123 120 117 119 117 114 112 110 111 113 114 122 126 128 125 120 112 106 106 108 115 122 125 125 125 122 118 114 112 106 104 101 97 93 89 85 85 88 91 97 97 95 93 92 89 91 100 113 123 127 128 125 122 121 120 119 112 103 92 86 84 83 82 83 80 80 82 85 85 81 81 84 83 82 84 88 92 97 102 108 115 122 124 125 123 121 123 121 121 116 110 108 106 109 112 119 126 132 133 131 133 133 133 131 130 133 135 131 130 127 124 122 121 122 123 125 127 120 119 119 121 117 118 120 119 113 110 106 100 100 101 101 99 94 92 89 83  87 90 90 90 88 88 90 90 86 84 82 82 83 84 84 84 85 90 92 96 96 97 100 104 107 108 107 108 108 109 111 109 109 110 111 114 116 117 117 115 114 117 120 121 125 142 167 193 213 225 235 241 246 251 253 254 254 254 255 255 255 255 255 255 255 255 255 255 255 255 255 255 255 255 255 255 255 255 255 255 255 255 255 255 255 255 255 255 255 255 255 255 255 255 255 255 255 255 254 253 253 254 255 255 255 255 255 255 255 255 255 254 253 253 253 254 254 255 253 249 244 238 232 228 226 227 231 232 230 233 233 232 230 230 231 231 232 233 232 231 231 229 227 227 225 225 225 224 224 224 224 224 224 225 225 221 215 208 200 191 185 182 183 183 181 178 175 175 177 175 173 172 168 166 167 168 168 169 174 178 184 185 185 183 178 174 170 166 165 167 168 170 169 169 169 169 169 168 169 170 171 171 171 170 169 169 168 166 164 161 160 159 159 160 164 167 169 168 167 164 161 157 155 158 162 166 169 168 167 166 161 158 153 152 148 147 145 143 141 140 140 140 143 146 146 146 145 144 143 143 149 155 163 167 165 165 165 166 166 162 156 149 142 136 131 130 130 128 128 131 128 127 128 129 129 131 131 133 135 139 142 145 148 150 152 156 158 159 159 158 158 158 157 155 152 151 151 150 150 152 151 150 152 152 154 154 155 157 160 162 165 163 162 161 162 159 156 156 157 157 155 153 154 154 150 150 150 148 141 135 129 123 120 117 116 115 113 111 111 109 105 
16 90 93 92 89 87 87 89 90 84 82 82 80 82 81 80 80 83 86 91 94 94 96 100 106 106 106 107 106 107 110 112 112 111 110 113 117 117 115 117 114 115 118 119 119 123 137 166 193 215 229 238 245 249 251 253 254 254 254 254 255 255 255 255 255 255 255 255 255 255 255 255 255 255 255 255 255 255 255 255 255 255 255 255 255 255 255 255 255 255 255 255 255 255 255 255 255 255 255 255 254 255 255 255 255 255 255 255 255 255 255 255 255 253 253 252 252 253 254 253 250 245 239 229 223 219 221 228 229 228 229 230 230 228 228 229 230 227 222 221 220 215 212 210 210 212 215 212 210 215 218 218 216 213 212 215 208 196 187 170 153 139 128 124 124 110 91 74 58 48 45 48 47 49 48 49 52 53 53 59 65 66 63 60 53 45 35 28 31 38 39 35 34 34 32 31 28 28 28 27 32 34 34 38 38 34 35 40 40 40 36 33 34 32 37 46 57 63 64 61 56 48 40 31 26 37 42 48 51 50 44 41 37 32 28 24 21 13 10 10 6 6 10 18 21 21 14 9 9 7 13 23 39 52 56 59 54 47 40 40 38 30 25 21 15 9 9 13 13 14 18 20 20 17 18 15 15 13 7 9 16 23 37 46 54 62 69 73 73 73 68 64 58 53 50 47 46 46 41 40 41 41 44 41 38 37 38 36 36 36 38 41 39 41 43 44 45 44 43 39 41 37 37 37 37 37 36 37 36 30 25 21 15 13 16 22 27 25 21 15 15  88 91 88 85 85 85 84 86 85 83 78 80 83 79 79 78 80 83 87 90 88 91 94 98 99 100 102 100 101 105 106 104 102 105 108 109 110 110 110 110 112 116 121 122 124 137 161 184 207 223 232 239 244 250 253 253 254 254 254 255 255 255 255 255 255 255 255 255 255 255 255 255 255 255 255 255 255 255 255 255 255 255 255 255 255 255 255 255 255 255 255 255 255 255 255 255 255 255 255 254 255 255 255 255 255 255 255 255 255 255 255 255 253 253 252 252 253 254 253 250 245 238 229 221 217 222 229 231 231 232 233 232 231 230 230 229 227 223 223 222 220 219 218 218 218 220 218 217 219 220 219 218 216 216 217 211 201 191 178 170 163 156 156 155 146 139 135 131 129 127 127 124 123 123 124 126 126 127 132 137 144 147 146 141 134 125 118 117 118 120 120 119 120 120 118 118 118 118 118 119 123 124 124 123 122 121 121 120 118 115 114 116 116 117 120 128 132 133 129 125 117 108 106 108 114 121 124 126 126 122 118 114 109 106 104 99 95 92 89 86 86 89 91 95 97 95 92 91 87 87 95 107 120 124 126 123 121 117 120 116 108 102 91 87 84 84 80 80 81 80 84 89 87 85 85 88 84 85 86 87 94 98 103 111 117 125 132 134 132 129 125 121 117 111 108 109 108 108 114 119 125 133 135 133 131 133 132 129 129 131 132 128 127 125 121 120 122 121 121 126 121 118 118 118 119 119 120 121 118 114 110 103 96 94 96 96 94 92 84 81 78  91 94 95 94 91 91 93 92 90 88 85 83 85 87 86 85 86 91 94 96 98 100 102 106 109 109 109 109 109 112 114 114 112 113 115 118 120 119 119 117 117 119 122 123 124 139 165 190 210 224 233 240 245 250 253 253 254 254 254 255 255 255 255 255 255 255 255 255 255 255 255 255 255 255 255 255 255 255 255 255 255 255 255 255 255 255 255 255 255 255 255 255 255 255 255 255 255 255 255 254 255 255 255 255 255 255 255 255 255 255 255 255 253 253 252 252 253 254 253 250 246 240 233 230 227 227 231 233 233 234 235 235 234 233 233 233 231 229 229 229 228 227 227 226 226 226 225 226 226 226 226 224 223 223 224 220 215 212 205 198 193 187 187 189 184 181 178 176 177 176 175 172 169 169 168 169 169 172 177 180 186 187 185 182 177 173 169 166 167 168 170 171 170 170 169 169 169 168 168 168 169 170 171 170 170 169 169 167 164 164 163 162 163 164 167 170 171 172 170 168 163 159 157 159 162 163 169 169 168 166 162 158 156 152 150 148 146 143 140 139 140 138 142 147 146 146 146 146 144 143 147 153 160 165 164 163 164 163 166 163 156 151 145 138 133 130 131 131 129 129 130 131 132 129 130 133 134 133 136 141 142 147 151 154 155 160 163 165 166 163 158 158 156 154 151 150 150 151 152 153 155 154 154 155 154 154 156 158 160 162 163 163 163 162 161 159 155 153 154 153 151 152 153 153 155 154 152 148 142 137 129 121 117 114 112 110 107 106 106 104 102 
14 93 95 96 95 92 91 93 92 88 84 82 80 83 85 83 83 85 89 91 94 97 98 101 106 108 109 108 108 110 114 114 115 115 116 118 119 120 118 118 116 116 119 122 119 120 135 163 192 213 227 236 244 248 250 252 253 254 254 254 255 255 255 255 255 255 255 255 255 255 255 255 255 255 255 255 255 255 255 255 255 255 255 255 255 255 255 255 255 255 255 255 255 255 255 255 255 255 255 255 255 255 255 255 255 255 255 255 255 255 255 255 255 254 253 252 252 253 254 251 248 245 241 232 224 220 220 225 229 229 231 234 234 233 236 237 231 223 216 211 209 205 203 206 214 221 225 221 217 220 221 218 213 208 205 203 197 185 180 174 161 147 133 129 131 118 98 79 62 51 46 47 47 47 49 52 54 54 53 60 65 65 61 56 51 43 32 28 32 38 42 42 39 35 33 33 29 27 26 31 30 32 33 35 39 38 37 42 40 38 37 36 37 37 42 51 64 71 74 70 65 57 48 33 25 35 42 46 47 47 43 41 38 34 30 24 21 19 12 9 5 6 10 18 21 20 14 11 10 11 12 18 31 43 47 52 50 43 37 38 36 28 26 25 19 12 11 14 15 15 16 23 21 20 19 15 14 13 13 12 12 15 27 44 58 64 73 79 84 83 80 72 63 55 50 45 44 44 43 40 40 42 41 43 36 33 37 35 34 39 40 40 42 41 44 46 41 40 40 37 37 35 36 37 39 40 39 38 35 31 26 20 18 11 16 21 24 23 21 16 14  90 91 92 89 86 87 89 89 86 82 80 79 82 80 79 80 80 85 86 88 90 93 96 100 102 101 100 102 104 107 108 107 107 107 110 112 112 112 112 111 112 117 122 123 124 137 159 181 205 221 231 238 243 249 252 253 254 254 254 255 255 255 255 255 255 255 255 255 255 255 255 255 255 255 255 255 255 255 255 255 255 255 255 255 255 255 255 255 255 255 255 255 255 255 255 255 255 255 255 255 255 255 255 255 255 255 255 255 255 255 255 255 254 253 252 252 253 254 251 248 246 241 232 223 220 222 227 230 232 234 235 236 236 237 237 230 224 220 217 216 214 213 215 219 224 227 223 220 221 220 218 216 212 210 209 204 196 190 183 174 168 162 161 161 152 144 136 132 130 127 127 128 124 125 126 127 127 129 136 139 145 147 145 140 133 121 116 116 119 121 123 123 120 118 118 116 116 117 115 117 120 119 122 125 124 125 122 122 121 118 119 119 118 120 125 133 137 139 137 132 122 113 106 107 115 118 122 124 124 122 118 115 110 107 105 100 97 93 92 89 89 90 92 98 97 96 91 90 91 86 89 102 112 119 123 122 120 118 117 115 106 101 97 90 86 85 83 83 82 86 89 89 91 90 88 88 90 91 93 92 95 98 105 120 124 128 136 141 143 138 130 120 117 111 107 109 107 111 116 120 123 130 131 130 128 128 127 128 128 128 129 128 125 124 122 121 122 123 126 123 116 118 121 121 122 123 124 122 116 110 108 103 91 92 90 89 88 81 73 73 75  95 99 100 98 96 94 95 95 94 92 89 87 89 89 89 87 87 91 96 98 100 102 103 107 111 111 110 112 111 114 118 117 115 116 118 122 123 121 120 119 118 119 122 124 124 138 162 188 208 222 232 239 244 249 252 253 254 254 254 255 255 255 255 255 255 255 255 255 255 255 255 255 255 255 255 255 255 255 255 255 255 255 255 255 255 255 255 255 255 255 255 255 255 255 255 255 255 255 255 255 255 255 255 255 255 255 255 255 255 255 255 255 254 253 252 252 253 254 251 248 246 241 236 231 227 228 231 233 234 236 237 237 237 238 237 234 230 227 227 227 225 225 226 227 229 230 228 226 226 227 226 224 222 221 220 217 212 210 207 201 198 192 190 191 187 184 181 178 177 177 176 171 170 169 169 169 170 173 178 183 185 187 185 181 176 171 168 166 167 169 170 170 168 168 168 168 167 167 166 167 168 169 170 170 169 169 168 169 167 166 164 163 166 167 168 172 176 176 174 171 167 162 158 157 161 164 167 169 169 167 164 159 156 153 152 149 146 143 142 140 140 139 143 146 146 146 148 146 144 143 145 150 155 161 162 161 163 162 163 159 153 151 147 141 137 132 132 133 131 130 131 133 134 134 134 133 137 138 138 142 144 147 152 157 160 163 167 172 172 170 163 160 156 155 154 152 151 152 153 155 157 158 157 156 155 157 158 160 161 163 163 164 163 161 159 156 154 151 152 150 150 153 154 157 159 157 154 150 143 137 130 121 115 111 110 106 103 102 100 102 102 
16 97 100 101 99 95 93 94 94 93 88 84 81 83 85 87 84 85 90 93 96 99 100 103 106 110 113 112 111 112 116 119 119 116 119 121 123 124 123 120 118 117 119 123 121 120 135 159 188 211 226 236 243 248 250 252 253 254 254 254 254 255 255 255 255 255 255 255 255 255 255 255 255 255 255 255 255 255 255 255 255 255 255 255 255 255 255 255 255 255 255 255 255 255 255 255 255 255 255 255 255 255 255 255 255 255 255 255 255 255 255 255 255 254 253 253 253 254 254 251 248 244 239 232 224 219 217 221 226 230 235 237 238 240 241 239 233 223 215 203 194 195 201 209 221 229 232 230 229 227 222 217 210 205 200 191 176 169 166 168 161 149 138 134 132 117 100 83 61 52 50 50 48 48 50 52 51 52 57 61 62 62 58 52 47 38 27 28 35 39 43 45 40 38 34 31 30 27 26 31 29 32 32 34 36 38 36 36 38 37 33 36 38 38 45 57 71 81 83 78 72 67 57 40 32 36 40 46 48 46 44 41 37 32 30 28 21 18 12 8 9 13 10 16 22 25 22 15 14 12 14 16 24 36 44 47 44 42 35 32 33 27 25 22 21 17 17 16 12 12 20 25 22 26 24 19 15 13 12 11 11 11 23 40 60 70 75 83 88 92 87 76 67 59 54 48 43 39 42 40 42 43 41 43 37 31 32 33 31 34 35 41 46 43 43 42 39 37 35 37 33 34 38 38 37 39 40 39 37 30 23 20 16 10 14 16 18 21 18 19 13  92 95 94 92 90 90 91 91 88 86 83 81 83 80 80 80 79 84 89 89 92 95 98 100 101 102 105 106 104 108 110 110 108 110 112 112 114 115 115 114 114 119 122 122 123 135 158 180 202 219 231 237 243 247 252 253 254 254 254 254 255 255 255 255 255 255 255 255 255 255 255 255 255 255 255 255 255 255 255 255 255 255 255 255 255 255 255 255 255 255 255 255 255 255 255 255 255 255 255 255 255 255 255 255 255 255 255 255 255 255 255 255 254 253 253 253 254 254 251 248 245 240 232 224 221 222 224 227 232 236 237 238 240 241 237 232 223 218 212 207 208 211 216 223 228 231 229 228 225 221 216 212 209 207 200 190 184 184 183 176 170 165 162 162 156 146 141 136 132 130 127 127 125 125 126 126 127 131 140 143 146 146 141 135 126 117 114 116 120 120 121 124 123 120 119 116 114 112 114 114 116 118 120 121 122 124 122 123 122 120 121 116 118 118 127 138 143 146 141 136 129 119 107 106 114 119 122 125 125 123 119 115 110 108 104 100 100 94 92 91 89 89 93 99 97 97 93 94 92 87 89 99 110 112 115 116 117 112 109 112 107 101 97 92 90 91 88 86 85 87 91 92 93 91 89 91 91 90 95 98 97 101 108 123 132 134 140 147 153 147 136 127 121 115 108 108 111 114 118 122 126 130 129 130 126 125 127 127 125 126 127 127 123 123 122 123 123 124 127 120 117 122 121 125 125 125 124 119 115 108 104 99 92 89 85 82 81 72 69 67 67  99 103 104 103 100 97 99 98 95 91 90 89 92 92 90 89 90 94 97 100 102 103 105 109 112 112 113 113 114 117 119 120 118 117 120 124 124 123 121 119 117 120 123 122 124 135 159 184 207 221 231 238 244 248 252 253 254 254 254 254 255 255 255 255 255 255 255 255 255 255 255 255 255 255 255 255 255 255 255 255 255 255 255 255 255 255 255 255 255 255 255 255 255 255 255 255 255 255 255 255 255 255 255 255 255 255 255 255 255 255 255 255 254 253 253 253 254 254 251 248 245 241 236 231 228 227 230 232 234 238 239 239 240 241 240 236 230 227 225 222 223 224 226 228 233 234 232 231 229 228 226 223 221 220 217 214 209 207 207 203 198 194 193 192 188 185 181 178 178 178 176 173 171 171 170 171 173 175 179 182 185 187 184 180 176 170 166 167 167 169 171 169 168 167 167 166 166 165 164 165 167 168 167 169 170 170 170 170 168 167 165 164 166 168 172 178 180 179 178 173 169 164 158 156 160 164 167 169 169 167 165 160 156 155 153 150 146 145 144 142 141 141 145 147 148 147 147 147 146 143 143 146 151 157 158 159 161 159 158 157 154 151 146 143 140 136 135 135 136 135 136 137 136 137 137 137 140 142 142 145 145 149 155 162 164 168 171 175 178 175 169 163 158 155 154 153 153 154 155 156 158 158 159 158 157 158 158 161 163 161 163 164 160 158 154 153 154 153 153 148 148 152 157 159 158 157 156 151 144 135 130 121 115 111 109 103 101 100 97 96 102 
17 101 104 104 102 98 96 98 97 94 88 84 84 86 88 87 86 88 92 96 98 100 102 103 108 112 114 114 114 116 118 122 122 120 123 122 122 121 123 122 117 116 119 121 119 120 132 156 184 209 225 235 242 247 249 252 253 253 254 254 254 255 255 255 255 255 255 255 255 255 255 255 255 255 255 255 255 255 255 255 255 255 255 255 255 255 255 255 255 255 255 255 255 255 255 255 255 255 255 255 255 255 255 255 255 255 255 255 255 255 255 255 255 255 254 254 254 255 255 253 249 244 237 230 220 211 211 217 223 231 237 240 243 244 242 239 234 224 213 199 191 191 203 216 226 233 236 237 236 231 225 220 209 201 191 178 160 151 156 159 153 142 135 132 126 110 99 79 61 55 52 52 48 47 48 49 49 50 57 62 63 61 55 49 45 36 30 32 36 40 42 42 41 41 37 31 27 28 30 33 31 32 32 33 34 39 37 38 37 35 33 35 35 34 44 59 77 87 89 86 83 79 65 44 33 34 41 46 46 47 47 41 36 34 32 28 25 22 18 13 14 17 17 20 23 26 25 21 17 15 16 17 28 35 38 42 39 37 31 27 29 29 25 24 26 22 19 20 16 13 20 24 27 26 25 22 18 15 13 13 14 15 24 38 58 76 83 86 90 92 90 83 73 62 54 46 37 37 39 41 44 43 39 38 36 34 32 31 33 31 34 40 45 46 41 36 35 32 34 34 31 31 33 36 39 40 40 39 38 29 21 15 13 10 11 14 13 13 13 15 14  96 98 97 96 95 92 93 92 89 87 83 84 84 81 82 83 84 88 91 92 95 97 97 102 104 106 106 106 106 111 114 112 110 112 112 115 115 115 116 113 113 118 121 122 122 132 153 177 199 219 228 236 242 247 251 253 253 254 254 254 255 255 255 255 255 255 255 255 255 255 255 255 255 255 255 255 255 255 255 255 255 255 255 255 255 255 255 255 255 255 255 255 255 255 255 255 255 255 255 255 255 255 255 255 255 255 255 255 255 255 255 255 255 254 254 254 255 255 253 249 245 238 232 223 218 219 223 226 232 237 239 243 244 242 237 232 226 218 210 205 205 212 220 226 231 234 236 234 228 223 219 212 205 199 192 179 173 176 177 174 168 166 164 163 155 149 143 138 135 132 129 126 125 124 125 126 127 132 141 144 144 143 142 135 123 116 115 117 120 120 121 122 124 124 119 116 114 113 113 113 116 118 118 119 122 123 123 122 119 118 120 118 117 121 130 141 148 150 148 142 134 122 109 106 112 118 122 127 126 125 123 116 113 110 107 106 103 98 95 93 91 93 94 98 102 100 97 97 92 90 92 98 103 105 111 112 112 109 104 106 106 102 98 94 93 93 92 96 92 91 93 97 95 89 89 94 93 92 96 100 102 105 111 125 137 141 144 149 152 150 142 131 120 116 111 107 109 117 120 122 127 128 127 128 122 121 122 123 123 123 124 126 126 126 122 119 123 125 126 120 116 119 121 125 123 123 124 117 109 101 96 96 88 82 82 78 73 67 65 65 65  102 108 108 106 102 100 101 100 98 94 91 91 92 93 92 90 92 94 98 101 103 103 107 111 114 114 115 115 116 119 122 121 120 119 121 125 126 124 122 119 118 120 122 122 122 134 157 181 205 220 230 237 243 248 252 253 253 254 254 254 255 255 255 255 255 255 255 255 255 255 255 255 255 255 255 255 255 255 255 255 255 255 255 255 255 255 255 255 255 255 255 255 255 255 255 255 255 255 255 255 255 255 255 255 255 255 255 255 255 255 255 255 255 254 254 254 255 255 253 249 245 240 235 229 226 225 228 231 235 238 240 243 244 243 241 237 232 229 223 220 222 224 227 231 235 237 238 237 233 229 227 223 221 218 214 210 204 205 205 203 197 194 194 193 191 187 184 180 179 178 176 173 172 172 170 170 173 177 180 183 183 184 183 179 175 169 167 166 166 168 169 168 166 166 166 165 164 162 162 162 164 165 167 169 171 172 171 170 169 168 167 167 167 169 173 180 183 183 182 179 175 168 160 156 159 164 168 168 168 167 164 161 160 159 157 154 148 145 145 144 143 142 145 148 149 149 149 149 148 145 143 144 150 157 158 159 159 156 154 157 155 151 148 144 143 142 141 139 139 141 142 142 141 141 141 140 141 143 146 149 150 150 156 165 170 172 174 177 179 177 173 168 161 157 154 153 154 156 159 160 160 160 160 161 160 158 159 160 159 160 161 161 157 155 153 152 152 153 151 149 149 154 158 160 158 157 156 151 146 137 127 119 111 108 108 102 99 97 95 95 96 
12 103 107 108 105 101 100 100 100 95 92 90 87 89 90 88 88 88 93 97 99 101 104 106 109 114 115 114 116 117 118 120 120 119 119 120 121 121 122 120 117 115 118 118 116 118 130 154 183 206 223 233 241 246 249 251 253 253 253 253 254 254 254 255 255 255 255 255 255 255 255 255 255 255 255 255 255 255 255 255 255 255 255 255 255 255 255 255 255 255 255 255 255 255 255 255 255 255 255 255 255 255 255 255 255 255 255 255 255 255 255 255 255 255 255 255 255 255 255 254 250 245 236 229 216 201 201 211 221 230 236 240 243 244 244 241 233 224 213 200 198 201 209 222 231 235 240 242 240 236 232 224 213 201 186 168 150 137 141 145 142 129 125 123 115 104 92 73 61 56 51 49 45 49 50 49 48 52 59 61 61 62 54 48 41 31 31 35 38 42 45 46 44 42 39 32 28 28 29 31 30 31 31 33 33 36 35 36 37 33 30 35 34 33 43 60 79 91 97 93 91 84 67 48 33 32 39 42 45 47 50 42 39 41 37 33 36 30 27 21 18 16 19 26 31 30 30 25 20 17 16 19 26 33 35 36 35 33 30 24 28 29 27 27 28 28 19 19 23 21 21 26 29 26 20 20 19 18 18 14 18 27 32 39 59 79 86 88 92 93 90 86 76 64 53 44 34 37 40 44 44 40 43 37 33 33 31 29 30 27 30 37 41 40 36 32 29 27 33 31 27 29 35 37 39 40 37 39 34 24 19 12 9 8 7 9 11 10 11 15 14  99 103 102 98 95 96 96 96 91 87 84 83 85 84 84 83 83 88 92 93 94 98 101 102 106 107 106 106 107 112 113 112 110 111 112 114 116 116 114 114 113 117 120 121 121 130 151 174 197 215 226 235 241 246 251 253 253 253 253 254 254 254 255 255 255 255 255 255 255 255 255 255 255 255 255 255 255 255 255 255 255 255 255 255 255 255 255 255 255 255 255 255 255 255 255 255 255 255 255 255 255 255 255 255 255 255 255 255 255 255 255 255 255 255 255 255 255 255 254 250 244 238 231 222 213 214 220 226 234 237 241 243 244 243 240 233 226 219 211 209 209 216 224 229 234 238 239 237 235 230 221 214 207 196 185 175 167 170 172 168 162 165 164 159 154 152 144 137 136 134 131 125 124 122 123 124 127 135 140 144 144 144 141 135 126 120 123 120 119 122 124 125 125 123 118 116 113 113 112 112 115 113 117 120 121 124 127 124 119 117 119 118 118 124 131 141 150 153 153 148 138 127 112 106 112 118 121 127 126 125 122 119 120 114 111 111 109 104 100 95 94 94 97 101 105 101 98 99 95 92 89 96 101 105 107 106 108 109 103 105 105 102 100 96 98 94 93 98 96 95 98 100 95 94 94 94 96 98 99 104 108 110 110 120 132 142 143 148 150 149 143 133 123 114 111 106 108 116 123 124 123 123 126 125 121 120 121 123 121 120 120 123 124 124 121 118 120 124 122 119 117 117 121 124 122 122 124 118 106 100 95 89 84 82 82 78 68 61 65 64 63  105 110 111 109 104 102 102 102 100 97 94 93 94 95 94 92 93 95 99 102 103 104 107 113 116 116 115 116 116 120 122 121 120 119 122 124 124 122 119 118 116 117 119 122 121 131 153 179 202 218 228 236 242 247 251 253 253 253 253 254 254 254 255 255 255 255 255 255 255 255 255 255 255 255 255 255 255 255 255 255 255 255 255 255 255 255 255 255 255 255 255 255 255 255 255 255 255 255 255 255 255 255 255 255 255 255 255 255 255 255 255 255 255 255 255 255 255 255 254 250 245 240 235 228 223 223 227 231 236 239 241 243 245 244 243 237 232 228 224 222 222 225 230 233 237 240 240 240 238 233 228 224 220 217 212 206 200 200 202 200 197 197 195 195 192 189 185 182 180 178 178 175 172 171 171 171 172 178 182 183 183 185 183 179 173 171 169 166 165 167 168 167 165 164 165 164 163 162 162 162 163 164 166 169 171 171 171 169 169 168 168 167 167 169 175 182 185 186 184 182 178 171 162 159 160 163 167 167 168 168 165 164 162 160 160 157 154 149 146 145 144 142 144 149 149 150 152 151 149 146 145 145 150 152 156 160 157 156 156 158 157 153 149 146 144 143 143 142 143 143 144 146 145 141 141 142 143 145 149 152 155 156 157 166 171 174 176 178 178 177 174 169 165 161 157 154 157 160 160 161 162 162 162 162 161 161 159 158 156 157 157 157 156 155 151 149 151 152 151 150 150 154 158 159 157 158 156 150 143 136 127 120 115 109 109 103 98 95 96 97 97 
11 106 111 110 108 104 101 102 104 99 97 92 89 92 92 90 92 89 93 97 101 101 104 105 110 114 115 113 114 115 116 119 118 115 116 118 118 119 117 116 114 112 114 116 115 117 127 151 178 203 221 232 240 246 249 250 252 253 253 253 254 254 254 254 255 255 255 255 255 255 255 255 255 255 255 255 255 255 255 255 255 255 255 255 255 255 255 255 255 255 255 255 255 255 255 255 255 255 255 255 255 255 255 255 255 255 255 255 255 254 253 254 254 255 255 255 255 255 255 255 251 244 236 227 213 199 195 209 221 229 233 239 241 243 244 241 234 225 216 210 212 217 219 225 235 238 241 243 242 239 236 229 219 203 185 164 147 132 129 132 128 122 119 117 110 99 85 71 63 58 54 48 48 51 54 51 49 57 64 65 64 59 51 44 33 29 30 34 40 44 45 47 45 44 39 34 33 31 27 31 30 29 30 31 33 35 35 34 34 31 31 33 36 37 42 60 79 93 101 98 93 86 70 51 34 33 38 40 44 47 47 43 42 40 37 37 38 36 34 31 22 19 20 28 33 33 34 29 23 21 17 22 26 32 34 34 37 33 31 26 26 30 28 30 32 31 26 27 26 24 25 27 26 28 23 20 20 20 17 16 23 34 44 46 54 70 82 88 90 92 86 84 75 65 55 47 39 40 41 45 44 40 42 38 35 32 28 30 27 27 30 33 40 36 32 29 26 23 22 22 25 29 34 38 38 40 38 36 32 24 17 10 6 5 4 7 9 8 8 12 14  102 106 104 101 97 95 96 98 95 93 88 87 90 88 87 86 86 89 93 97 96 97 100 102 105 106 107 106 107 109 110 110 109 110 110 111 115 113 110 110 111 113 116 118 120 128 150 172 195 213 224 233 240 245 250 252 253 253 253 254 254 254 254 255 255 255 255 255 255 255 255 255 255 255 255 255 255 255 255 255 255 255 255 255 255 255 255 255 255 255 255 255 255 255 255 255 255 255 255 255 255 255 255 255 255 255 255 255 254 253 254 254 255 255 255 255 255 255 255 251 244 238 230 221 212 211 219 226 232 236 239 240 242 243 241 235 228 222 217 217 219 221 226 234 237 240 240 239 237 234 227 218 209 195 181 173 166 163 164 162 162 162 160 156 151 150 147 141 135 133 130 128 124 123 125 124 129 136 140 144 142 141 139 130 126 121 123 120 121 124 124 127 128 126 121 117 115 112 112 112 114 114 116 118 119 120 123 122 120 117 118 120 120 121 131 144 153 156 155 150 143 130 115 107 111 118 119 123 125 125 122 122 121 118 117 115 113 111 106 100 96 93 97 103 107 105 102 101 97 92 95 95 99 106 108 108 107 109 106 107 108 105 105 103 102 98 97 99 100 100 102 102 98 96 94 96 97 98 100 107 113 118 117 120 127 139 143 145 146 143 139 130 122 116 110 108 114 117 121 123 122 122 122 123 121 119 118 120 120 118 119 120 123 123 119 119 121 121 117 114 113 117 121 123 123 120 118 116 108 99 95 87 83 81 80 75 71 63 62 63 64  107 113 113 112 108 104 105 105 101 98 95 96 95 96 94 92 93 97 98 102 104 106 108 111 115 116 115 116 116 118 119 120 118 118 119 121 121 119 117 116 114 116 118 119 120 128 150 176 200 217 227 235 241 246 250 252 253 253 253 254 254 254 254 255 255 255 255 255 255 255 255 255 255 255 255 255 255 255 255 255 255 255 255 255 255 255 255 255 255 255 255 255 255 255 255 255 255 255 255 255 255 255 255 255 255 255 255 255 254 253 254 254 255 255 255 255 255 255 255 251 245 241 235 230 224 222 227 231 235 237 240 242 244 245 242 238 233 229 227 227 227 227 231 236 239 242 242 241 240 237 231 226 221 216 211 204 198 196 199 197 197 196 196 195 191 188 185 184 181 179 178 176 174 173 171 170 173 178 181 184 184 184 182 178 172 171 170 169 168 170 170 168 167 166 164 163 163 163 164 163 164 164 166 169 171 171 170 170 169 168 169 167 167 170 175 183 188 189 189 185 179 172 163 159 158 162 166 167 169 170 167 166 164 162 161 160 158 154 149 147 145 142 145 149 151 152 153 153 149 146 145 147 150 151 156 157 158 158 157 158 158 153 151 148 146 144 144 145 145 143 145 147 146 143 142 145 146 148 150 155 160 162 160 163 168 173 175 176 177 174 173 169 165 161 158 157 160 162 162 162 162 163 164 164 161 159 158 158 157 156 156 155 154 153 150 148 150 148 148 148 150 155 158 159 157 157 154 148 140 132 127 119 112 111 108 102 97 94 95 96 99 
15 108 113 113 111 106 103 104 106 102 99 95 92 94 93 90 91 89 90 95 101 101 102 104 109 110 111 112 112 112 114 117 116 112 112 113 115 116 114 113 113 112 111 114 114 116 124 147 174 200 219 231 239 245 249 250 251 252 252 253 253 254 254 254 255 255 255 255 255 255 255 255 255 255 255 255 255 255 255 255 255 255 255 255 255 255 255 255 255 255 255 255 255 255 255 255 255 255 255 255 255 255 255 255 255 255 255 254 254 253 252 252 253 254 255 255 255 255 255 255 252 245 236 225 213 203 200 209 221 228 232 236 238 239 241 238 233 227 221 221 224 226 229 232 237 241 241 242 241 240 237 233 226 211 191 172 152 138 127 124 120 120 117 112 106 94 81 70 64 58 55 52 53 58 61 59 56 64 69 66 64 58 50 44 30 26 28 36 44 47 46 47 46 45 42 37 36 36 34 34 30 31 31 29 31 30 31 34 34 35 36 32 36 35 40 61 81 92 98 97 94 85 71 52 34 32 33 38 43 45 45 45 43 40 42 39 40 41 39 40 35 24 24 30 33 35 34 32 28 19 16 19 25 30 36 35 34 33 29 24 25 30 29 32 33 32 31 31 27 27 25 26 24 28 25 20 21 19 21 25 33 43 52 52 54 63 72 80 84 84 83 80 73 67 56 50 46 43 40 42 40 39 37 38 38 32 29 30 28 28 29 28 34 32 28 25 22 20 17 16 19 23 32 35 38 39 40 33 30 24 12 6 6 3 4 9 8 7 7 11 13  103 106 106 104 100 97 100 100 95 94 90 90 90 90 89 87 84 87 91 96 97 97 97 101 104 105 107 106 106 109 108 107 106 105 106 109 111 110 106 109 112 112 115 117 119 126 148 169 191 210 224 231 238 244 249 251 252 252 253 253 254 254 254 255 255 255 255 255 255 255 255 255 255 255 255 255 255 255 255 255 255 255 255 255 255 255 255 255 255 255 255 255 255 255 255 255 255 255 255 255 255 255 255 255 255 255 254 254 253 252 252 253 254 255 255 255 255 255 255 252 246 238 228 221 216 215 220 227 232 234 236 238 239 240 239 235 230 226 226 226 227 230 231 235 239 240 240 239 237 234 230 224 213 200 187 176 169 164 162 159 160 161 161 156 149 148 145 141 136 132 130 129 128 128 125 124 131 137 142 143 142 141 136 126 122 122 123 123 123 124 126 130 128 126 122 121 121 116 113 113 115 115 114 115 116 117 119 120 121 120 119 121 118 121 133 146 154 159 157 152 145 131 115 107 110 114 116 121 124 124 125 124 121 121 121 116 118 118 112 106 97 96 97 102 108 108 105 100 94 91 93 95 99 103 107 109 107 109 108 105 109 109 105 104 103 102 102 101 102 102 102 102 100 96 92 96 99 101 104 109 116 123 121 118 119 128 136 139 139 135 130 128 124 118 115 115 117 117 118 119 120 122 121 123 123 118 117 118 122 121 120 121 123 120 118 119 120 117 114 109 110 118 122 121 123 121 116 111 105 94 87 87 81 77 79 75 72 66 65 61 62  109 116 117 114 109 106 107 107 104 102 99 96 95 96 96 95 95 97 100 103 103 105 107 109 113 114 113 114 113 115 117 116 115 115 116 118 118 116 115 115 114 114 117 118 118 126 149 174 197 214 226 234 240 245 249 251 252 252 253 253 254 254 254 255 255 255 255 255 255 255 255 255 255 255 255 255 255 255 255 255 255 255 255 255 255 255 255 255 255 255 255 255 255 255 255 255 255 255 255 255 255 255 255 255 255 255 254 254 253 252 252 253 254 255 255 255 255 255 255 252 246 241 235 230 226 224 228 233 235 236 239 239 240 242 240 237 234 231 231 231 232 233 234 237 241 242 241 241 241 238 234 229 223 218 213 207 200 197 197 197 197 196 195 194 192 189 185 183 181 180 178 177 175 174 172 172 177 179 181 183 183 182 180 175 172 170 170 169 168 169 170 170 168 166 165 164 162 163 165 166 166 164 166 166 168 170 167 168 168 168 168 166 165 168 174 182 188 189 190 187 181 174 164 156 158 161 165 167 171 171 169 167 164 163 162 161 159 158 154 151 149 146 148 152 154 155 154 155 152 145 145 146 148 153 156 157 158 158 159 158 159 157 154 151 150 148 145 147 147 146 146 146 146 146 146 147 148 150 153 157 161 165 163 160 163 169 173 173 175 172 171 168 164 162 159 162 163 163 163 164 163 164 164 164 163 159 157 158 158 155 154 154 153 151 151 149 149 146 143 146 150 155 156 158 158 154 150 145 137 129 124 121 112 110 107 101 98 97 96 97 98 
16 110 115 114 112 108 105 105 105 104 100 94 92 93 92 91 89 90 92 96 100 99 99 102 104 107 108 107 108 109 112 112 111 109 111 112 113 113 114 112 112 112 111 111 114 114 123 146 173 198 217 229 236 242 248 250 250 251 251 252 252 253 253 254 254 255 255 255 255 255 255 255 255 255 255 255 255 255 255 255 255 255 255 255 255 255 255 255 255 255 255 255 255 255 255 255 255 255 255 255 255 255 255 255 255 255 254 253 253 252 251 251 252 254 255 255 255 255 255 255 251 244 234 223 213 208 205 209 216 227 232 232 232 232 232 230 228 226 226 226 227 230 236 238 239 241 243 243 241 241 238 235 229 219 205 189 169 148 133 125 125 123 115 111 107 98 86 74 66 60 57 59 57 64 69 68 69 72 74 71 66 60 51 44 31 27 31 36 41 44 46 46 47 45 48 43 40 41 39 37 34 35 33 30 29 31 32 34 36 36 35 33 34 35 41 55 76 88 93 94 89 83 70 51 31 26 29 34 42 46 45 44 43 42 44 42 43 46 44 45 43 31 29 33 34 38 41 34 30 23 16 18 22 30 35 34 34 34 30 27 27 28 33 33 35 33 35 33 31 31 30 31 28 28 25 19 20 20 25 31 40 48 53 58 55 55 62 69 76 79 79 73 68 64 58 51 48 45 42 39 41 40 39 40 38 33 31 31 31 33 34 31 29 32 27 23 22 20 12 13 17 21 31 33 36 39 38 33 26 17 11 6 3 4 5 6 7 10 8 10 14  104 107 106 105 102 100 100 101 99 94 91 90 90 88 87 85 84 89 93 95 96 96 96 98 101 100 101 103 104 105 104 104 102 102 106 106 107 110 107 110 110 112 115 117 118 125 145 166 188 209 223 229 236 242 246 250 251 251 252 252 253 253 254 254 255 255 255 255 255 255 255 255 255 255 255 255 255 255 255 255 255 255 255 255 255 255 255 255 255 255 255 255 255 255 255 255 255 255 255 255 255 255 255 255 255 254 253 253 252 251 251 252 254 255 255 255 255 255 255 251 246 238 228 221 219 218 220 224 232 233 233 234 234 234 232 231 230 230 231 231 232 236 236 237 241 242 241 240 239 236 232 227 219 210 201 190 177 169 165 164 162 161 162 157 149 149 144 139 135 134 134 132 130 131 129 128 136 139 142 143 142 138 133 127 123 123 125 125 123 124 126 127 126 126 124 124 121 119 118 117 118 118 114 113 116 117 118 119 119 119 117 117 121 122 130 144 152 157 155 151 143 130 115 106 108 110 117 123 124 125 125 120 123 124 119 120 119 118 114 108 102 97 101 105 110 110 106 102 95 92 92 96 98 101 108 108 108 110 108 107 109 110 106 105 105 106 105 104 105 105 104 103 102 100 94 96 100 101 106 110 115 121 121 117 110 116 124 131 133 130 126 125 120 117 117 120 120 120 118 118 121 120 120 122 122 117 117 117 119 120 121 122 122 119 118 120 118 113 110 109 109 115 118 121 120 119 115 109 100 91 82 79 82 78 76 78 73 70 68 65 61  112 117 118 115 111 107 107 107 104 101 98 94 95 96 95 95 93 96 98 102 103 101 105 107 111 112 110 110 109 111 114 112 113 113 113 115 116 116 115 113 112 114 115 117 118 125 146 169 193 211 224 233 239 243 247 251 251 251 252 252 253 253 254 254 255 255 255 255 255 255 255 255 255 255 255 255 255 255 255 255 255 255 255 255 255 255 255 255 255 255 255 255 255 255 255 255 255 255 255 255 255 255 255 255 255 254 253 253 252 251 251 252 254 255 255 255 255 255 255 251 246 240 234 230 228 226 228 231 235 237 238 237 237 237 236 235 234 233 233 234 235 237 239 240 241 243 242 242 241 239 236 231 226 221 217 213 206 200 198 199 199 196 194 195 191 190 186 184 181 181 179 178 176 175 175 176 180 183 183 182 183 181 179 175 173 172 171 170 170 169 170 169 167 166 167 165 164 166 165 165 166 165 164 165 167 168 168 168 169 167 165 166 164 167 173 182 188 188 189 187 182 174 164 157 157 159 162 167 169 169 169 169 165 164 164 163 162 161 157 154 151 149 149 155 156 156 156 155 151 146 147 147 150 154 155 159 161 159 160 158 159 159 157 155 153 150 148 149 149 149 150 149 149 150 148 150 149 151 155 157 160 163 163 159 158 164 168 169 170 169 167 166 165 162 161 162 162 163 163 164 164 163 163 163 162 160 158 157 156 156 153 154 154 152 152 150 146 144 139 143 148 153 156 158 157 154 148 141 135 126 117 117 117 112 110 105 103 103 101 100 97 
13 109 113 114 110 107 103 103 102 101 98 93 88 87 88 92 89 86 88 91 95 95 97 100 102 104 104 105 104 105 107 109 108 108 108 109 111 113 113 111 111 111 110 112 114 112 120 143 169 195 215 227 235 241 246 249 251 251 250 251 251 252 253 253 254 254 255 255 255 255 255 255 255 255 255 255 255 255 255 255 255 255 255 255 255 255 255 255 255 255 255 255 255 255 255 255 255 255 255 255 255 255 255 255 255 255 255 254 253 252 252 252 252 252 253 254 255 255 255 255 252 243 234 224 216 210 208 211 218 225 228 228 226 225 222 223 226 229 229 225 225 231 236 238 239 241 243 245 243 241 239 237 233 226 216 204 190 168 153 139 137 131 117 114 115 107 96 86 78 69 65 63 61 67 72 78 82 85 82 76 69 62 54 42 33 31 31 37 41 45 45 47 47 46 49 47 44 41 42 40 35 34 33 32 30 32 37 35 34 32 33 33 35 38 40 53 73 84 88 89 87 78 66 51 34 28 29 35 40 45 45 45 44 43 44 45 48 48 48 46 43 40 37 38 40 37 39 38 32 23 16 23 26 30 32 33 37 35 32 30 29 30 33 35 37 33 37 35 33 33 34 35 32 30 27 22 26 30 32 39 45 48 51 60 60 57 55 58 61 67 69 67 65 63 56 53 52 47 43 43 43 41 42 43 37 35 31 31 31 34 36 34 30 31 26 21 23 18 11 11 17 23 31 34 37 39 37 32 24 16 9 6 6 8 8 8 8 10 11 6 11  105 107 107 103 100 97 97 99 98 93 89 86 89 86 87 83 83 87 90 92 92 94 96 97 100 98 98 100 102 102 103 104 102 104 105 106 109 109 107 109 109 112 114 116 118 125 142 162 185 206 220 227 234 241 245 248 249 249 251 251 252 253 253 254 254 255 255 255 255 255 255 255 255 255 255 255 255 255 255 255 255 255 255 255 255 255 255 255 255 255 255 255 255 255 255 255 255 255 255 255 255 255 255 255 255 255 254 253 252 252 252 252 252 253 254 255 255 255 255 252 245 237 229 223 219 220 221 225 229 231 230 229 227 226 226 229 233 233 230 230 233 236 237 238 240 242 243 242 240 238 236 230 224 218 210 203 191 181 174 171 168 163 162 160 155 152 148 142 137 136 135 134 134 133 132 137 141 144 145 145 143 137 130 126 126 126 126 125 124 124 124 125 126 126 126 125 122 122 120 120 120 119 115 115 118 121 120 118 117 118 117 117 118 123 130 141 150 156 153 148 140 130 119 106 105 108 116 121 124 126 126 123 122 122 123 124 122 120 118 114 108 99 105 111 112 112 109 106 97 93 93 97 98 103 106 108 110 110 111 112 110 111 112 107 106 108 107 106 107 110 108 106 107 107 103 99 101 104 108 111 114 113 117 116 112 109 113 118 122 122 122 122 121 118 116 120 121 120 121 119 120 120 119 121 121 116 115 117 118 121 124 122 122 120 118 120 114 107 105 106 108 112 113 120 117 115 108 103 96 87 82 76 75 83 81 79 76 77 70 71 67  111 116 118 114 111 107 106 107 105 99 97 93 92 93 93 92 91 92 95 98 99 98 102 104 107 108 108 107 107 109 111 110 110 110 111 114 115 115 113 113 112 113 114 116 119 126 144 166 190 210 222 231 237 242 246 249 250 251 251 251 252 253 253 254 254 255 255 255 255 255 255 255 255 255 255 255 255 255 255 255 255 255 255 255 255 255 255 255 255 255 255 255 255 255 255 255 255 255 255 255 255 255 255 255 255 255 254 253 252 252 252 252 252 253 254 255 255 255 255 252 245 240 234 230 229 229 229 231 235 236 236 235 234 234 233 233 236 236 234 233 235 238 239 240 242 243 244 244 242 240 238 233 229 225 221 218 213 209 204 204 202 197 193 196 193 190 189 185 182 180 178 178 177 176 176 179 183 186 184 181 181 181 180 175 173 173 172 171 170 170 170 168 167 166 166 167 169 168 166 164 167 167 166 166 167 168 168 168 168 166 163 164 165 168 174 181 186 188 189 186 180 173 163 158 155 157 162 167 169 170 170 169 167 166 165 164 162 162 160 157 153 150 152 157 158 158 157 155 151 146 146 149 152 156 158 160 160 161 159 159 158 158 158 157 155 153 151 151 151 151 152 153 152 153 152 152 152 152 155 157 158 160 160 159 156 157 161 164 165 165 164 164 164 161 161 162 161 162 163 163 163 164 164 163 162 162 158 159 157 156 153 151 151 151 151 152 146 142 143 144 147 153 157 156 155 153 147 140 130 122 116 110 114 116 111 108 107 104 101 102 103 
13 106 109 110 108 105 100 100 99 98 93 90 86 84 86 87 84 84 84 89 93 95 96 99 101 103 103 102 102 102 105 107 107 108 107 108 111 113 112 112 112 111 110 112 112 113 121 140 164 190 211 225 234 240 246 249 250 251 251 250 251 251 253 253 253 254 254 255 255 255 255 255 255 255 255 255 255 255 255 255 255 255 255 255 255 255 255 255 255 255 255 255 255 255 255 255 255 255 255 255 255 255 255 255 255 255 255 255 254 252 251 251 251 251 251 252 253 254 254 254 250 242 235 225 217 212 211 217 224 224 220 220 220 217 217 222 228 230 230 228 227 232 235 236 237 239 240 242 243 240 239 237 234 230 220 210 198 182 169 157 151 150 131 121 124 119 111 104 96 85 79 72 70 70 72 83 91 93 90 84 73 66 55 41 34 35 35 37 41 45 46 48 49 48 48 45 44 43 44 40 38 37 33 31 32 32 34 33 34 34 36 34 33 34 39 53 69 80 86 90 89 79 68 50 33 29 30 32 37 42 44 46 44 45 45 45 49 53 50 48 45 42 40 41 42 43 41 39 35 23 17 21 28 34 35 36 42 38 30 26 26 30 32 32 35 37 38 36 33 33 35 32 32 33 33 33 34 39 40 44 47 49 53 58 59 59 52 49 46 50 61 62 61 62 57 54 53 49 43 44 41 40 45 45 42 40 36 35 34 34 35 35 34 31 27 24 22 15 9 11 16 24 30 37 37 36 34 31 21 13 6 4 7 9 10 14 10 10 8 6 10  101 105 104 101 99 96 95 96 92 90 86 81 85 87 85 81 81 82 86 88 91 93 93 96 100 98 97 96 97 100 101 103 102 102 103 106 108 107 108 109 110 111 114 116 118 124 139 157 180 202 217 226 233 239 244 246 248 248 250 251 251 253 253 253 254 254 255 255 255 255 255 255 255 255 255 255 255 255 255 255 255 255 255 255 255 255 255 255 255 255 255 255 255 255 255 255 255 255 255 255 255 255 255 255 255 255 255 254 252 251 251 251 251 251 252 253 254 254 254 250 244 237 229 223 221 220 224 227 227 225 226 226 222 222 225 229 232 233 232 233 235 235 236 236 237 239 242 242 239 238 235 231 228 222 216 210 201 191 183 180 178 168 163 164 162 155 153 148 142 142 139 137 138 139 139 144 150 152 150 148 145 141 129 124 127 127 124 122 123 123 123 124 126 127 124 122 123 125 123 120 120 118 117 119 119 119 120 118 116 117 115 116 116 120 128 139 146 153 153 150 144 129 116 107 107 109 115 120 122 123 125 125 125 126 126 125 125 124 122 117 109 104 110 116 114 113 111 109 96 90 94 98 103 105 107 111 111 111 110 109 110 110 110 108 107 110 108 109 110 110 110 110 108 111 110 105 108 107 109 112 109 108 112 112 114 108 107 108 113 117 114 117 120 118 116 119 118 116 119 117 117 118 122 121 122 121 118 117 120 122 124 123 122 119 114 117 114 103 102 102 106 111 116 118 112 109 106 98 92 83 79 72 71 77 82 79 76 74 70 72 69  109 113 113 112 107 103 103 103 101 96 94 90 90 90 90 89 88 88 93 96 97 98 102 103 104 105 106 105 105 107 110 110 109 108 111 113 115 115 114 113 113 112 114 117 119 124 142 164 188 208 220 229 236 241 245 248 249 250 251 251 251 253 253 253 254 254 255 255 255 255 255 255 255 255 255 255 255 255 255 255 255 255 255 255 255 255 255 255 255 255 255 255 255 255 255 255 255 255 255 255 255 255 255 255 255 255 255 254 252 251 251 251 251 251 252 253 254 254 254 250 244 239 234 231 229 229 231 233 233 231 232 232 230 230 231 234 236 235 234 235 237 237 238 239 240 241 244 244 241 240 238 236 232 228 224 220 218 215 210 209 207 200 196 197 197 193 191 188 184 183 180 178 177 178 180 183 187 189 187 185 183 182 179 176 174 173 173 172 170 171 168 166 166 167 168 169 170 168 167 167 168 168 166 167 168 167 166 166 166 164 163 163 165 168 174 180 186 188 189 187 182 174 165 160 157 158 161 165 168 169 169 167 168 167 166 166 165 163 162 159 155 153 155 159 161 161 160 157 151 148 148 149 151 155 160 161 160 161 161 160 159 160 158 157 157 156 154 155 154 155 153 154 156 156 157 153 153 154 153 155 156 154 155 158 159 157 155 155 156 160 162 163 162 161 160 161 161 162 163 163 163 163 164 164 164 163 160 159 159 157 154 152 151 150 150 150 147 144 144 145 148 151 155 153 152 149 143 137 127 120 113 108 108 113 115 113 110 109 105 104 105 
10 102 105 105 103 100 95 95 95 94 90 87 84 85 87 83 80 81 85 88 90 94 95 97 99 103 103 102 101 103 104 107 106 105 107 107 110 112 113 113 113 112 110 111 113 116 119 137 162 187 208 223 233 239 244 248 249 250 251 251 250 251 252 253 253 253 254 254 254 254 254 255 255 255 255 255 255 255 255 255 255 255 255 255 255 255 255 255 255 255 255 255 255 255 255 255 255 255 255 255 255 255 255 255 255 255 255 255 255 254 252 250 250 250 250 251 251 251 251 249 246 239 233 227 219 218 219 221 226 225 218 215 217 218 219 222 225 229 231 235 235 234 235 237 236 237 238 239 239 238 236 233 231 226 217 207 194 182 171 161 156 164 147 137 141 138 131 123 115 104 95 85 76 72 74 85 92 95 93 88 77 66 56 39 32 33 34 36 43 43 45 49 49 49 49 46 44 47 46 40 39 35 33 35 32 29 30 30 33 34 38 37 34 35 40 50 64 80 90 90 91 82 71 52 36 33 36 37 40 42 41 42 44 46 46 46 51 52 50 53 47 40 39 41 45 47 46 41 34 25 20 20 28 38 41 40 38 39 34 24 24 24 31 33 31 34 36 37 38 36 35 32 36 37 37 42 46 46 50 52 50 51 53 54 58 57 50 43 38 39 50 55 57 59 61 57 54 51 44 45 45 43 45 44 43 40 40 41 36 39 39 36 36 35 32 28 20 17 13 16 18 23 30 36 35 32 30 26 20 12 9 7 5 9 10 12 11 11 10 7 9  98 101 101 97 96 92 92 93 90 86 84 81 82 84 83 78 78 82 86 89 92 92 94 96 98 98 96 97 98 100 102 102 100 102 104 105 105 108 111 113 111 110 114 116 120 124 138 157 177 198 215 224 232 238 242 244 247 248 249 250 251 252 253 253 253 254 254 254 254 254 255 255 255 255 255 255 255 255 255 255 255 255 255 255 255 255 255 255 255 255 255 255 255 255 255 255 255 255 255 255 255 255 255 255 255 255 255 255 254 252 250 250 250 251 251 251 251 250 249 246 240 233 228 223 223 225 226 230 229 223 222 223 223 224 226 227 231 234 236 237 236 235 236 235 235 237 238 238 237 234 232 230 227 221 216 210 204 199 189 184 186 175 169 171 168 164 163 159 154 150 148 144 141 141 145 152 156 155 152 149 145 140 127 124 124 124 123 122 121 122 121 124 126 126 125 122 122 125 123 121 118 119 120 119 117 117 116 116 117 115 115 115 115 121 126 135 147 153 154 152 147 136 121 111 112 115 117 120 124 124 124 125 125 128 128 129 127 126 123 118 109 106 111 117 120 116 112 108 99 96 94 97 104 108 109 112 114 111 109 109 109 108 110 109 107 109 110 110 113 111 113 112 111 112 116 113 109 109 107 107 104 105 108 110 113 112 105 104 106 110 115 114 115 119 116 117 117 114 117 118 117 117 120 119 119 121 118 114 119 119 120 124 123 115 112 112 110 103 103 102 104 110 114 115 112 106 100 95 90 82 77 75 75 69 75 80 80 75 71 71 69  104 107 108 107 104 102 100 98 96 92 92 90 88 89 89 88 87 88 91 94 95 98 99 101 104 106 104 104 105 106 110 111 110 110 109 112 115 116 114 113 113 113 116 118 121 125 139 160 185 206 218 227 234 239 244 248 248 249 250 250 251 252 253 253 253 254 254 254 254 254 255 255 255 255 255 255 255 255 255 255 255 255 255 255 255 255 255 255 255 255 255 255 255 255 255 255 255 255 255 255 255 255 255 255 255 255 255 255 254 252 250 250 250 250 251 251 251 251 249 246 242 239 234 231 230 229 230 234 233 229 229 230 229 230 232 233 235 236 237 237 238 237 238 238 238 239 240 240 239 237 235 234 232 228 224 221 219 216 212 210 212 206 199 201 201 198 195 191 188 188 184 180 179 180 184 187 189 191 190 188 185 180 176 173 172 172 171 170 169 168 168 168 167 167 168 170 171 169 168 167 168 168 166 166 167 166 165 165 164 164 163 163 163 167 172 178 187 190 191 189 185 177 168 160 158 160 163 165 166 167 168 167 169 168 166 167 167 165 163 160 157 155 158 161 163 161 160 158 152 149 149 150 151 155 158 161 163 160 160 161 160 160 158 157 157 156 156 155 156 154 153 155 158 159 159 155 154 155 155 154 152 152 155 156 158 158 155 154 154 156 158 158 160 160 161 161 160 161 161 162 162 162 163 164 164 163 161 160 161 160 157 158 154 151 150 149 147 147 147 147 149 149 152 152 150 145 139 135 127 120 114 110 108 109 113 118 115 112 107 107 107 
7 97 100 101 99 96 95 95 94 92 89 84 84 85 85 82 81 79 84 88 92 93 94 96 97 101 102 101 102 103 105 107 107 107 107 109 111 114 116 116 115 114 112 113 113 116 119 135 158 184 207 222 230 237 243 247 249 250 250 251 251 250 251 252 253 253 253 254 254 254 254 254 254 254 254 254 255 255 255 255 255 255 255 255 255 255 255 255 255 255 255 255 255 255 255 255 255 255 255 255 255 255 255 255 255 255 255 255 255 255 253 251 250 249 250 250 249 247 246 243 239 234 230 228 221 221 225 229 231 228 221 215 213 218 222 223 226 231 237 241 240 238 236 235 234 235 235 235 234 233 230 228 225 222 213 204 194 180 170 159 150 158 148 138 147 148 136 130 119 103 99 93 84 76 74 86 90 92 91 85 74 65 53 37 29 34 34 34 37 39 42 45 46 47 50 52 47 46 46 44 38 34 32 35 34 27 26 30 31 33 37 38 37 38 42 52 66 79 89 93 93 89 79 63 45 37 35 40 44 43 42 43 43 45 48 50 53 53 54 53 47 43 43 44 46 49 49 42 35 26 23 24 29 34 39 40 39 41 34 25 25 25 27 29 31 31 35 37 37 34 33 32 35 40 48 50 55 51 52 53 50 50 52 53 53 52 49 41 37 34 40 50 52 56 59 59 55 53 47 44 45 45 45 46 43 43 39 37 34 41 44 42 40 37 34 29 19 18 16 13 20 26 31 35 36 35 30 25 21 14 11 11 7 8 9 13 12 8 11 13 8  94 96 95 94 92 92 92 92 91 86 82 82 85 84 82 79 79 83 87 90 94 93 95 95 96 96 96 97 100 100 103 102 101 101 104 107 109 113 113 114 111 110 116 120 121 124 136 154 174 196 213 222 230 236 239 243 245 247 248 249 250 251 252 253 253 253 254 254 254 254 254 254 254 254 254 255 255 255 255 255 255 255 255 255 255 255 255 255 255 255 255 255 255 255 255 255 255 255 255 255 255 255 255 255 255 255 255 255 255 253 251 250 249 249 249 248 247 244 243 240 236 231 229 224 223 227 231 234 231 224 222 221 223 226 226 228 233 237 240 241 237 236 235 235 235 235 235 235 233 229 228 226 225 219 213 208 203 199 191 184 185 177 170 176 175 169 167 163 159 157 155 150 147 145 150 154 156 156 152 148 146 137 126 122 126 124 121 120 120 120 121 123 125 123 125 125 123 124 125 124 119 119 118 116 116 117 117 118 116 116 115 116 117 121 127 136 147 153 156 155 151 140 128 115 111 115 122 122 123 124 123 121 125 127 128 131 130 126 121 117 112 110 112 116 118 117 114 107 100 96 96 101 105 108 112 114 114 112 109 110 109 108 108 108 108 109 110 111 110 111 111 112 114 116 118 116 111 108 107 104 102 105 107 109 114 117 110 106 104 105 112 115 112 116 119 120 120 116 115 118 118 118 119 118 118 117 115 114 118 121 121 121 120 119 114 107 103 100 100 102 104 107 112 114 111 104 103 100 92 85 76 75 78 73 72 75 84 83 76 73 71  100 102 104 104 103 99 97 98 95 93 92 89 88 89 89 86 85 86 89 93 96 97 98 101 104 106 105 104 106 107 109 111 111 110 111 113 117 117 117 116 115 114 117 121 122 125 137 159 181 201 216 225 232 238 243 247 248 248 249 250 251 251 252 253 253 253 254 254 254 254 254 254 254 254 254 255 255 255 255 255 255 255 255 255 255 255 255 255 255 255 255 255 255 255 255 255 255 255 255 255 255 255 255 255 255 255 255 255 255 253 251 250 249 250 250 249 248 247 246 242 239 237 235 231 230 232 234 235 235 230 228 227 229 231 232 233 235 239 241 241 240 237 237 237 237 237 237 237 237 235 233 232 230 227 223 221 218 215 213 208 210 208 203 205 205 201 198 195 191 190 188 183 182 184 186 189 191 193 192 187 184 179 174 171 170 171 168 169 168 167 168 167 167 168 169 172 172 171 169 167 166 168 167 166 166 165 165 164 164 164 163 162 163 166 171 177 185 191 193 193 188 179 170 164 160 161 163 166 166 167 168 168 169 170 168 166 167 167 164 160 158 156 160 164 166 164 162 159 154 151 148 148 151 154 157 160 162 161 161 160 160 160 158 156 154 155 155 156 157 156 156 157 160 161 161 159 156 155 153 151 149 151 153 154 155 157 156 155 155 155 154 154 159 159 160 162 161 161 161 161 161 163 163 161 162 163 161 161 161 159 160 159 157 155 151 149 147 146 148 149 150 150 152 151 147 144 138 136 131 123 116 109 107 108 108 111 119 117 112 112 110 
5 95 99 102 99 97 94 93 93 90 86 87 84 84 83 83 81 80 84 89 93 93 95 97 97 101 104 102 103 104 105 109 112 111 111 112 113 118 120 118 117 116 114 117 119 117 119 133 155 179 203 219 229 236 242 247 249 249 249 250 250 250 251 252 252 253 253 253 253 253 253 253 253 253 254 254 254 254 254 254 254 254 254 254 254 254 254 254 254 255 255 254 255 255 255 255 255 255 255 255 255 255 255 255 255 255 255 255 255 255 254 252 250 249 248 246 245 244 242 239 234 227 221 224 228 228 226 229 235 233 227 221 218 218 223 228 232 235 240 242 243 241 238 233 229 230 232 233 232 228 227 225 224 221 214 208 203 193 184 172 156 150 138 135 142 141 130 126 114 101 99 95 87 79 75 80 87 89 86 80 73 64 51 36 32 35 34 32 33 39 42 44 47 51 50 51 50 47 45 45 44 37 34 33 34 29 26 29 31 37 42 39 38 42 42 53 72 84 92 96 96 95 86 73 54 40 35 40 41 42 45 47 45 44 49 49 55 55 55 53 48 44 45 47 47 52 50 44 36 26 25 28 30 35 38 37 39 41 37 30 30 28 24 29 32 31 33 33 34 32 35 37 40 47 56 60 61 59 53 51 49 46 48 49 44 44 47 44 37 34 37 43 51 53 55 57 55 54 53 47 44 41 43 41 39 38 37 34 35 41 45 44 45 43 40 31 19 17 17 13 17 23 30 34 35 31 27 24 22 16 10 9 11 11 9 9 12 14 14 15 12  91 94 96 97 91 91 92 92 86 85 85 81 84 82 82 81 81 82 88 89 90 93 93 93 96 98 99 100 99 98 104 107 106 105 105 108 114 117 115 113 113 114 118 121 121 123 133 151 172 192 210 221 228 234 239 242 245 247 247 248 250 251 252 252 253 253 253 253 253 253 253 253 253 254 254 254 254 254 254 254 254 254 254 254 254 254 254 254 255 255 254 255 255 255 255 255 255 255 255 255 255 255 255 255 255 255 255 255 255 254 252 250 249 247 245 244 243 239 238 235 229 225 226 229 228 226 230 236 233 227 224 223 222 226 229 232 236 238 240 242 240 237 235 233 233 234 233 232 231 228 226 225 224 220 216 212 207 203 194 185 181 174 172 179 176 169 168 163 159 160 159 154 152 150 151 154 157 155 150 149 143 133 127 120 121 121 118 116 117 119 122 125 126 126 127 127 125 124 124 124 120 119 117 116 116 119 119 117 118 119 117 117 119 120 124 139 150 157 160 159 155 147 133 119 112 114 119 119 121 124 123 122 121 123 126 128 129 126 123 117 114 116 116 117 119 119 113 108 99 98 102 101 103 106 110 113 113 111 112 111 111 110 109 106 108 109 112 112 111 109 113 113 116 119 115 117 113 108 104 99 99 103 108 111 112 115 118 112 109 108 109 111 109 115 120 117 117 118 117 118 118 118 116 115 115 116 114 114 117 119 116 118 120 118 114 106 102 100 102 100 103 107 112 114 109 106 103 99 91 82 75 72 70 72 73 73 77 82 84 82 79  97 102 104 103 100 97 96 96 96 94 91 89 89 91 91 86 84 85 90 94 96 96 99 102 104 106 106 106 107 109 112 113 112 114 116 116 119 120 120 119 118 117 119 122 121 124 135 156 178 198 214 224 232 237 242 246 247 248 248 250 251 251 252 252 253 253 253 253 253 253 253 253 253 254 254 254 254 254 254 254 254 254 254 254 254 254 254 254 255 255 254 255 255 255 255 255 255 255 255 255 255 255 255 255 255 255 255 255 255 254 252 250 249 249 247 246 245 243 243 239 236 233 232 233 233 232 234 237 236 232 230 229 228 231 233 235 237 241 243 244 242 239 237 235 235 236 236 236 234 233 232 231 230 227 224 223 221 219 216 210 209 205 203 204 204 200 199 196 192 190 189 188 185 184 187 190 192 192 191 186 183 180 175 172 170 169 167 167 168 169 168 169 170 170 169 172 171 171 170 167 166 167 168 167 165 164 165 164 164 164 162 163 164 167 171 180 187 191 195 195 192 184 175 166 161 160 163 166 168 168 169 168 167 167 168 168 168 167 164 160 157 157 162 166 167 166 163 161 155 152 148 148 151 155 158 159 161 162 161 159 158 157 157 157 156 156 156 158 156 157 158 158 161 162 161 161 160 154 150 148 148 151 153 153 156 160 160 158 157 155 155 154 156 158 159 162 162 161 162 162 164 163 162 161 162 162 160 160 162 160 160 161 158 157 155 149 148 146 145 146 149 150 154 152 148 145 140 135 130 123 115 109 107 106 109 109 114 119 121 119 115 
7 95 100 100 97 95 93 93 94 92 91 89 86 84 86 86 82 83 86 90 93 93 95 97 99 102 105 103 104 106 109 113 116 114 116 117 117 122 124 123 121 120 118 121 122 119 120 131 153 177 200 217 228 236 241 246 249 249 249 250 251 250 250 251 252 252 253 253 253 252 252 252 252 252 252 253 253 253 253 253 253 253 253 253 253 253 254 254 254 254 254 254 254 254 255 255 255 255 255 255 255 255 255 255 255 255 255 254 254 254 254 253 252 249 246 244 243 240 238 237 231 220 213 220 228 232 228 226 232 234 230 226 225 225 228 234 239 239 241 243 244 242 238 234 230 227 227 230 228 227 227 226 226 225 221 216 214 210 198 186 170 153 135 131 132 131 127 127 121 112 110 107 96 83 75 76 82 85 81 77 69 60 49 40 38 37 34 34 35 40 43 44 47 52 50 47 48 46 44 46 44 38 37 35 33 32 29 30 30 33 39 40 39 43 45 55 73 90 101 104 105 101 91 79 62 42 36 40 39 42 45 44 44 43 45 50 54 55 51 50 46 43 47 51 49 51 52 47 37 26 27 32 32 36 37 37 39 38 37 34 30 28 27 29 32 29 29 32 32 33 36 44 48 55 63 64 63 65 57 46 47 42 39 43 43 39 43 43 41 37 35 36 46 52 55 55 55 54 54 51 45 42 42 38 35 36 34 35 38 40 45 44 43 45 39 30 25 18 17 17 17 18 29 36 35 29 27 18 18 15 13 12 13 15 12 9 13 18 14 12 12  92 96 97 94 92 90 91 91 89 90 88 85 84 83 82 79 83 85 87 91 91 94 93 95 99 102 101 101 102 104 109 110 108 109 110 112 116 116 117 117 115 116 120 122 122 123 131 149 169 188 208 220 228 233 239 242 244 246 247 248 249 251 251 252 252 253 253 253 252 252 252 252 252 252 253 253 253 253 253 253 253 253 253 253 253 254 254 254 254 254 254 254 254 255 255 255 255 255 255 255 255 255 255 255 255 255 254 254 254 254 253 253 249 245 242 240 239 237 237 233 225 218 222 229 230 228 228 233 235 230 228 227 226 229 235 238 238 240 243 243 241 238 235 233 231 229 232 229 228 228 228 227 227 225 222 220 217 210 203 193 182 173 173 175 173 168 168 168 164 165 164 161 157 152 153 157 158 157 152 147 138 132 128 122 120 119 116 115 117 122 124 125 128 126 126 125 125 125 123 121 121 120 119 117 115 118 118 118 117 118 118 117 119 121 124 137 152 162 164 164 162 154 140 127 114 112 116 120 120 121 123 124 122 121 123 125 124 124 121 117 115 115 116 119 124 120 114 109 101 101 103 100 103 107 113 111 108 110 114 113 112 109 107 107 107 109 110 111 113 112 116 117 120 120 116 116 115 109 101 98 98 99 107 111 113 117 120 118 115 112 108 109 109 112 113 119 117 116 117 116 113 115 114 110 112 113 113 115 118 120 117 116 117 113 111 107 100 100 103 99 101 109 112 114 111 109 102 95 90 82 77 73 71 72 74 76 74 76 83 85 86  96 101 103 102 99 96 97 97 97 94 91 90 90 90 91 89 87 88 91 95 98 99 100 103 105 107 109 109 110 110 114 117 117 118 119 120 124 126 126 123 122 120 122 123 123 123 133 153 176 198 213 223 231 236 241 245 247 247 248 249 251 250 251 252 252 253 253 253 252 252 252 252 252 252 253 253 253 253 253 253 253 253 253 253 253 254 254 254 254 254 254 254 254 255 255 255 255 255 255 255 255 255 255 255 255 255 254 254 254 254 253 252 250 247 245 243 242 242 240 237 233 229 229 233 234 232 231 235 237 235 232 230 231 233 236 240 240 241 244 245 243 239 237 234 234 234 235 234 233 233 233 232 232 230 228 226 225 222 218 214 210 202 200 202 203 200 200 198 196 195 194 191 188 186 189 192 193 192 189 186 183 176 172 171 170 168 167 166 167 169 170 170 171 170 170 170 170 172 170 167 165 166 169 167 165 167 166 165 166 165 164 163 163 167 172 179 188 195 197 198 195 189 181 169 162 160 162 166 168 169 170 168 168 167 167 167 166 165 163 160 158 160 165 167 166 165 162 161 155 150 150 149 150 154 158 160 161 161 157 156 155 155 155 155 156 157 158 159 157 157 158 159 161 161 161 161 161 154 150 149 150 150 153 153 158 163 165 164 159 158 155 156 156 157 159 162 163 163 163 161 163 161 160 159 161 161 160 161 164 162 159 160 160 157 155 151 150 149 145 145 147 151 154 154 150 146 138 133 128 122 116 110 107 108 110 112 113 115 123 122 118 
10 97 100 100 98 96 96 93 95 95 90 89 87 88 89 89 88 87 88 90 95 97 97 100 101 103 109 109 109 111 113 119 122 121 122 121 123 128 129 128 126 123 122 122 123 121 118 128 151 175 199 217 228 235 241 246 249 249 249 250 251 250 250 251 252 252 252 253 253 252 252 252 251 252 251 251 251 252 252 252 252 252 252 253 252 253 253 253 253 253 254 254 254 254 254 254 255 255 255 255 255 255 255 255 254 254 254 254 254 253 253 253 251 249 246 243 241 239 237 235 229 219 218 222 225 226 227 226 229 233 231 227 226 229 233 236 239 242 244 246 246 244 241 236 231 227 225 225 223 225 227 228 229 228 228 225 223 220 210 198 183 158 136 124 128 133 135 136 130 127 126 114 101 87 76 75 81 80 77 72 61 51 46 40 36 31 33 37 38 39 41 43 45 48 48 46 44 46 47 48 46 45 41 39 33 30 27 29 29 32 34 38 41 43 47 56 72 92 103 111 113 108 100 85 67 47 38 40 40 44 42 44 44 45 44 48 51 52 51 48 44 43 47 52 51 53 50 47 38 26 29 32 34 39 41 39 39 39 35 31 26 24 26 26 28 29 27 28 30 38 45 51 55 60 63 64 65 63 59 51 43 39 31 35 41 40 43 43 43 40 35 34 40 50 52 53 55 57 53 52 47 43 40 36 34 35 35 34 36 39 43 46 44 42 38 31 26 21 18 19 16 16 22 34 34 28 24 18 19 16 13 13 15 17 18 17 16 17 12 10 11  94 97 96 93 94 94 91 94 92 90 89 87 86 86 87 85 84 86 87 91 95 94 93 97 102 106 103 103 105 108 113 115 114 117 116 117 120 121 121 121 119 119 120 123 123 122 131 147 166 187 207 220 227 233 239 243 245 246 247 248 249 250 251 252 252 252 253 253 252 252 252 251 252 251 251 251 252 252 252 252 252 252 253 252 253 253 253 253 253 254 254 254 254 254 254 255 255 255 255 255 255 255 255 254 254 254 254 254 253 253 253 251 249 245 241 240 237 236 235 231 224 220 222 224 226 227 226 229 232 233 230 228 229 232 236 238 241 244 246 245 244 240 236 234 230 227 228 226 226 228 228 229 229 230 228 225 224 218 210 200 187 173 167 172 173 172 175 173 175 175 171 166 161 155 155 158 158 157 152 141 136 129 122 121 115 117 117 119 119 122 125 124 124 126 124 121 123 125 121 120 121 120 118 115 116 116 116 118 116 116 117 116 119 121 124 138 151 162 167 168 165 159 145 130 113 112 116 118 120 122 123 123 123 121 123 122 123 120 117 117 112 116 120 122 123 120 116 109 103 101 100 102 102 107 113 112 112 113 111 108 106 106 106 107 108 108 109 111 113 116 119 119 118 121 121 118 115 111 107 100 99 100 107 111 114 118 119 119 119 112 110 108 109 109 110 116 120 118 117 116 111 110 110 109 109 111 113 115 118 121 120 117 116 114 108 103 102 98 98 98 99 103 111 113 110 105 102 94 90 84 78 77 76 78 79 79 79 78 74 79 87  98 102 105 103 100 99 97 98 98 96 94 93 91 91 93 93 90 91 94 97 99 101 103 104 108 112 112 112 113 114 119 122 122 121 123 126 130 130 130 128 125 123 123 126 125 124 131 151 174 196 213 223 230 236 241 244 246 247 248 249 250 251 251 252 252 252 253 253 252 252 252 251 252 251 251 251 252 252 252 252 252 252 253 252 253 253 253 253 253 254 254 254 254 254 254 255 255 255 255 255 255 255 255 254 254 254 254 254 253 253 253 251 249 247 244 242 241 241 239 236 230 228 230 231 232 232 230 233 237 235 232 231 233 236 237 240 243 245 246 246 244 241 238 236 234 233 233 231 232 234 234 235 234 233 233 231 229 225 221 218 213 205 201 203 203 203 204 201 200 201 199 194 192 190 189 193 194 192 187 185 181 174 171 169 166 165 164 165 168 168 170 171 172 170 169 169 169 170 169 168 165 167 167 165 166 167 167 165 166 166 165 165 165 167 173 181 188 198 202 202 197 193 183 173 163 159 160 163 167 170 170 170 168 168 167 165 166 164 162 159 160 163 165 167 168 166 164 161 154 151 151 149 150 155 159 161 161 159 157 155 155 154 152 153 155 158 160 160 158 159 161 162 162 160 161 160 160 156 152 151 150 151 154 158 160 163 166 167 162 160 156 155 157 157 157 160 163 163 163 161 160 159 158 159 158 158 160 161 162 164 161 160 160 158 154 151 151 148 147 147 147 150 155 155 151 145 139 132 128 122 117 114 111 112 115 116 116 114 117 121 123 
12 98 102 103 103 100 99 95 96 97 93 90 90 89 90 91 91 90 91 93 99 101 101 102 107 114 118 118 117 117 117 123 128 127 126 127 130 134 136 133 128 126 123 124 123 120 118 126 148 174 197 216 227 235 241 246 249 249 250 251 251 250 251 252 252 252 252 252 252 252 252 252 252 251 251 251 251 251 251 251 251 252 252 251 252 252 252 252 252 253 253 253 253 253 253 254 254 254 254 254 254 254 254 254 254 254 253 252 252 253 252 251 249 248 246 245 243 241 237 235 232 226 219 218 219 218 220 223 225 229 230 227 227 227 231 235 237 240 244 244 244 244 243 239 233 229 226 222 221 224 229 232 233 233 233 232 229 225 216 204 187 163 141 127 130 144 148 148 139 131 130 121 104 90 79 70 74 75 70 62 52 45 41 34 31 30 35 38 39 40 42 42 46 46 44 43 43 46 51 53 51 48 43 40 34 29 25 26 28 30 30 33 39 43 44 56 72 91 105 116 117 113 104 86 71 50 37 38 37 41 43 46 47 47 46 48 49 49 54 50 46 45 47 50 51 51 51 46 35 29 28 30 34 39 43 41 37 36 33 27 24 23 21 22 27 29 29 31 36 44 48 53 59 65 65 65 64 62 59 53 41 32 31 33 36 38 41 41 41 40 33 32 36 42 52 54 55 57 55 56 49 42 34 34 33 28 32 33 33 38 41 44 44 41 36 28 20 18 19 18 17 18 23 27 30 30 24 20 21 17 13 13 13 18 20 21 17 14 12 11 13  95 99 100 100 97 94 93 95 94 93 91 89 86 89 90 89 87 88 91 95 97 98 98 103 110 113 113 111 108 110 116 119 118 118 120 123 125 127 125 122 122 120 121 120 121 123 130 146 165 186 206 220 227 235 240 244 246 247 248 249 250 251 252 252 252 252 252 252 252 252 252 252 251 251 251 251 251 251 251 251 252 252 251 252 252 252 252 252 253 253 253 253 253 253 254 254 254 254 254 254 254 254 254 254 254 253 252 252 253 252 251 249 247 245 244 242 240 235 234 232 226 221 218 219 220 222 224 227 229 230 229 228 227 232 235 235 239 243 243 243 243 242 239 234 230 229 225 222 226 230 232 233 233 233 233 230 227 221 213 203 190 179 171 173 179 182 184 180 181 181 179 170 162 157 155 154 154 152 146 136 129 124 119 118 114 115 118 120 121 120 122 124 124 124 121 118 121 123 123 121 122 120 116 115 115 114 116 115 116 117 115 117 118 120 123 136 150 162 170 171 169 160 145 129 115 111 112 118 120 121 124 124 123 121 123 122 121 122 120 118 115 117 121 121 120 118 117 111 103 102 103 104 102 108 111 113 111 110 107 105 103 100 102 105 104 106 110 113 116 116 115 117 117 116 116 115 114 114 112 105 104 106 109 114 114 117 117 118 120 113 110 106 107 109 110 111 114 116 116 113 112 105 104 106 105 110 115 114 116 119 120 116 116 112 108 102 102 100 99 100 100 102 107 109 108 101 99 97 94 88 81 77 77 80 83 86 82 78 76 77 80  100 104 107 106 104 101 99 100 101 99 99 94 92 94 94 94 94 94 97 101 102 102 106 111 114 120 121 119 118 121 126 128 128 128 129 131 134 135 134 132 129 125 125 125 124 123 131 149 171 194 212 223 230 236 241 245 247 248 249 249 250 251 252 252 252 252 252 252 252 252 252 252 251 251 251 251 251 251 251 251 252 252 251 252 252 252 252 252 253 253 253 253 253 253 254 254 254 254 254 254 254 254 254 254 254 253 252 252 253 252 251 249 249 247 246 244 242 240 239 236 231 228 230 229 228 229 229 231 233 234 232 232 233 236 237 239 240 244 245 245 244 243 241 237 235 233 230 230 231 234 235 236 236 236 235 235 231 227 224 221 216 209 203 206 209 208 209 207 204 204 201 197 194 192 190 192 192 189 186 182 177 173 169 167 163 163 165 165 168 169 170 169 172 171 167 167 167 167 168 167 166 167 167 167 166 166 168 167 167 167 165 165 164 167 172 180 190 198 203 203 200 194 184 173 164 159 158 162 165 168 169 170 169 168 166 165 166 166 164 162 161 165 167 170 170 167 165 162 156 152 150 150 153 155 159 161 161 160 158 155 154 153 152 152 154 156 159 161 160 161 163 163 162 160 161 160 159 160 157 154 154 156 156 159 163 164 166 167 165 162 159 157 158 159 157 159 161 163 163 161 159 157 157 156 156 159 161 161 163 164 162 161 159 157 155 151 149 148 147 148 148 149 153 154 151 146 138 134 130 123 119 117 115 118 123 121 120 117 115 116 120 
11 100 104 107 106 103 100 98 100 101 97 95 93 92 93 96 96 95 96 97 101 104 107 113 120 126 130 130 128 125 125 129 132 132 132 134 135 135 138 135 130 127 123 122 121 118 115 126 149 173 197 215 226 235 241 246 249 250 251 250 250 251 251 252 252 253 252 252 252 252 252 252 252 251 251 251 251 251 251 251 251 251 251 251 251 251 251 252 252 252 252 252 252 253 253 253 253 253 253 253 253 253 253 253 253 252 251 251 251 250 249 248 247 246 246 246 246 243 239 237 236 229 216 210 209 209 211 214 221 224 223 221 221 222 225 229 232 237 237 238 239 241 239 235 232 229 227 223 223 228 232 234 236 237 238 238 235 229 220 207 190 171 149 132 127 142 148 146 141 132 126 119 105 93 80 71 69 66 61 59 51 43 38 33 34 33 35 39 41 40 43 42 44 44 42 42 43 48 53 55 55 48 43 41 37 31 30 28 28 28 28 30 36 41 46 57 72 88 106 116 118 115 105 89 70 48 35 32 33 40 45 48 50 49 47 48 49 50 52 52 50 50 53 54 53 53 52 48 38 35 31 26 31 39 42 42 39 38 33 28 26 24 26 25 28 31 30 36 42 47 52 54 61 64 64 65 63 60 55 51 38 30 33 36 40 40 38 39 39 38 34 31 33 37 50 53 54 55 55 56 51 41 34 30 28 25 29 30 31 36 45 42 41 39 32 29 21 16 19 24 17 19 23 28 28 27 27 20 19 21 21 19 16 19 17 20 18 14 12 10 14  95 98 103 103 98 95 95 100 100 95 94 90 88 91 94 92 90 92 95 98 101 107 113 122 129 133 129 125 118 116 121 123 122 122 124 126 127 128 127 123 121 119 119 122 121 120 129 146 166 188 207 220 229 235 241 245 246 248 250 250 251 251 252 252 253 252 252 252 252 252 252 252 251 251 251 251 251 251 251 251 251 251 251 251 251 251 252 252 252 252 252 252 253 253 253 253 253 253 253 253 253 253 253 253 252 251 251 251 250 249 248 246 245 245 245 244 242 238 237 235 228 217 214 214 214 213 217 223 226 224 223 223 224 226 230 233 237 237 238 239 240 238 235 232 231 229 224 224 228 232 234 236 236 237 237 235 231 223 215 206 196 186 177 176 186 187 186 184 184 183 178 169 163 159 153 152 150 146 141 133 126 120 115 112 111 111 116 119 121 122 122 123 125 121 118 118 118 119 121 120 121 119 118 116 115 115 113 114 115 116 113 114 116 117 123 136 149 163 171 174 173 162 147 129 115 106 109 115 117 122 123 125 126 123 122 123 122 120 120 120 119 120 122 124 124 122 120 112 107 104 102 101 105 112 114 114 110 111 109 105 102 103 106 107 105 105 111 115 116 118 118 117 115 113 116 114 114 117 119 111 107 111 114 116 115 116 117 119 118 115 110 108 107 110 114 111 112 115 115 112 107 101 101 103 103 107 111 113 117 119 119 116 114 110 107 102 98 100 101 102 103 104 106 107 108 104 101 100 97 93 86 81 79 82 83 85 85 83 78 76 77  103 106 110 110 107 104 101 103 104 103 103 99 96 98 99 99 98 98 100 104 107 109 117 125 133 137 134 130 128 126 130 133 134 134 134 135 136 138 136 133 129 125 124 125 123 121 129 148 170 193 212 223 230 236 242 246 248 249 250 250 251 251 252 252 253 252 252 252 252 252 252 252 251 251 251 251 251 251 251 251 251 251 251 251 251 251 252 252 252 252 252 252 253 253 253 253 253 253 253 253 253 253 253 253 252 251 251 251 250 250 249 248 247 247 247 246 243 241 239 238 234 227 225 225 225 225 226 229 230 230 230 229 229 231 235 237 239 239 240 241 242 240 238 237 235 232 230 230 232 233 236 237 238 238 239 237 233 228 225 221 217 212 206 206 211 211 211 211 207 205 204 199 195 191 190 191 189 187 184 179 174 170 166 165 163 162 165 166 168 169 171 170 171 172 168 166 169 169 168 167 167 166 166 166 167 167 167 168 167 166 164 165 165 165 171 179 188 197 200 200 200 195 185 172 162 157 157 162 166 168 170 170 169 168 167 167 167 168 168 166 166 169 171 172 172 167 166 163 159 156 152 152 153 155 160 160 160 159 157 155 153 152 152 152 155 156 158 161 162 162 161 162 159 159 161 159 160 160 158 158 156 159 160 164 165 165 167 168 166 164 160 158 158 158 157 159 160 161 163 161 158 157 155 154 154 157 160 161 163 164 164 164 160 157 155 151 149 148 147 148 149 149 151 152 149 145 142 137 134 128 123 120 119 120 125 125 122 117 116 117 114 
12 104 108 114 112 108 105 103 107 109 106 102 100 98 99 102 102 100 99 102 106 111 117 123 130 135 137 138 133 132 130 134 138 137 134 136 138 138 139 135 134 129 122 120 120 118 115 125 147 170 196 215 227 235 241 246 250 250 250 250 251 252 252 252 253 253 253 253 252 252 252 252 252 251 251 251 251 251 251 251 251 251 251 251 251 251 251 251 252 252 252 252 252 252 252 252 252 253 253 253 253 253 253 252 251 250 250 249 248 246 246 246 246 245 245 245 245 244 242 240 237 226 212 201 198 200 197 199 210 219 218 213 210 212 217 221 224 228 231 232 234 233 233 231 229 227 225 226 227 230 233 234 234 235 237 237 236 230 221 208 194 172 147 131 124 134 142 144 135 127 120 113 103 89 78 71 68 64 60 58 53 44 39 35 33 33 34 38 40 39 39 38 43 43 44 47 46 48 52 54 53 48 41 41 41 37 31 27 30 30 28 28 32 36 43 54 70 89 108 117 118 116 108 92 75 54 34 28 32 37 39 44 47 48 49 47 45 49 52 52 50 54 58 58 59 59 58 53 42 37 36 29 27 36 40 40 40 39 33 31 28 27 31 30 33 35 36 38 44 51 56 58 64 60 60 62 63 56 50 48 40 29 30 35 40 41 39 39 40 40 35 29 30 34 43 51 53 56 55 53 49 42 34 28 24 25 29 28 31 34 44 45 41 35 28 27 22 13 17 23 22 19 19 23 26 23 27 24 25 26 27 24 20 16 15 17 16 10 8 11 13  99 105 109 109 105 100 101 106 106 103 101 95 95 97 97 96 95 94 98 101 106 117 128 137 146 149 146 136 128 122 123 127 127 125 126 127 129 130 127 125 121 118 120 122 121 120 127 145 166 189 208 221 230 236 241 246 248 250 250 251 252 252 252 253 253 253 253 252 252 252 252 252 251 251 251 251 251 251 251 251 251 251 251 251 251 251 251 252 252 252 252 252 252 252 252 252 253 253 253 253 253 253 252 251 250 249 249 247 245 245 245 244 244 244 244 245 243 242 239 234 226 215 208 207 208 206 207 214 221 221 217 215 217 221 223 227 232 232 233 235 234 232 230 229 228 227 227 226 228 230 233 233 234 237 237 233 230 223 216 207 197 185 177 177 184 185 183 181 180 181 175 167 162 158 154 151 148 144 142 132 126 118 113 110 109 111 115 118 120 121 121 120 122 121 119 117 117 119 120 121 119 118 120 119 117 115 113 115 114 111 112 113 115 117 121 134 149 163 170 174 171 163 150 134 117 108 107 111 117 121 123 124 126 124 121 124 121 120 121 121 123 128 128 128 129 127 122 115 113 109 103 103 106 111 113 115 112 111 111 108 104 104 109 114 114 110 109 111 116 118 115 115 110 108 115 118 115 119 122 117 110 112 115 119 119 115 117 121 119 120 117 112 110 108 114 113 110 114 113 110 107 105 102 102 105 104 108 114 116 118 119 115 110 106 105 105 97 96 99 107 105 102 106 108 106 108 107 103 99 97 92 86 83 83 82 78 77 76 74 75 76  106 110 115 116 112 109 106 109 111 109 106 104 102 104 106 105 104 101 105 109 112 120 131 139 148 153 150 144 139 134 133 137 137 137 136 137 138 138 135 132 129 125 124 123 122 121 128 148 171 192 211 223 231 237 242 247 249 250 251 251 252 252 252 253 253 253 253 252 252 252 252 252 251 251 251 251 251 251 251 251 251 251 251 251 251 251 251 252 252 252 252 252 252 252 252 252 253 253 253 253 253 253 252 251 250 250 249 248 247 247 247 247 246 246 246 246 244 242 241 238 232 226 221 220 221 220 221 226 227 228 226 225 225 227 231 232 235 236 236 237 237 237 236 235 233 232 232 232 233 234 235 237 238 239 239 237 234 228 224 221 218 214 208 207 210 210 212 210 207 203 202 198 196 193 189 188 187 185 182 178 173 168 165 162 163 163 164 167 168 169 170 169 170 169 167 165 167 169 169 168 167 165 165 166 167 168 167 165 165 165 165 164 165 166 170 178 186 196 201 202 202 196 188 175 163 157 156 158 164 168 170 172 170 168 167 168 168 167 169 169 169 173 174 175 175 171 170 166 161 157 154 154 154 155 159 161 160 158 156 154 152 151 151 152 156 158 158 161 161 160 161 160 156 156 161 160 161 162 163 164 158 160 164 166 167 165 166 169 168 166 163 160 158 158 160 159 161 161 161 159 157 156 155 153 154 155 158 161 163 164 164 163 159 156 156 152 151 148 149 151 147 147 149 150 148 146 144 142 137 132 128 124 122 122 122 121 118 115 114 117 115 
14 110 115 121 122 117 112 110 113 114 112 109 106 104 106 107 105 103 103 106 110 116 122 128 135 138 139 138 134 132 133 135 138 139 137 137 138 138 139 136 132 126 121 120 120 117 113 123 145 171 196 216 227 235 241 246 249 250 251 251 252 252 252 252 252 252 253 252 252 252 253 252 252 252 252 252 252 251 252 251 251 251 251 251 251 251 251 251 252 251 251 251 252 252 252 252 252 252 252 252 253 253 252 250 249 248 247 245 243 243 242 244 244 244 244 243 244 244 243 241 236 222 203 187 180 184 180 180 196 208 214 210 202 197 203 210 213 216 221 225 226 228 228 226 225 223 225 226 226 225 228 230 230 229 230 231 227 221 212 203 191 167 141 123 122 130 140 144 136 128 119 111 98 84 78 70 68 66 61 55 49 44 37 34 31 36 35 34 40 41 39 36 39 40 44 49 46 46 50 54 54 50 45 46 43 40 36 32 30 31 31 29 29 30 36 49 68 88 104 113 117 115 110 95 79 60 37 29 32 34 36 39 43 44 46 46 45 46 49 47 49 53 58 58 61 61 64 55 45 41 39 32 27 34 42 41 39 35 31 29 27 27 31 36 34 35 36 41 48 53 56 59 60 56 55 56 53 49 45 44 42 35 31 34 40 39 40 40 40 40 34 32 33 35 39 49 53 55 54 48 46 43 35 28 24 24 27 28 31 33 42 43 40 35 29 27 23 18 17 21 25 21 15 20 27 24 25 31 30 32 30 26 21 18 16 17 15 9 7 8 13  107 112 114 115 111 107 109 112 110 106 104 102 101 103 103 99 96 97 103 106 112 125 139 149 156 159 157 144 133 127 126 127 129 127 126 126 131 130 125 123 121 117 119 120 119 118 126 145 165 188 209 222 230 236 241 246 250 251 251 252 252 252 252 252 252 253 252 252 252 253 252 252 252 252 252 252 251 252 251 251 251 251 251 251 251 251 251 252 251 251 251 252 252 252 252 252 252 252 252 253 253 252 250 249 247 246 244 243 242 241 243 243 244 243 243 244 244 242 239 235 224 211 203 198 202 200 199 206 214 218 216 211 209 212 217 219 221 224 228 229 230 230 228 226 225 226 226 224 225 228 231 229 230 232 232 228 225 219 214 207 198 183 176 178 181 183 185 182 180 177 173 168 164 157 153 153 147 141 135 129 123 114 112 112 112 112 113 115 117 116 119 119 119 120 118 113 114 118 119 118 117 117 119 121 118 117 117 116 115 114 113 113 113 116 121 134 148 161 167 171 171 164 152 137 119 107 106 110 117 122 124 123 122 123 122 123 121 120 120 122 126 131 132 131 130 131 126 120 116 111 105 104 106 112 112 114 113 111 109 106 103 106 114 115 114 114 109 111 115 113 112 110 105 104 109 113 117 120 123 122 120 117 118 120 119 118 120 122 124 125 121 117 114 112 114 116 115 111 108 108 107 104 103 104 104 105 106 113 114 118 118 114 110 106 106 105 101 99 101 107 105 99 102 107 110 110 109 107 105 100 95 88 85 82 82 79 74 69 68 67 72  112 116 123 123 119 115 113 116 118 115 111 110 107 109 110 109 107 107 108 113 120 130 141 151 158 163 161 154 145 138 136 139 139 138 139 138 139 139 136 132 128 124 121 120 119 119 126 146 170 193 212 222 231 237 242 247 250 251 251 252 252 252 252 252 252 253 252 252 252 253 252 252 252 252 252 252 251 252 251 251 251 251 251 251 251 251 251 252 251 251 251 252 252 252 252 252 252 252 252 253 253 252 250 249 248 248 246 244 244 242 245 246 244 244 243 243 244 243 241 237 230 224 218 217 219 218 218 220 223 226 224 223 221 223 226 228 230 232 233 233 233 233 234 234 231 231 232 232 232 232 234 234 234 235 236 233 230 227 224 222 219 213 206 205 209 210 210 207 205 202 199 197 194 192 189 187 186 184 180 176 172 169 165 163 162 163 163 165 167 168 167 167 167 168 167 165 165 166 166 167 166 165 166 167 169 169 166 167 167 165 165 165 165 165 169 176 185 194 201 205 203 198 189 177 167 159 157 158 162 165 169 171 171 169 168 167 166 165 166 167 170 173 175 176 177 175 172 166 163 160 154 153 153 155 158 160 161 160 158 155 152 152 151 151 156 160 159 160 160 158 158 155 154 155 158 160 161 167 168 167 163 162 166 167 167 166 166 169 169 167 166 163 160 159 161 162 161 159 158 159 157 155 154 153 153 152 156 158 163 165 163 159 156 155 155 153 151 148 149 150 149 147 148 151 151 150 148 145 142 138 132 127 125 125 121 118 116 110 106 110 112 
16 117 122 127 128 122 118 117 119 119 116 113 110 108 109 109 109 106 106 108 115 121 126 133 135 137 140 137 133 131 132 136 139 140 139 136 138 138 140 135 130 125 120 118 116 113 111 123 144 170 196 214 226 234 240 244 248 250 251 251 252 252 252 252 252 252 252 252 251 251 252 252 252 252 252 252 252 252 252 252 251 251 251 252 252 252 252 252 252 252 252 252 252 252 252 252 252 252 251 252 252 252 251 249 247 245 243 240 239 239 240 242 243 243 243 243 244 242 239 236 230 217 195 172 164 163 158 156 171 188 197 200 197 190 181 186 191 198 205 207 213 219 218 216 217 220 221 220 217 217 219 221 222 223 222 220 216 207 196 187 172 151 133 119 119 130 141 144 136 129 119 108 94 82 79 75 70 66 57 50 44 39 37 33 29 37 36 35 40 41 40 34 32 37 44 49 47 47 53 53 53 51 47 46 43 38 39 37 34 34 34 33 32 29 31 42 62 81 98 110 117 118 110 98 82 64 45 36 34 32 36 40 42 42 40 39 41 43 42 44 44 49 56 58 63 60 60 59 47 42 40 36 35 38 42 44 39 35 31 31 28 25 29 38 41 38 34 36 46 53 54 56 57 53 49 51 48 46 45 45 45 38 34 34 39 39 41 39 40 40 35 36 35 34 36 42 51 53 53 46 41 42 37 29 26 25 26 28 30 35 45 45 40 37 30 26 25 21 20 20 24 21 19 21 25 29 30 32 32 32 29 25 24 21 18 18 14 10 9 7 9  112 117 122 122 116 112 112 115 112 108 107 106 104 106 106 104 100 100 104 111 122 135 147 156 162 165 160 148 134 128 129 130 129 128 127 127 129 128 125 123 117 117 118 118 117 117 125 143 165 188 209 221 229 236 241 246 250 251 251 252 252 252 252 252 252 252 252 251 251 252 252 252 252 252 252 252 252 252 252 251 251 251 252 252 252 252 252 252 252 252 252 252 252 252 252 252 252 251 252 252 252 251 249 246 244 242 240 239 238 239 241 242 242 243 243 244 241 238 235 230 222 209 196 193 194 189 189 197 204 208 211 211 207 202 206 208 210 214 217 220 223 225 224 222 223 223 222 220 220 223 225 225 225 225 224 221 215 210 207 199 189 179 172 174 179 183 185 181 178 172 169 166 163 158 152 149 145 139 128 121 117 112 110 111 113 114 114 113 115 115 116 116 116 117 117 112 113 114 117 116 116 119 117 120 120 119 122 119 119 118 115 113 112 110 116 126 141 159 168 171 173 168 154 139 123 109 110 112 116 120 121 122 120 121 119 119 119 119 119 119 123 129 130 132 133 133 130 121 118 116 108 105 108 113 116 114 114 110 109 106 105 105 111 116 115 112 110 111 112 112 109 108 105 102 106 111 117 121 124 125 124 124 122 119 119 119 120 122 124 126 126 123 120 116 117 118 117 113 109 106 106 105 102 103 102 105 106 110 115 119 120 117 110 107 104 103 104 102 104 103 104 105 104 106 110 113 110 108 107 101 96 90 85 82 82 79 68 63 61 61 67  118 123 130 130 126 122 120 121 122 120 116 114 111 112 114 113 112 111 110 115 125 138 149 158 164 169 166 160 148 140 139 141 141 140 140 139 139 139 136 133 128 123 118 118 118 117 125 146 170 192 210 222 230 236 242 246 250 251 251 252 252 252 252 252 252 252 252 251 251 252 252 252 252 252 252 252 252 252 252 251 251 251 252 252 252 252 252 252 252 252 252 252 252 252 252 252 252 251 252 252 252 251 249 248 246 244 241 240 240 241 243 245 243 243 244 245 243 240 238 234 228 222 216 215 215 214 212 216 220 223 223 222 220 218 221 222 224 226 227 229 231 231 230 229 230 230 229 228 228 230 230 230 231 231 230 229 225 222 221 219 215 211 205 204 208 210 210 207 205 203 200 198 193 190 189 187 183 180 176 172 169 165 164 163 163 164 164 163 165 166 166 165 165 166 165 163 164 163 164 166 165 165 166 169 171 170 168 168 168 166 166 164 164 165 168 176 184 194 200 204 203 200 192 181 170 161 158 158 163 165 167 167 168 168 167 166 165 164 163 165 169 173 175 176 177 176 173 168 165 161 156 155 152 155 158 158 159 159 158 155 152 151 152 154 157 160 160 159 159 155 153 153 152 153 156 160 163 166 170 171 170 166 166 167 166 166 167 170 170 169 168 165 162 162 163 163 163 161 159 158 155 156 156 155 153 152 154 157 161 164 162 159 157 156 155 155 152 149 151 151 148 148 149 152 152 153 153 149 144 140 135 131 127 125 120 116 114 108 104 105 108 
9 122 130 134 132 127 123 121 122 122 119 116 114 110 111 114 111 110 111 111 120 128 133 137 134 136 138 135 131 128 133 138 140 142 140 140 141 138 137 135 130 124 119 115 115 111 110 120 143 168 192 211 224 232 238 243 247 249 250 251 251 251 251 250 249 249 250 250 250 250 251 252 252 253 253 252 252 252 252 252 252 252 252 252 252 252 252 252 252 252 252 252 252 252 252 252 251 251 251 251 251 251 250 247 244 242 239 236 234 234 237 240 242 243 245 245 243 240 235 229 222 211 185 156 145 142 139 139 150 160 165 170 179 177 163 156 155 163 170 175 185 196 202 210 212 207 201 200 198 202 202 204 208 208 205 203 198 189 175 163 145 129 117 110 111 126 133 129 124 121 107 91 85 79 77 75 72 62 52 48 41 38 38 35 30 29 36 39 37 39 40 37 36 39 42 46 49 46 47 47 48 46 46 45 41 37 39 43 44 39 36 37 37 32 32 40 57 72 90 105 113 115 111 101 86 68 48 36 33 35 39 42 40 36 34 34 36 39 39 45 42 44 53 59 60 61 61 58 52 45 45 40 39 40 42 43 41 37 35 32 29 31 35 42 44 39 35 35 40 50 50 51 52 47 42 42 46 48 46 47 44 35 35 32 30 35 37 38 38 38 38 33 34 36 35 40 47 50 50 45 43 40 35 33 27 25 25 29 32 33 43 44 39 35 29 25 23 21 22 22 22 22 25 25 24 32 31 31 35 32 30 27 24 23 25 21 14 11 10 10 9  116 120 128 126 119 115 115 118 117 113 110 109 105 106 108 106 103 103 107 117 130 144 153 158 166 169 164 149 134 130 130 130 131 129 129 129 129 128 126 124 119 113 115 117 116 115 123 143 167 187 206 219 228 235 239 245 249 250 251 251 251 251 250 249 249 250 250 250 250 251 252 252 253 253 252 252 252 252 252 252 252 252 252 252 252 252 252 252 252 252 252 252 252 252 252 251 251 251 251 251 251 249 246 242 241 238 235 233 234 236 240 242 242 244 243 240 238 233 228 224 217 204 189 180 181 177 178 185 189 192 194 202 203 195 189 191 194 197 200 206 211 214 218 218 215 212 210 210 211 211 213 216 215 214 213 211 207 203 197 186 178 172 168 167 174 179 176 174 172 166 163 164 162 159 152 147 138 131 126 121 115 113 111 111 112 115 117 113 114 118 115 113 111 111 114 113 112 113 113 113 115 116 117 120 119 120 122 125 123 118 117 115 111 108 114 124 139 152 164 170 172 168 157 144 129 116 112 112 115 119 122 123 120 116 113 113 116 116 117 118 121 125 131 133 132 133 130 123 120 118 113 110 110 109 115 117 114 111 110 108 108 109 111 110 112 110 110 109 107 108 106 104 102 102 106 112 117 124 127 126 126 124 122 119 117 118 123 125 125 128 128 125 124 120 119 119 118 115 110 107 102 107 108 104 105 106 108 107 112 118 117 116 113 110 105 104 103 105 105 105 102 103 108 109 112 112 109 109 104 101 98 90 88 89 83 77 70 64 62 61 64  123 127 133 134 131 127 124 124 125 123 119 118 116 115 117 116 115 114 115 122 134 145 156 163 168 175 171 165 150 141 141 142 143 141 141 140 139 139 137 132 127 122 119 118 117 116 124 144 168 189 207 219 228 234 240 245 249 250 251 251 251 250 250 250 250 250 250 250 250 251 252 252 253 253 252 252 252 252 252 252 252 252 252 252 252 252 252 252 252 252 252 252 252 252 252 251 251 251 251 251 251 250 248 244 243 239 237 236 236 238 241 243 244 246 246 244 241 236 233 230 225 218 213 209 209 208 206 212 215 216 218 220 218 215 213 214 217 218 220 223 224 225 226 226 225 224 224 223 223 223 224 225 226 224 225 225 221 219 218 215 211 207 203 202 207 209 208 205 205 202 199 196 192 189 188 183 180 177 172 170 167 164 162 162 163 165 165 164 165 165 164 163 164 164 163 163 161 162 164 163 163 163 166 169 169 171 170 168 168 169 168 164 165 164 167 173 182 193 199 204 204 202 194 182 173 163 160 160 163 165 167 167 168 166 163 162 163 163 164 164 167 171 175 177 176 176 175 170 167 163 159 157 154 157 160 160 159 159 159 156 154 154 154 156 159 159 161 160 156 154 151 152 151 152 156 160 164 168 171 173 174 169 169 167 167 166 167 169 171 171 170 170 168 166 166 165 163 162 160 158 156 155 155 154 153 154 154 155 159 162 161 162 160 158 156 155 153 152 151 149 148 150 152 151 153 152 152 150 148 145 138 132 129 126 124 119 111 109 108 107 109 
9 125 130 137 137 131 127 123 123 124 122 118 116 112 112 117 118 117 118 123 127 133 138 140 138 136 135 131 123 124 136 140 142 144 143 142 142 141 138 135 128 124 117 111 112 107 106 117 140 164 185 205 219 229 235 240 245 247 248 249 250 250 249 248 247 247 247 248 248 249 249 251 252 253 253 253 253 253 252 253 252 252 252 252 253 253 253 253 253 253 252 252 252 252 252 252 251 251 251 251 251 251 249 245 240 236 233 230 226 228 235 237 240 244 243 241 239 235 230 221 212 195 166 136 117 103 106 117 130 138 137 135 142 150 148 135 124 126 134 142 152 168 185 193 194 186 174 168 169 172 171 175 179 176 172 171 164 154 143 130 112 105 104 103 107 115 115 108 107 103 87 83 81 80 81 75 67 55 47 41 41 39 37 35 31 32 34 35 37 39 39 37 38 38 38 43 45 43 41 44 48 44 44 43 38 39 41 44 45 44 44 40 37 33 33 37 52 65 84 99 107 109 107 100 91 73 53 39 35 34 37 37 40 39 35 33 36 35 33 35 37 44 51 57 59 60 63 58 52 48 46 43 42 45 44 43 41 37 34 30 31 38 44 49 50 44 35 35 34 38 44 48 47 39 33 37 42 45 45 47 44 39 38 34 31 35 35 36 37 39 40 37 34 35 35 37 40 44 45 44 41 37 36 32 29 29 24 27 30 31 41 42 39 37 32 22 21 22 22 26 22 22 26 28 30 34 31 33 35 36 35 29 19 22 23 18 13 11 10 8 11  118 123 127 126 122 119 116 118 119 117 114 110 107 109 112 115 114 118 127 133 141 151 161 168 171 170 161 146 131 131 130 131 131 131 130 130 130 129 126 122 120 112 111 116 114 114 122 141 164 182 200 216 225 232 238 243 246 247 249 250 250 248 247 246 246 247 247 248 248 249 251 252 253 253 253 253 253 252 253 252 252 252 252 253 253 253 253 253 253 252 252 252 252 252 252 251 251 251 251 251 250 248 243 239 235 232 230 227 229 234 236 240 244 243 240 237 232 228 221 215 205 188 173 162 157 160 165 172 177 178 175 179 184 186 179 170 171 176 183 189 196 204 208 207 202 198 194 194 194 192 197 199 197 195 196 193 190 186 177 167 166 167 164 164 166 167 166 166 167 162 163 164 161 157 152 145 133 125 121 117 115 116 115 111 113 115 115 117 115 115 114 113 112 113 113 113 110 108 109 113 113 110 116 119 119 120 123 124 122 122 119 117 115 114 116 122 136 148 161 170 171 167 160 149 132 118 110 112 115 118 119 121 120 119 116 113 112 110 110 113 118 122 126 133 133 134 131 124 121 119 118 116 116 112 114 116 114 113 110 111 111 109 113 111 110 109 110 110 105 103 106 105 101 102 105 111 119 123 127 125 126 126 121 121 119 117 121 123 124 128 129 127 124 125 123 122 120 116 111 109 106 104 107 106 108 105 106 108 107 113 116 113 114 112 107 105 104 106 106 105 102 102 109 115 111 109 108 105 105 106 99 93 88 90 85 78 73 65 63 63 69  128 132 135 137 133 130 127 126 127 124 121 119 117 117 121 123 125 126 130 137 145 154 163 169 174 177 174 166 149 142 141 143 143 143 141 141 139 139 136 131 126 120 118 117 116 115 122 141 165 184 203 216 224 232 238 243 247 248 249 250 250 250 248 248 248 248 249 249 249 250 251 252 253 253 253 253 253 252 253 252 252 252 252 253 253 253 253 253 253 252 252 252 252 252 252 251 251 251 251 251 250 248 245 241 237 234 233 232 232 235 238 241 244 244 242 240 236 232 227 224 219 212 203 198 197 196 198 204 207 207 207 209 213 211 206 203 203 206 209 213 218 220 222 222 219 217 215 216 217 216 218 219 218 218 219 218 217 215 212 206 201 201 200 201 204 204 202 201 200 198 195 192 189 189 186 181 178 173 169 168 166 164 164 164 165 165 165 164 164 165 163 161 163 163 164 163 160 160 161 161 162 164 166 168 169 170 171 171 171 169 169 168 167 165 166 172 180 190 198 200 201 202 195 186 177 166 163 161 163 165 168 167 166 164 161 159 158 158 160 164 165 169 173 177 176 176 174 172 168 165 162 159 157 158 161 161 160 157 155 156 156 157 158 158 159 159 160 160 157 153 150 149 150 151 155 160 164 168 171 174 174 170 166 166 167 167 168 169 172 173 172 173 173 169 168 167 165 163 161 159 156 153 152 154 155 155 156 155 157 161 162 163 162 158 156 156 153 152 152 150 150 152 155 153 153 153 152 151 149 147 140 133 131 130 126 120 111 106 107 107 109 
14 128 130 137 137 134 129 124 124 126 125 121 119 114 118 126 126 125 127 127 127 134 140 137 134 130 124 124 118 121 136 141 143 145 144 141 140 139 138 134 129 122 115 110 110 108 107 114 135 159 177 197 214 225 232 237 242 245 246 247 247 248 247 245 245 244 244 246 246 247 247 250 251 252 253 253 253 253 253 253 253 253 253 253 253 253 253 253 253 253 252 252 252 252 252 251 251 251 251 250 250 249 246 241 236 230 223 221 219 222 232 237 239 240 239 236 233 228 220 209 192 168 138 111 90 73 70 80 93 104 111 118 117 118 118 114 100 100 110 121 130 141 154 158 156 151 148 148 139 132 133 134 132 128 130 129 123 116 104 93 84 83 87 93 98 102 103 103 103 94 85 82 78 79 79 70 60 52 44 41 42 39 39 37 36 35 36 40 39 40 40 38 38 35 33 37 43 43 42 41 43 41 39 41 38 42 45 45 46 47 49 44 41 36 32 34 46 60 80 94 104 107 104 97 88 75 59 44 36 34 38 38 41 39 37 36 37 36 33 29 28 36 43 55 59 61 65 57 52 45 44 45 46 47 48 46 43 41 35 34 40 46 53 57 59 55 42 35 33 31 37 40 38 33 32 37 42 44 48 49 46 41 38 31 30 31 34 34 34 37 39 38 38 37 37 35 35 41 43 41 40 37 31 29 29 30 26 27 26 28 40 43 41 38 36 28 24 22 20 23 24 22 25 28 33 34 33 32 32 34 33 27 19 21 22 17 16 14 10 7 9  121 125 129 127 124 120 116 119 120 118 115 112 110 118 128 135 137 142 146 146 151 157 163 168 168 163 154 140 133 134 132 133 133 133 131 129 130 129 127 121 117 112 110 110 112 116 121 137 159 177 195 211 222 229 235 240 243 244 245 247 246 245 244 243 243 243 245 245 245 247 250 251 252 253 253 253 253 253 253 253 253 253 253 253 253 253 253 253 253 252 252 252 252 252 251 251 251 251 250 251 249 245 240 235 230 225 224 222 225 232 235 238 239 237 234 231 225 219 210 198 185 168 157 150 142 142 147 153 160 162 164 163 164 166 164 158 154 162 168 173 180 188 189 186 182 183 183 173 168 169 172 170 170 171 174 173 171 167 161 155 155 156 160 161 160 161 163 166 164 162 165 164 160 155 148 141 133 123 117 116 116 116 116 115 117 117 118 116 117 117 117 115 113 112 112 110 106 106 108 109 109 112 118 118 118 122 123 123 122 123 121 119 117 117 116 120 132 146 159 166 167 164 158 149 134 119 110 112 113 117 120 121 119 118 117 113 110 109 107 106 109 115 123 131 134 135 131 127 120 119 118 119 117 114 116 115 114 111 112 112 111 111 113 112 111 112 110 109 106 104 104 103 103 106 109 114 119 124 128 126 127 128 121 120 121 120 119 121 125 128 131 128 126 127 127 124 121 117 113 110 110 105 105 107 108 109 109 106 103 110 113 114 113 113 108 107 109 108 108 107 106 106 107 114 113 110 108 106 105 104 98 89 87 89 85 82 76 67 62 65 75  131 133 137 139 136 131 127 128 130 128 123 122 120 125 133 139 144 147 149 151 155 159 166 172 175 174 170 163 150 147 144 144 145 143 141 142 140 137 136 130 125 118 115 115 113 116 122 137 158 177 197 212 221 229 236 240 243 245 246 247 248 247 246 244 244 245 247 247 247 248 249 251 252 253 253 253 253 253 253 253 253 253 253 253 253 253 253 253 253 252 252 252 252 252 251 251 251 251 250 251 249 246 243 237 232 228 227 227 229 234 237 240 241 240 237 234 230 226 222 217 211 202 191 187 184 183 187 191 194 196 197 197 198 199 197 193 190 193 197 201 207 211 214 213 209 208 206 203 202 202 206 206 205 206 207 207 208 205 199 196 196 197 196 197 197 197 196 197 196 195 193 191 188 186 182 179 175 171 167 167 167 167 165 165 167 166 166 165 165 165 165 163 163 163 163 163 159 159 159 159 160 162 164 168 170 172 172 172 172 172 169 169 168 168 168 173 180 187 194 199 201 199 194 187 179 169 163 162 164 165 166 165 166 164 160 158 155 154 154 157 159 165 171 175 177 176 174 172 169 166 163 161 159 159 161 160 159 157 156 157 158 159 159 158 157 157 157 158 157 153 150 149 151 152 157 161 164 169 172 173 172 169 167 168 168 170 170 171 173 176 175 175 173 172 171 167 165 164 162 159 156 152 150 154 155 157 157 157 155 159 161 162 163 159 156 156 155 156 154 152 152 150 154 154 154 154 150 149 148 146 141 135 132 129 126 121 114 109 106 107 113 
16 129 132 138 138 134 130 127 126 128 127 121 122 124 127 133 133 132 131 129 130 134 138 133 122 117 115 117 119 124 136 142 144 146 144 142 141 139 137 133 128 120 113 110 109 107 107 113 129 150 169 188 206 218 227 233 237 241 243 244 245 244 243 241 240 239 240 242 243 245 246 247 250 251 253 253 253 253 253 253 253 253 253 253 253 253 253 253 253 253 252 252 252 252 251 251 251 250 251 250 249 247 243 238 230 222 212 208 209 218 229 236 238 236 232 230 226 220 211 194 171 144 115 89 71 61 57 61 65 70 75 88 96 99 95 95 94 94 102 114 120 122 127 128 128 123 125 127 119 108 106 105 101 99 99 97 91 84 73 68 64 62 73 84 89 95 96 94 94 84 79 74 75 76 73 61 54 48 43 43 42 38 39 39 37 38 42 45 43 41 41 38 38 38 38 35 38 39 36 37 38 36 37 40 43 45 46 45 46 48 47 46 44 40 35 33 41 59 78 93 102 106 104 97 88 75 60 49 38 37 39 41 42 42 39 39 40 38 36 31 30 32 35 45 50 59 61 54 50 46 48 45 45 44 46 47 42 41 42 42 47 52 58 61 63 63 50 36 32 26 26 34 33 30 31 39 43 46 51 50 49 46 37 30 29 30 34 36 35 36 39 36 37 35 39 40 34 38 41 43 43 37 28 27 27 25 24 24 24 26 35 40 40 38 34 31 25 24 22 25 23 22 23 25 33 34 35 30 33 32 29 27 21 15 17 16 19 16 12 13 16  121 125 129 128 125 122 121 120 121 118 116 118 125 137 148 153 158 160 158 158 158 161 162 160 160 154 147 138 135 135 133 133 135 134 131 129 128 129 126 121 116 111 109 112 112 115 119 132 151 169 184 202 215 223 231 235 239 240 241 242 243 242 240 238 237 239 241 242 243 245 247 250 251 253 253 253 253 253 253 253 253 253 253 253 253 253 253 253 253 252 252 252 252 251 251 251 250 250 250 248 246 242 237 229 223 217 214 216 220 228 236 236 234 229 226 222 217 209 197 182 168 152 140 138 134 133 136 137 139 140 147 149 151 151 152 153 153 156 162 166 169 171 172 170 169 169 168 161 156 156 157 153 150 156 158 157 157 153 151 148 149 150 154 153 156 160 162 161 159 159 162 161 158 155 146 138 130 122 119 117 116 116 118 118 118 120 121 119 116 118 117 115 115 114 110 110 108 106 107 107 108 113 116 118 122 125 123 125 124 122 122 119 118 118 116 121 131 145 157 163 166 164 156 146 132 123 115 112 114 117 120 120 121 119 115 115 113 111 107 105 109 110 112 122 131 133 130 127 122 122 118 117 116 113 114 113 113 112 114 110 112 114 113 112 111 110 109 107 107 106 102 99 103 107 112 119 122 125 127 126 126 128 122 120 121 120 120 122 127 132 129 128 128 125 129 126 121 117 115 113 111 107 105 107 108 111 109 104 105 112 114 113 115 115 115 112 112 110 108 108 108 105 106 111 112 112 108 107 106 101 95 85 83 90 89 81 77 69 65 69 81  131 134 138 140 137 134 129 129 131 129 127 126 130 141 151 160 164 166 165 164 162 166 167 168 170 168 166 159 150 149 146 145 146 145 145 144 140 138 134 129 124 118 114 114 112 115 120 132 151 170 188 205 217 225 231 237 239 241 242 243 245 243 242 240 240 241 243 244 245 246 248 250 251 253 253 253 253 253 253 253 253 253 253 253 253 253 253 253 253 252 252 252 252 251 251 251 250 251 250 249 248 244 239 232 227 223 222 223 226 231 237 239 237 233 231 226 223 220 214 207 197 189 183 180 177 177 179 180 181 182 184 186 187 185 186 184 182 183 189 192 195 199 201 201 198 198 198 192 187 188 191 191 192 193 194 195 196 193 191 191 191 192 193 195 195 194 194 193 192 193 190 188 186 182 179 177 171 169 169 168 167 168 166 166 167 169 168 166 166 166 166 165 163 161 163 164 159 156 157 157 159 163 165 168 172 173 174 172 172 172 170 168 167 167 169 173 179 187 195 200 202 201 195 187 180 171 165 164 163 164 166 166 168 164 160 158 157 153 153 155 156 158 164 170 175 176 175 173 169 166 163 160 160 158 159 159 158 159 159 159 160 159 159 158 157 157 158 157 155 154 152 152 152 154 159 162 167 170 172 171 171 170 167 167 169 170 170 172 174 176 177 176 176 175 174 170 166 164 162 158 155 153 151 152 154 156 155 155 155 159 161 164 164 161 159 156 156 156 154 155 154 150 153 155 156 155 150 151 148 144 139 134 131 129 125 123 118 111 107 111 119 
20 129 134 141 140 135 132 128 127 130 129 126 130 130 132 137 137 137 134 131 132 137 139 135 124 110 109 113 119 131 138 143 145 147 144 143 141 138 137 133 126 120 115 109 107 107 108 113 120 140 160 177 195 209 219 228 231 234 236 239 241 241 238 237 235 233 235 238 239 241 244 246 248 251 252 253 253 253 253 253 253 253 253 253 253 253 253 253 253 252 252 252 252 252 251 250 250 250 250 249 247 244 240 232 221 212 203 194 199 212 223 231 235 234 230 226 222 214 202 183 160 134 106 79 65 56 54 54 55 57 60 70 83 93 97 96 99 99 99 102 100 97 93 91 88 88 88 84 86 88 89 85 89 89 88 87 82 75 69 61 54 58 72 79 83 84 83 79 76 73 69 67 68 69 64 55 49 46 41 43 39 34 40 42 41 43 44 46 46 43 42 38 40 43 39 37 37 39 32 34 37 34 38 42 46 48 48 49 46 47 46 43 41 40 38 38 45 57 73 90 101 107 106 101 93 77 60 52 45 41 40 42 43 43 39 38 42 39 36 34 30 28 28 39 44 53 58 53 50 47 46 45 45 50 48 47 46 47 48 50 54 55 59 60 62 63 55 43 30 22 20 28 31 31 32 39 45 49 51 51 49 44 37 33 30 31 34 34 34 36 38 35 35 36 38 38 38 38 41 43 42 37 33 28 28 26 21 19 23 25 37 41 39 40 34 28 28 29 24 26 24 24 25 27 30 32 37 33 32 31 28 21 17 10 8 15 14 13 14 9 19  123 125 130 130 128 125 123 121 123 121 121 132 144 154 165 172 175 173 169 166 164 166 164 159 149 147 142 137 135 137 135 135 135 133 132 132 128 128 126 120 117 110 107 110 112 114 118 126 143 160 173 191 207 216 224 228 233 235 236 238 239 236 234 232 230 233 235 238 240 241 244 248 251 252 253 253 253 253 253 253 253 253 253 253 253 253 253 253 252 252 252 252 252 251 250 250 250 250 248 246 243 238 231 221 215 211 206 208 216 223 230 232 231 227 223 218 209 200 187 173 160 145 134 131 127 125 127 129 129 129 133 138 144 148 148 151 156 154 155 157 157 154 151 150 150 148 147 144 144 143 143 145 145 149 151 151 149 147 144 144 144 149 149 149 152 155 153 154 156 156 158 158 155 151 141 134 126 121 121 118 117 116 119 120 121 118 121 123 118 118 117 117 116 113 110 110 108 105 107 107 108 112 114 117 122 124 124 125 126 123 121 119 119 118 119 123 132 145 155 164 168 166 161 150 135 124 117 116 116 118 119 122 123 120 119 118 113 111 109 105 106 105 107 117 127 132 130 128 124 122 120 119 118 116 115 115 114 114 113 113 112 111 112 111 107 103 104 104 102 105 105 102 105 109 115 120 123 124 124 121 120 121 119 118 119 117 119 122 126 131 128 130 128 128 128 123 122 120 120 117 111 110 107 109 107 107 107 105 105 111 115 114 118 115 115 117 113 111 111 108 107 106 106 110 111 112 109 106 103 98 92 87 78 80 85 80 74 68 65 75 88  132 135 139 141 139 134 131 130 131 131 131 137 146 159 171 179 183 182 178 173 171 172 170 167 163 161 162 155 150 150 148 147 148 147 145 142 139 138 135 129 122 117 113 112 113 115 119 128 144 161 178 196 211 220 226 232 234 237 238 239 240 239 238 236 234 236 239 240 242 243 245 248 250 252 253 253 253 253 253 253 253 253 253 253 253 253 253 253 252 252 252 252 252 251 250 250 250 250 250 248 245 240 234 227 222 218 216 218 222 228 233 236 235 231 227 222 217 212 206 198 190 183 173 172 171 171 173 173 174 174 175 179 183 181 179 178 176 175 176 180 181 182 182 183 184 185 181 179 177 177 178 180 184 186 188 188 186 187 187 187 189 189 193 194 193 191 190 189 190 188 187 186 183 180 177 172 170 169 170 168 168 168 166 166 168 170 170 169 167 167 166 166 164 162 162 162 160 157 157 158 158 161 166 169 172 174 175 174 173 172 171 168 168 168 168 172 179 187 195 201 203 202 198 190 182 173 167 166 166 165 165 165 166 166 162 159 156 155 154 154 154 154 160 165 172 175 177 175 172 166 163 161 161 158 158 158 159 159 159 159 160 160 158 157 156 156 158 157 156 155 154 153 153 155 160 163 166 170 170 170 169 169 167 166 166 167 169 171 175 177 179 178 177 175 175 173 170 164 162 158 156 155 154 152 152 153 154 155 157 161 164 164 164 165 163 160 160 158 156 157 155 151 152 154 154 153 153 150 148 142 135 127 124 129 126 121 118 113 110 115 122 
29 130 134 139 141 137 135 131 128 131 131 133 137 138 138 141 141 139 133 132 136 138 137 129 121 112 109 113 121 134 139 142 145 146 145 144 141 138 137 133 127 119 113 108 107 107 110 113 117 132 148 164 182 198 211 220 225 227 229 232 234 234 233 230 227 226 228 231 234 237 241 244 246 248 250 251 252 252 252 252 253 252 253 253 253 253 253 253 252 252 252 251 251 251 251 250 250 250 249 247 244 241 235 223 208 197 191 183 183 200 216 224 228 228 225 220 214 207 192 176 153 126 96 74 64 54 46 49 57 59 60 68 82 93 103 104 108 111 110 101 94 89 81 78 70 66 67 67 75 85 92 90 87 87 93 93 89 84 72 61 55 57 64 65 66 68 69 66 65 63 62 62 64 62 57 51 46 44 43 43 40 40 41 41 43 46 45 46 49 45 43 41 41 41 40 41 43 42 34 33 35 33 36 41 45 46 50 52 49 48 48 43 39 37 38 40 51 61 72 86 99 109 111 107 95 80 65 49 42 40 41 45 47 43 43 44 44 40 37 35 30 24 27 35 41 46 53 51 48 46 46 49 51 56 54 53 54 55 55 56 60 62 59 59 60 57 55 46 31 20 16 20 26 29 32 36 45 49 47 50 51 44 39 34 32 30 32 30 31 34 38 36 34 37 36 38 39 40 42 41 43 38 34 30 30 27 18 19 21 21 35 41 41 39 33 30 29 30 27 27 29 28 25 28 29 33 37 34 31 26 21 17 14 6 1 5 9 5 8 9 22  123 127 130 132 129 125 122 122 125 126 132 147 159 169 179 185 187 183 176 173 171 169 161 158 152 145 141 136 137 136 135 135 135 134 134 132 128 130 126 120 115 111 108 108 111 115 118 122 134 149 162 177 193 205 215 221 224 227 229 232 233 230 227 223 222 225 228 231 234 237 241 245 248 250 251 252 252 252 252 252 252 253 253 253 253 253 253 252 252 252 251 251 251 251 250 250 250 248 246 243 238 233 223 212 205 201 197 198 208 217 223 226 225 221 215 210 203 191 180 165 150 135 130 125 119 117 119 122 124 124 127 132 141 147 148 152 156 159 155 150 150 148 146 143 140 137 136 137 142 144 142 142 145 149 152 151 150 146 142 142 140 144 145 145 148 148 147 152 154 154 157 155 151 145 138 130 122 121 122 119 119 119 121 121 122 120 124 123 118 118 117 118 117 115 115 110 110 105 105 105 108 114 118 119 123 126 128 127 126 125 121 119 119 118 120 126 133 142 154 163 168 169 164 154 143 129 118 118 115 120 122 123 123 121 119 116 113 110 108 102 100 100 104 115 124 129 130 129 125 121 123 126 123 122 119 117 118 117 113 113 111 108 108 107 106 103 102 102 103 102 106 106 107 111 113 118 119 123 125 123 122 120 116 116 120 119 119 123 127 130 130 131 127 128 127 124 125 121 118 117 110 108 106 107 104 102 105 104 106 112 116 117 119 119 118 120 121 117 113 111 111 109 109 107 109 111 107 104 100 93 89 82 76 75 76 76 73 64 65 78 91  133 136 140 143 140 136 134 131 134 134 138 149 162 175 187 193 196 193 186 182 179 176 169 166 163 161 159 152 151 149 147 146 147 147 145 142 139 137 134 129 123 117 112 111 112 116 118 123 137 152 166 184 201 213 220 224 228 230 232 234 234 233 231 229 227 229 232 235 237 239 242 245 249 250 251 252 252 252 252 253 252 253 253 253 253 253 253 252 252 252 251 251 251 251 250 250 250 250 248 245 242 236 229 222 216 215 211 211 217 222 226 229 229 226 222 218 214 207 200 191 184 176 168 168 165 166 167 166 167 168 169 174 177 179 178 175 175 173 170 170 169 169 171 171 172 171 171 172 172 173 173 174 177 182 184 185 186 186 185 186 187 190 190 189 189 188 186 186 186 184 184 183 181 177 173 170 170 171 170 168 168 168 167 166 168 170 171 170 168 166 166 166 166 164 163 161 159 158 157 158 158 161 163 169 172 174 175 175 174 171 169 169 169 167 168 172 178 185 195 202 204 203 200 194 185 175 170 168 169 168 166 168 169 167 163 159 156 155 154 151 150 151 156 163 170 175 177 177 174 169 165 165 164 162 159 160 161 160 160 160 160 160 157 154 153 153 154 156 157 156 156 156 155 156 161 166 167 168 169 170 169 167 167 167 167 167 169 173 176 179 178 179 177 177 176 174 173 168 164 159 158 157 156 155 152 152 153 153 156 161 165 167 167 167 166 165 163 159 159 158 155 152 152 153 155 155 153 150 146 142 133 126 120 125 125 121 116 111 109 118 126 
33 132 135 139 142 141 136 132 130 132 137 140 143 144 144 146 143 139 133 130 134 133 128 122 120 113 107 110 124 134 138 142 143 146 145 143 140 139 139 132 126 119 113 107 105 107 110 111 114 121 135 148 166 184 199 209 214 217 220 223 226 226 225 222 218 216 219 224 227 232 236 240 243 245 247 248 249 250 250 251 251 252 252 252 252 252 252 252 251 251 250 250 249 249 249 249 248 247 246 244 240 235 227 214 189 169 167 171 178 187 202 212 218 220 214 204 193 185 172 157 135 112 83 69 63 52 47 50 54 62 60 60 71 82 93 98 103 111 111 104 100 100 99 86 73 65 69 74 82 98 107 110 103 98 95 90 86 81 67 60 60 60 54 48 52 53 53 54 58 57 60 57 58 57 53 47 43 44 44 43 43 43 42 43 45 45 45 47 50 47 44 40 42 43 40 40 44 42 38 32 34 34 34 39 45 47 50 54 56 53 49 46 44 43 40 40 51 65 81 92 101 108 110 110 101 86 70 52 42 42 41 43 47 47 50 50 48 46 41 38 33 26 29 35 45 51 50 52 52 48 48 50 56 59 58 61 61 60 63 63 66 63 59 55 57 54 49 42 31 19 15 15 19 29 34 40 47 49 49 50 52 45 39 36 33 31 32 33 33 32 36 37 36 35 35 42 42 42 45 44 43 39 34 32 30 30 22 18 19 23 37 43 41 40 34 31 31 30 29 30 31 31 27 31 31 32 35 34 32 27 21 13 7 2 0 0 2 1 5 7 23  122 126 131 133 130 126 124 124 125 133 146 160 174 185 192 196 195 187 178 174 169 161 156 156 151 142 136 132 134 134 133 134 136 135 133 131 129 129 126 122 115 110 107 108 112 117 117 119 126 139 147 159 176 191 203 210 213 216 220 223 223 221 218 213 211 215 220 223 228 233 237 242 245 246 247 249 250 250 251 251 252 252 252 252 252 252 252 251 251 251 250 250 249 248 248 247 246 245 242 237 233 225 216 199 185 183 188 196 201 208 213 217 218 212 201 193 186 175 166 154 140 128 127 120 113 114 115 117 122 121 123 127 136 142 144 147 153 157 156 154 155 157 150 141 139 138 134 137 145 152 151 149 148 146 148 147 145 141 141 143 143 139 139 142 143 143 144 150 151 153 155 152 145 140 135 130 126 126 123 120 120 121 120 121 123 124 124 125 121 116 116 119 118 116 114 112 111 107 107 105 107 111 115 120 124 128 130 131 129 126 125 123 121 118 119 128 137 148 157 164 169 169 167 160 147 132 119 116 118 119 124 124 123 124 121 119 116 113 107 102 100 100 103 116 123 126 129 128 127 123 124 127 127 126 122 119 117 116 115 114 111 108 104 105 104 102 100 97 102 101 102 106 108 109 113 116 117 120 122 124 122 119 118 116 119 121 120 122 125 131 134 132 130 128 129 126 124 125 120 117 113 108 108 106 106 104 105 108 111 115 121 121 122 122 122 124 121 119 116 113 112 109 109 109 109 109 108 104 99 91 84 79 72 70 75 74 74 69 66 77 93  133 136 140 144 142 138 134 132 135 140 150 164 176 188 200 206 206 202 192 185 181 173 165 166 166 162 157 151 149 147 146 144 148 146 145 142 138 137 134 128 122 115 111 110 113 118 118 120 129 141 153 170 187 202 212 216 219 222 224 227 227 226 224 220 218 221 225 229 231 234 238 242 245 247 248 249 250 250 251 251 252 252 252 252 252 252 252 251 251 251 250 250 249 249 249 249 248 246 245 241 236 231 225 216 209 205 205 205 209 215 220 222 223 220 215 210 205 198 191 181 174 167 164 163 160 162 162 163 163 163 165 170 173 175 176 175 175 175 172 168 167 169 169 168 168 170 170 172 172 175 178 179 176 179 182 183 184 183 182 184 186 188 187 185 184 185 184 183 181 180 180 178 177 175 172 169 168 167 168 168 168 168 167 167 169 170 170 169 168 165 166 167 166 163 164 163 161 158 157 157 159 161 165 169 170 173 175 175 175 174 171 170 169 167 169 174 180 188 196 202 204 206 203 196 187 179 172 168 169 168 168 171 170 167 164 162 158 157 155 153 149 151 155 162 169 174 176 177 175 171 168 167 167 166 166 165 162 162 161 160 159 157 155 152 149 149 150 154 156 158 159 159 157 159 162 164 166 167 169 169 168 166 166 167 170 169 169 172 175 178 178 178 176 176 176 175 173 172 167 161 157 155 155 154 151 152 152 154 157 161 165 168 169 168 169 168 166 164 162 159 155 154 155 153 152 154 152 149 143 138 131 124 119 122 124 119 116 110 108 121 130 
34 132 135 140 143 142 137 133 131 135 144 147 148 148 149 151 141 131 124 123 123 122 116 115 119 110 101 105 123 134 137 139 141 144 145 142 137 135 135 130 124 118 110 102 102 107 110 108 110 113 122 132 144 163 181 193 200 204 209 212 216 216 214 212 204 200 207 214 219 224 230 235 239 241 244 245 247 247 247 248 249 249 250 250 251 250 250 250 249 248 249 249 248 248 248 247 246 245 243 239 235 226 212 194 162 133 137 153 174 184 189 195 203 207 197 182 169 160 143 127 111 90 72 65 61 50 46 48 51 56 63 60 58 67 77 82 87 94 101 102 103 99 92 80 73 65 71 75 81 93 104 111 107 102 95 82 71 66 65 61 62 57 49 45 43 42 48 50 53 55 52 54 56 55 51 42 42 44 44 46 45 43 42 43 43 44 47 47 47 45 42 40 45 43 41 40 42 43 42 38 32 33 37 38 45 46 48 52 52 51 49 47 45 45 44 45 53 65 82 99 110 113 114 112 105 93 76 59 44 41 40 40 49 51 49 51 51 50 45 43 39 35 33 35 45 52 52 55 56 55 54 51 56 59 62 67 69 66 64 67 67 60 57 53 50 47 41 37 29 21 14 13 15 24 37 43 47 48 48 48 49 44 41 32 29 31 36 35 33 32 35 38 37 36 36 39 42 47 47 46 45 42 39 35 34 32 23 20 18 24 39 44 41 39 35 32 32 32 30 33 35 33 30 30 31 29 33 33 31 25 17 10 6 2 0 0 0 0 2 4 21  122 126 131 134 132 128 124 125 129 142 159 173 185 197 202 201 192 177 168 159 153 149 149 153 145 135 129 131 131 130 129 131 133 133 132 129 127 126 124 118 112 107 105 107 112 117 117 117 122 128 134 141 158 174 185 193 198 203 207 211 211 209 206 199 195 202 209 215 221 227 233 237 240 242 243 245 245 246 247 248 249 250 251 251 250 250 249 249 248 247 246 246 246 245 244 244 242 240 237 232 225 216 205 182 163 165 174 189 198 199 202 207 209 200 187 175 168 157 148 139 128 124 122 116 109 111 113 114 115 117 118 122 128 136 137 141 144 152 155 155 153 152 149 142 138 141 137 138 147 148 150 151 149 147 141 137 138 143 141 144 144 140 139 139 139 140 145 147 148 150 150 146 141 139 133 129 129 127 123 122 122 121 120 120 122 124 123 122 120 116 115 117 118 117 115 112 113 112 110 108 110 113 115 121 124 127 128 129 129 129 129 127 125 123 122 128 136 147 159 169 174 173 170 164 151 135 120 115 116 118 121 125 126 124 120 119 119 117 112 107 103 105 106 114 124 129 133 135 133 129 127 131 130 127 127 123 119 117 115 113 110 107 101 101 98 96 99 98 99 102 102 105 108 109 113 115 116 118 120 122 121 118 115 115 118 121 120 120 124 129 132 133 131 129 127 125 123 122 123 118 117 118 114 110 109 108 108 109 113 116 119 121 123 123 124 124 121 118 117 115 112 108 109 108 107 108 105 100 96 91 84 78 74 73 77 74 68 69 67 77 95  134 136 141 144 143 138 134 134 138 148 162 178 190 201 211 215 211 201 191 179 172 165 160 166 166 160 154 149 144 143 141 142 146 144 141 139 136 134 133 127 120 112 108 108 113 118 118 119 124 132 140 153 170 186 198 205 209 212 215 218 219 216 215 210 206 212 217 221 224 228 233 237 239 242 244 245 246 248 249 249 250 250 250 250 250 250 250 250 249 247 247 247 246 245 246 245 244 241 240 236 231 226 218 206 193 190 194 202 205 207 211 214 216 212 206 198 192 187 178 169 164 162 161 158 156 156 157 157 158 158 162 165 169 171 172 170 170 170 169 166 165 163 163 164 166 170 172 172 174 177 181 182 180 178 177 177 178 182 182 184 186 185 184 183 182 181 182 181 180 179 177 177 176 173 170 169 167 167 169 168 168 167 168 168 169 170 170 169 168 164 164 165 165 164 163 162 162 161 160 159 160 163 165 168 170 172 174 174 175 175 173 173 172 170 170 174 180 189 199 205 206 207 204 198 189 181 172 166 167 167 170 172 170 169 168 165 162 160 159 156 154 155 158 166 173 176 177 178 179 175 170 169 169 168 167 167 165 162 160 159 156 154 151 151 148 149 149 151 155 159 161 160 159 159 161 164 165 167 168 168 167 166 165 166 168 168 170 172 174 176 179 178 177 176 177 175 171 172 169 163 160 155 157 155 153 152 152 155 159 162 165 168 170 170 170 169 167 165 163 162 158 156 154 155 154 153 150 149 142 136 129 122 119 123 124 120 117 112 109 123 133 
36 133 137 141 143 142 137 133 132 139 146 153 154 155 157 150 134 121 113 114 116 119 115 118 114 104 97 103 122 129 132 132 134 139 138 134 131 128 128 125 119 114 108 99 99 106 109 109 111 114 118 121 125 139 156 169 179 188 194 198 201 201 199 195 187 183 188 201 210 217 224 230 234 237 239 241 243 244 244 246 247 247 248 248 248 247 247 247 246 246 246 245 245 245 243 243 242 240 236 233 225 213 195 168 126 94 107 132 155 175 181 178 179 181 170 154 138 128 114 100 89 76 64 58 56 50 43 43 49 51 57 59 56 61 64 69 73 78 82 83 87 81 76 73 70 67 71 73 77 80 85 90 91 87 81 71 66 61 57 56 54 49 45 43 39 43 51 52 53 54 50 53 54 56 49 43 45 47 46 45 44 44 44 47 46 48 51 49 42 40 40 36 37 40 42 41 42 46 46 43 36 33 37 38 42 43 45 47 48 49 46 45 44 43 43 45 53 63 82 99 115 121 120 116 107 97 79 61 46 39 38 41 47 51 49 53 54 54 50 45 40 34 33 36 43 51 54 55 59 61 60 56 61 63 64 70 75 72 68 66 61 56 55 54 43 39 34 31 26 25 19 14 15 17 27 41 47 48 48 47 46 44 40 32 30 30 36 37 32 35 37 37 36 38 38 39 40 43 45 45 43 45 46 36 39 33 32 30 22 28 42 45 43 43 36 33 33 32 30 40 39 36 32 29 28 30 33 32 30 24 14 8 6 1 0 0 0 0 2 5 22  124 127 130 134 133 128 125 126 138 155 171 184 197 205 206 197 180 163 151 146 141 142 149 149 139 127 123 126 125 125 126 127 130 129 128 126 123 124 120 114 109 105 102 104 111 116 116 117 119 123 125 128 136 150 163 174 182 188 192 196 196 194 189 181 178 183 195 206 214 222 228 232 235 237 239 240 241 242 243 244 246 246 247 247 246 246 245 245 244 243 243 243 243 242 241 240 238 235 231 224 215 203 186 162 144 149 162 175 188 194 194 194 192 182 170 160 152 142 134 128 124 121 117 114 108 107 109 112 114 116 118 118 125 129 133 137 143 147 146 148 146 146 146 144 142 143 140 139 142 143 146 145 142 142 138 134 137 141 141 142 142 140 138 136 137 141 144 145 145 145 146 143 139 133 130 131 127 124 125 123 121 122 122 124 125 126 125 120 118 116 113 114 113 113 116 115 114 115 112 112 113 114 117 120 122 125 128 126 129 126 126 126 126 123 124 129 136 146 159 171 177 177 172 166 155 139 121 114 115 118 121 123 125 124 121 121 121 116 114 109 107 107 108 115 127 132 134 138 138 133 129 130 130 126 125 124 120 115 111 108 106 102 99 98 95 93 95 97 100 103 103 105 107 106 114 117 115 117 121 121 121 119 114 115 117 121 121 121 122 127 133 132 133 128 126 122 120 121 124 118 125 140 121 112 112 111 111 112 116 119 120 122 124 123 124 123 122 118 121 118 116 110 108 107 107 108 106 102 99 88 83 79 74 78 77 77 74 71 71 85 97  134 136 139 144 142 139 136 136 146 160 175 190 201 211 217 213 203 190 180 167 158 156 158 164 164 155 147 141 138 137 135 138 141 140 136 133 131 129 127 122 116 111 105 105 112 117 117 118 121 125 130 137 150 167 180 188 196 200 205 207 207 205 203 197 193 196 204 211 217 223 228 232 235 237 239 241 242 243 244 245 246 247 248 249 248 247 247 247 245 244 243 243 243 241 241 240 239 237 233 229 225 219 210 193 177 176 184 193 200 201 199 203 206 201 191 182 176 173 166 160 158 160 162 158 155 154 156 156 157 159 159 164 167 169 170 169 169 168 166 162 158 159 162 166 168 171 172 173 173 176 177 177 177 176 172 171 174 178 181 183 184 182 182 181 179 179 181 179 178 178 177 176 175 172 170 169 170 169 168 168 168 169 169 168 168 170 171 169 167 165 163 164 164 164 162 162 164 164 162 161 162 163 166 167 171 171 172 173 173 171 172 174 174 172 173 175 181 189 198 206 209 209 206 199 191 182 175 167 164 166 168 172 173 173 171 169 166 166 163 159 159 159 160 167 174 177 179 179 180 177 171 169 169 170 169 167 165 162 158 157 154 152 149 150 149 149 149 151 154 156 160 160 160 160 160 163 167 167 166 168 167 166 165 165 168 169 169 172 175 175 179 180 178 177 176 174 172 170 171 167 161 154 154 157 156 154 155 157 161 165 167 170 170 171 170 170 168 166 164 163 160 158 156 156 157 154 151 148 143 136 129 122 120 125 123 123 119 115 113 126 136 
36 133 135 140 143 141 137 134 136 144 151 157 157 159 158 140 124 115 106 105 110 119 119 119 108 100 98 100 116 124 125 127 130 132 131 127 125 124 121 118 116 110 103 97 99 103 103 105 107 110 113 114 115 122 138 153 163 172 177 181 183 182 181 179 173 169 174 189 201 211 218 225 229 232 235 237 239 240 240 241 243 243 245 245 245 244 245 244 243 243 242 241 240 240 239 238 237 234 230 225 214 196 170 138 94 70 87 111 134 152 166 167 161 154 141 124 108 98 88 77 73 68 62 55 50 48 44 40 45 50 54 57 61 60 58 61 65 69 70 71 72 74 70 71 69 70 72 74 80 80 75 78 80 75 67 62 63 64 60 57 53 50 45 41 40 44 50 52 52 52 52 52 51 50 46 45 49 46 46 44 43 43 43 46 46 48 49 49 46 40 36 31 31 39 42 41 41 43 45 46 41 38 38 41 42 41 42 44 45 44 46 44 44 46 45 42 50 62 76 94 111 120 122 119 110 97 78 60 44 38 37 38 43 52 57 54 56 56 56 54 48 41 38 35 41 52 55 55 60 64 64 61 64 69 71 72 75 72 69 63 57 53 47 43 38 29 30 30 26 28 29 21 12 15 21 31 44 49 49 47 50 48 40 36 30 31 39 42 34 36 36 37 37 38 38 40 40 39 41 41 42 41 27 17 35 41 38 39 31 34 46 47 46 45 39 34 36 33 32 42 41 39 34 30 26 30 33 34 29 23 20 13 3 0 1 0 0 0 1 5 22  125 126 130 133 132 128 125 130 148 168 182 194 204 207 201 187 169 152 138 133 137 141 148 140 135 124 117 120 120 119 122 124 126 124 122 121 121 119 115 112 110 106 103 104 110 113 114 116 118 120 122 121 122 133 146 156 165 172 177 178 178 177 173 169 166 171 184 196 208 218 224 228 231 233 236 236 237 237 238 240 241 242 243 243 243 243 242 240 240 240 239 238 238 237 236 235 233 229 224 216 203 185 164 144 136 141 150 164 174 184 186 183 175 165 150 142 136 129 125 123 119 117 114 111 108 106 107 109 112 115 120 122 121 126 130 134 140 144 142 144 145 146 148 147 148 150 149 148 147 145 146 145 141 137 136 136 139 142 141 141 141 140 136 134 136 140 142 145 144 143 145 140 135 132 130 132 129 127 127 124 120 120 121 122 123 122 121 121 117 114 110 109 110 114 114 115 118 117 115 115 115 116 117 117 120 121 124 125 127 126 125 126 126 122 122 124 132 145 158 169 176 176 174 164 152 137 121 113 112 114 117 120 126 130 127 126 124 120 118 116 112 112 114 117 125 132 135 138 142 139 132 131 131 130 124 122 121 113 108 106 103 99 97 96 96 95 95 98 103 106 104 103 107 107 111 117 117 120 123 125 124 123 120 117 120 123 122 122 122 125 128 130 130 124 123 121 118 121 121 119 121 129 116 112 115 113 115 118 120 122 124 124 126 124 122 125 125 121 123 122 116 110 108 108 109 109 107 104 98 90 83 79 73 77 77 79 78 74 76 91 100  133 137 140 144 143 139 136 139 152 170 186 200 210 216 214 203 191 176 163 154 151 154 160 161 157 148 140 133 130 129 129 132 133 133 130 127 125 123 121 117 112 109 105 105 111 115 116 118 120 123 125 129 136 149 163 171 178 185 190 192 192 189 189 183 180 184 195 204 211 218 224 228 231 233 235 237 238 238 239 240 241 242 243 244 244 243 242 241 240 240 239 238 238 237 236 235 233 231 227 223 218 211 200 182 169 170 175 180 189 194 194 194 190 184 173 167 163 159 157 156 155 157 158 158 156 153 153 156 160 163 164 165 167 169 172 170 170 168 166 161 159 160 165 169 172 174 175 176 176 175 176 175 175 174 172 172 176 177 180 183 183 181 179 179 178 180 181 178 177 177 177 175 174 171 169 169 170 168 168 168 168 168 166 167 166 168 170 169 166 164 162 161 163 164 162 162 165 166 164 164 162 164 167 166 168 169 169 171 172 172 171 174 173 173 173 176 181 187 196 203 208 209 208 200 191 183 175 168 166 165 167 170 172 174 174 171 170 168 167 164 163 161 162 166 171 176 179 181 181 180 174 171 171 169 169 167 164 160 158 155 151 151 149 149 148 149 151 152 154 156 158 159 159 160 162 163 166 166 169 170 169 169 168 165 167 170 169 172 173 176 178 179 180 177 175 173 171 169 170 168 163 156 153 159 160 159 161 160 163 165 168 170 171 170 169 169 169 167 166 164 162 160 160 158 156 155 151 148 145 138 132 127 124 126 127 126 122 120 120 131 137 
32 134 134 136 141 139 135 135 139 145 154 159 161 160 147 130 118 108 97 98 106 113 115 109 102 99 97 94 107 116 119 121 124 125 125 123 119 118 116 113 110 105 101 99 100 103 103 104 108 109 111 114 110 113 123 138 147 157 161 164 165 167 166 164 160 157 164 176 190 203 212 218 223 227 229 234 236 235 234 235 236 237 238 239 240 239 238 237 237 236 236 235 234 233 232 231 229 225 222 214 198 174 145 109 78 69 79 100 118 133 146 150 145 136 117 99 85 78 70 67 65 60 57 53 50 50 49 47 50 51 51 55 62 62 59 59 63 66 68 66 67 73 74 72 70 74 77 79 82 82 74 73 73 69 61 61 61 64 64 57 52 49 46 45 43 46 53 55 50 49 48 48 46 43 41 44 45 43 41 42 40 40 43 44 44 47 45 45 46 40 36 32 26 31 39 39 40 44 46 45 40 40 40 40 41 42 45 45 43 42 43 44 41 42 42 39 50 59 69 86 104 112 113 112 107 95 76 58 41 36 36 38 43 50 57 59 60 61 60 59 53 47 43 40 42 50 55 56 62 67 68 70 70 72 75 73 75 74 69 60 56 54 46 37 37 27 26 24 22 27 29 24 11 12 16 22 36 47 48 47 52 49 43 38 35 33 36 37 37 36 32 34 41 38 37 41 40 36 40 42 41 42 22 0 19 42 41 41 37 42 51 49 46 45 37 31 36 37 35 41 41 38 36 32 26 30 33 32 28 24 19 7 3 1 0 0 0 0 0 6 22  124 125 127 131 129 126 125 138 158 176 193 205 208 203 190 174 155 136 120 118 130 138 141 140 136 124 113 114 113 113 117 120 120 120 119 116 115 114 112 108 106 105 103 105 109 112 114 117 118 120 120 116 115 121 132 141 153 159 163 163 164 164 160 158 158 165 175 188 201 211 218 223 227 229 232 234 233 234 234 235 237 238 238 239 239 238 237 236 235 234 233 232 231 230 229 227 225 221 213 204 189 170 152 139 133 133 145 157 167 174 174 171 164 155 140 133 130 128 123 121 120 114 111 112 110 109 110 110 114 118 120 123 124 127 129 133 139 144 144 148 150 152 152 151 155 157 155 156 158 152 147 149 143 138 136 138 140 145 143 140 141 140 136 132 136 139 142 142 142 143 141 138 132 130 132 131 130 124 123 121 121 120 120 120 121 119 118 119 116 112 109 106 109 114 113 113 117 121 119 119 118 117 118 117 119 120 119 123 126 126 123 123 123 121 121 123 128 138 152 164 169 170 171 163 152 138 123 112 107 109 115 119 126 129 127 129 127 126 126 122 116 114 115 116 121 128 134 137 141 143 137 134 133 129 125 122 119 114 107 105 103 101 100 99 98 100 102 102 104 106 103 102 104 106 109 116 119 122 124 128 127 126 127 125 124 124 122 122 122 123 125 130 128 124 124 122 118 118 122 125 120 112 104 108 115 117 119 122 125 126 127 125 125 121 123 125 123 120 123 121 116 114 112 109 108 107 107 106 98 93 86 81 79 79 78 77 76 75 79 91 101  133 134 137 142 141 137 135 143 160 179 195 206 214 213 204 190 176 160 144 137 143 151 156 156 153 147 135 126 122 122 122 124 127 126 125 121 119 118 117 114 110 106 104 106 111 114 115 117 120 122 122 125 129 136 148 157 165 171 175 177 179 178 177 173 171 177 186 197 206 213 219 223 227 229 232 234 234 234 235 236 236 238 239 239 239 238 237 236 235 234 233 232 231 230 229 227 225 223 219 215 210 200 187 177 170 168 169 173 178 182 184 182 177 168 160 156 154 153 154 153 155 155 153 154 155 153 154 158 160 164 168 167 169 170 171 172 171 170 169 166 166 167 168 172 175 178 181 182 181 178 178 177 176 176 173 176 177 177 179 181 180 180 178 178 177 178 179 177 177 177 175 174 172 169 170 170 170 169 169 168 167 166 166 165 166 168 168 167 165 162 160 160 162 162 162 164 167 167 166 166 166 167 166 167 169 169 169 170 172 173 173 172 171 171 172 174 179 187 195 200 205 205 205 201 191 181 171 163 162 163 165 167 171 176 176 174 171 169 168 168 166 161 163 167 170 173 175 179 181 181 178 175 170 169 168 165 162 160 158 154 152 149 149 149 149 150 151 153 154 156 156 160 158 159 162 164 165 166 170 172 171 172 171 167 166 170 171 172 175 176 179 180 180 177 175 172 170 169 170 168 166 160 156 159 162 160 163 163 166 167 168 171 171 170 169 170 171 169 170 167 164 160 161 159 155 155 154 149 145 139 135 131 126 129 134 127 124 124 124 139 143 
32 128 129 131 135 135 131 133 138 147 157 161 163 157 140 125 114 100 90 92 102 107 104 98 91 96 92 88 102 112 114 116 116 119 118 118 114 111 112 111 106 102 100 99 101 105 104 104 108 109 111 111 110 109 113 125 133 139 142 146 148 150 150 150 149 150 155 166 182 195 205 213 218 222 224 228 229 230 230 230 230 231 232 233 234 233 232 231 229 227 227 226 224 223 221 220 218 215 209 197 178 153 124 96 82 77 81 94 106 115 126 127 126 120 103 91 82 75 70 71 65 59 55 54 55 54 52 50 50 53 54 57 60 62 62 59 59 62 64 66 67 69 70 71 69 69 73 77 76 76 75 71 70 66 57 60 61 60 58 50 45 47 46 44 46 50 53 54 50 46 44 44 40 39 41 43 45 44 40 38 38 40 43 45 45 41 42 41 40 40 35 31 29 29 36 38 41 48 47 43 43 44 44 42 40 40 40 38 39 40 39 41 42 39 41 38 43 56 66 81 97 105 105 104 99 89 77 60 43 35 32 31 37 48 54 58 59 59 61 59 57 50 42 40 42 46 52 57 63 66 70 73 74 72 73 75 72 67 63 58 51 49 46 36 32 29 27 29 24 23 25 26 21 13 14 17 28 42 46 48 48 48 47 44 41 36 34 36 38 37 38 36 39 35 37 42 40 36 39 38 36 38 30 2 5 32 44 39 37 48 56 53 49 46 39 33 37 38 35 40 41 36 33 33 31 30 34 33 32 23 16 9 7 1 0 0 0 0 0 5 23  120 120 123 127 128 124 129 147 167 186 201 209 205 195 181 162 140 118 101 107 124 131 131 134 134 122 110 110 110 111 112 114 116 115 115 111 109 110 111 108 105 104 103 105 109 112 113 115 118 120 119 116 113 115 123 131 139 143 147 149 151 151 151 151 154 161 170 184 196 207 214 218 221 224 227 228 229 230 229 230 231 232 233 234 233 232 231 229 227 226 225 224 222 221 219 217 215 210 203 191 176 158 145 141 137 138 146 152 157 162 162 159 156 150 142 137 136 134 130 127 123 116 112 116 112 113 114 113 117 121 124 125 127 128 130 132 137 143 147 151 154 156 155 154 154 154 157 157 157 155 151 149 145 139 137 139 140 144 142 138 140 138 132 133 139 141 142 141 139 137 136 135 129 129 130 130 129 124 120 121 119 119 119 119 120 118 118 117 113 111 108 108 109 110 113 115 120 124 122 121 122 121 118 119 119 118 116 119 125 125 123 122 121 120 119 122 127 133 145 159 163 165 162 160 149 136 125 112 110 111 111 114 123 126 127 128 129 127 126 124 118 114 115 118 120 126 130 135 139 141 140 133 128 128 123 119 114 112 109 105 103 104 101 103 103 103 105 104 106 107 105 106 103 105 108 113 117 121 124 126 126 128 130 130 126 122 122 121 121 124 125 126 124 124 123 121 119 118 121 124 120 113 101 102 114 121 121 121 127 128 126 125 124 126 125 122 122 120 121 119 116 113 112 110 110 110 107 106 102 94 90 83 82 82 81 82 81 77 82 92 100  130 131 133 136 137 134 136 150 170 188 202 211 213 206 192 178 161 141 124 121 132 141 147 148 150 146 132 122 115 116 117 119 122 121 119 116 115 115 114 111 108 105 104 107 111 113 114 116 119 121 121 122 126 131 139 146 152 158 163 166 166 167 168 165 165 170 178 190 200 209 214 218 221 224 227 228 229 230 230 230 231 232 233 234 233 232 231 229 227 226 225 224 222 221 219 218 217 214 211 207 201 192 182 178 173 167 168 170 170 172 171 170 167 161 155 154 154 156 156 154 153 153 151 153 154 154 156 159 161 164 167 168 169 171 173 174 174 174 175 174 174 174 175 177 177 179 184 185 185 184 181 180 178 176 176 177 175 175 177 177 177 179 178 175 177 178 176 177 177 175 173 171 169 169 170 170 168 168 167 165 165 165 165 165 165 165 165 165 164 162 160 160 160 161 162 163 167 171 170 167 169 168 167 167 168 169 169 170 171 172 173 171 171 169 169 171 177 184 191 197 201 202 200 196 190 180 169 162 159 160 161 164 169 173 175 173 172 172 172 171 168 163 162 165 168 172 175 177 181 182 180 176 171 168 167 165 163 160 158 156 155 150 151 149 149 151 150 153 157 156 154 157 159 158 161 166 166 168 170 172 173 173 173 172 169 169 172 172 174 177 178 177 176 176 174 172 171 168 168 169 167 163 159 160 162 162 162 163 169 170 170 171 171 169 169 170 171 171 171 168 165 161 161 159 157 156 155 150 145 139 135 133 132 134 136 130 126 126 128 140 143 
32 122 122 123 127 127 127 132 139 150 159 165 162 149 135 121 105 89 86 88 97 100 95 90 84 88 88 82 94 104 106 108 111 113 112 110 109 107 108 107 105 102 100 100 102 104 103 105 108 111 111 108 109 107 108 117 123 127 129 135 137 139 137 137 139 140 147 160 175 186 197 205 210 213 217 220 220 221 221 222 223 224 225 226 226 225 224 222 220 218 217 216 213 211 209 207 204 200 191 176 157 135 106 85 83 81 84 90 94 99 103 107 111 109 101 91 83 78 75 73 69 64 59 56 58 59 57 57 54 56 61 63 64 65 64 61 60 60 62 65 64 64 67 69 69 68 68 71 68 69 72 69 65 63 60 56 58 56 55 48 44 43 42 45 51 52 52 54 49 44 42 38 35 36 38 41 43 42 40 38 34 36 40 37 42 41 38 39 38 35 31 31 32 33 33 36 41 46 49 46 47 47 47 45 43 40 35 35 36 37 38 36 37 35 36 37 40 53 62 77 92 101 103 100 90 76 67 52 42 39 35 32 35 45 57 58 61 61 63 64 62 52 41 37 35 38 47 57 64 67 74 77 76 74 71 72 69 63 59 54 49 45 39 35 33 33 31 31 28 22 22 28 29 22 16 17 27 37 44 48 48 46 43 41 40 39 35 36 39 39 41 40 38 37 39 40 39 39 39 31 28 32 34 15 0 18 38 42 41 52 57 54 51 46 38 35 37 39 40 43 42 37 32 31 29 29 36 34 30 25 17 10 4 2 0 0 0 0 0 9 25  115 115 117 123 122 122 135 153 175 195 206 209 200 186 169 146 120 100 95 102 116 120 122 126 128 120 106 104 105 107 106 108 112 111 110 107 107 109 108 107 105 103 103 105 108 111 113 116 118 119 116 114 112 110 116 123 130 132 136 139 143 142 142 145 150 158 167 181 193 203 209 212 215 218 220 221 222 223 223 223 224 224 226 226 225 224 223 221 218 217 216 214 212 210 208 206 203 197 190 179 167 151 143 143 140 140 142 144 146 148 150 154 153 148 144 143 142 140 138 133 128 120 117 120 120 119 118 120 123 125 128 129 131 132 133 133 136 142 151 152 151 154 153 153 152 154 156 154 153 154 153 147 144 141 138 138 139 141 135 136 138 133 132 136 137 139 138 137 135 134 131 128 126 127 127 126 128 124 120 119 114 116 115 117 117 116 117 114 112 110 111 110 110 110 113 118 122 124 124 124 123 122 118 117 117 116 117 115 118 119 117 116 116 115 117 121 125 132 143 154 159 160 158 153 141 131 123 112 112 110 111 115 121 127 130 130 129 127 124 125 122 116 114 115 114 118 128 133 134 139 140 135 129 124 120 117 114 111 110 108 108 108 104 105 107 107 107 106 105 106 106 107 104 105 108 113 117 120 122 125 127 130 129 129 129 125 122 122 122 124 124 122 121 120 121 119 119 116 111 114 115 116 108 98 108 119 121 119 125 128 128 126 124 124 125 123 123 122 122 119 117 112 110 111 112 111 110 108 105 97 89 83 83 83 84 82 82 83 89 96 99  125 126 127 129 130 129 140 157 178 197 208 212 208 196 181 164 141 119 107 113 125 133 138 140 142 141 129 118 112 111 113 116 116 117 115 111 110 112 111 108 106 105 104 107 110 113 115 115 118 120 121 120 122 126 134 139 145 150 153 155 158 158 158 160 161 167 174 184 194 204 209 213 215 218 220 221 222 222 223 224 224 226 226 227 227 224 223 221 219 217 216 214 212 210 208 207 207 205 202 199 193 186 179 178 175 169 167 167 165 162 162 163 161 158 155 155 156 158 159 156 154 153 152 153 155 156 158 161 164 167 167 169 172 173 175 176 176 178 179 179 180 180 179 179 180 182 183 186 188 188 185 183 179 177 177 176 175 175 174 175 175 176 175 174 177 177 176 176 174 172 173 168 167 168 168 168 166 166 164 162 161 162 163 162 162 164 163 164 163 162 161 159 159 159 162 164 167 171 171 169 169 168 169 169 167 167 168 169 167 168 169 168 168 169 169 171 175 180 187 193 197 199 197 192 186 179 170 164 161 159 160 161 167 171 171 172 173 172 172 173 169 164 162 161 163 168 174 175 178 180 181 176 173 169 164 163 163 161 160 156 156 156 154 152 152 153 153 155 156 157 156 155 157 158 159 164 168 168 169 170 173 172 174 176 173 168 170 173 173 176 175 174 173 173 172 171 169 165 165 168 167 166 162 160 160 161 161 161 169 170 171 171 171 169 169 169 171 170 170 168 165 161 159 159 157 156 154 151 147 141 135 133 133 134 138 133 130 132 136 140 141 
26 116 116 117 122 122 126 132 141 151 158 162 156 141 125 110 90 83 84 85 88 90 87 82 78 78 76 74 85 98 98 101 103 108 107 105 106 105 104 102 102 100 98 99 101 103 103 105 105 108 110 110 108 105 103 107 114 116 119 125 127 128 128 131 134 136 142 152 164 173 186 195 198 200 203 207 208 208 209 210 211 212 213 214 213 213 211 209 205 203 200 198 195 192 187 184 183 179 169 155 138 116 97 84 80 81 80 81 85 90 92 96 103 100 100 95 89 84 77 77 77 72 68 64 61 63 70 68 67 62 65 67 69 69 68 69 68 64 63 61 62 62 61 64 69 69 64 67 65 64 65 66 64 66 63 54 54 56 50 44 40 40 42 47 53 56 56 53 49 46 40 34 33 34 36 37 40 39 35 34 32 34 35 35 39 39 37 37 35 34 30 31 33 33 34 34 40 46 53 53 50 48 46 42 42 39 35 33 34 36 37 33 33 29 29 31 37 49 56 70 85 92 96 97 88 76 64 44 36 39 35 31 36 42 58 67 68 68 68 67 63 56 44 36 38 39 43 56 65 68 73 78 79 76 70 66 63 56 52 51 47 46 43 38 37 35 33 31 27 25 26 26 28 27 19 14 23 33 41 46 48 45 43 40 41 42 36 35 39 40 44 44 44 46 41 35 37 39 34 27 23 29 31 25 3 4 28 40 43 51 57 55 52 45 40 36 38 40 42 44 43 38 33 33 28 26 32 35 28 28 20 10 2 1 0 0 0 0 3 19 28  111 110 111 116 118 123 139 161 182 199 207 203 189 172 151 124 100 87 88 95 107 111 117 120 118 113 100 99 100 98 100 102 108 108 105 105 106 104 105 104 103 102 103 103 107 111 113 114 118 119 117 114 111 109 114 119 125 129 133 135 137 138 140 143 147 156 167 176 187 195 202 205 207 208 211 212 212 213 214 214 216 216 216 216 217 215 213 210 208 205 204 201 198 194 192 191 190 186 181 173 162 152 143 142 141 141 137 135 139 142 145 149 150 150 149 147 146 144 143 143 139 134 128 126 129 133 133 127 129 131 131 134 136 137 137 138 142 144 149 152 150 150 152 154 153 153 154 153 153 152 149 147 145 141 139 135 136 136 133 134 133 133 138 141 140 138 138 134 134 132 124 124 123 126 127 126 126 122 119 117 112 110 111 114 112 114 116 112 112 113 110 109 110 110 112 116 122 124 127 126 123 121 118 115 116 116 116 115 117 118 115 114 112 110 113 118 122 130 140 148 153 154 154 150 141 129 119 110 110 109 112 114 121 129 134 131 133 132 130 128 125 116 111 111 112 114 122 127 129 135 136 134 127 121 119 114 111 111 114 111 113 113 109 106 108 109 108 108 106 104 105 106 108 108 106 110 116 119 123 125 126 128 130 133 133 130 127 123 123 125 122 123 123 119 116 117 117 114 111 108 110 116 114 101 100 114 122 122 123 126 128 127 125 123 123 123 120 122 123 121 116 110 112 113 110 109 110 107 104 100 91 87 84 84 86 86 86 88 94 99 99  119 119 120 122 123 128 145 164 185 202 210 210 199 184 167 145 117 102 98 105 117 125 130 133 136 134 124 116 108 107 110 112 112 112 110 107 108 108 109 107 105 104 106 108 110 113 114 116 118 119 120 120 122 125 129 137 142 147 148 152 153 152 155 158 160 165 172 180 190 197 203 207 209 210 212 214 214 215 216 216 217 219 220 220 219 217 215 213 211 208 204 202 199 196 194 193 193 193 192 189 185 181 180 179 176 171 167 164 160 157 155 158 159 157 158 159 159 160 159 158 156 155 155 158 159 161 161 163 166 169 169 169 173 175 176 178 179 182 182 182 184 184 183 184 184 184 185 186 188 188 187 184 182 179 177 173 173 174 173 173 175 174 175 176 176 176 176 174 172 172 171 166 164 166 166 166 166 165 165 161 159 160 160 160 162 162 162 163 163 161 160 160 160 160 162 165 169 170 172 171 170 169 170 169 167 167 166 166 166 166 166 163 165 166 168 170 174 179 185 190 194 198 196 192 186 177 169 163 160 158 160 161 167 173 173 174 173 174 174 170 167 162 160 157 157 163 168 173 175 177 179 178 175 169 164 163 163 161 160 160 160 158 155 155 155 155 155 156 155 155 156 155 154 156 160 163 168 169 169 170 173 172 173 175 174 172 172 174 175 175 173 172 171 169 169 166 166 164 162 164 165 167 165 160 159 159 161 162 167 170 171 171 170 169 169 169 170 169 169 168 164 163 160 158 156 154 153 151 148 140 136 134 133 135 139 138 135 138 141 143 143 
25 113 113 114 117 118 124 131 138 146 154 151 143 131 115 93 80 81 77 75 76 80 79 73 68 67 63 68 78 89 92 95 98 101 101 99 99 99 101 102 101 100 100 99 101 103 105 104 104 106 109 109 106 106 104 102 102 105 109 112 114 118 121 126 130 131 140 149 155 165 175 182 185 184 183 186 188 188 189 192 194 195 195 195 191 189 185 180 179 177 174 172 170 166 162 161 160 157 148 138 123 107 95 86 79 78 76 73 75 80 84 91 98 100 97 100 99 95 84 84 87 84 80 73 69 65 72 76 75 72 72 72 74 74 75 75 74 69 66 63 62 63 60 61 67 70 65 65 64 61 61 64 64 66 62 54 53 52 46 41 40 40 47 49 50 57 56 53 50 43 35 31 30 32 35 37 37 37 36 35 33 30 30 36 40 37 35 31 31 32 33 33 31 33 35 36 38 45 53 56 52 49 46 42 41 41 38 35 33 35 35 34 34 27 30 33 38 49 56 67 77 87 94 96 88 78 67 50 38 30 27 30 35 44 59 69 70 71 72 70 66 61 48 44 46 49 54 60 67 72 74 76 77 75 71 67 59 52 50 50 46 45 43 41 41 39 36 34 29 25 27 28 30 32 30 19 17 26 37 44 49 48 44 42 44 42 39 38 41 46 50 46 48 54 51 40 39 38 33 28 21 24 25 28 15 0 14 38 46 54 58 55 52 46 40 38 38 41 43 44 44 39 34 32 27 30 31 32 29 29 22 11 8 2 2 0 0 0 4 21 28  109 109 110 112 114 125 144 164 181 196 201 192 175 154 127 99 89 82 82 89 97 101 109 112 107 103 96 95 94 93 95 100 102 101 101 102 101 100 103 101 99 102 101 104 109 112 113 115 117 118 118 116 113 112 115 116 122 125 129 130 132 136 141 146 150 157 165 174 182 190 196 199 198 197 197 198 200 203 204 206 206 207 207 207 206 203 200 198 194 191 190 190 187 183 180 177 179 178 176 170 162 154 146 144 141 138 132 131 137 138 141 148 151 153 155 153 152 150 149 150 148 148 143 137 135 141 144 142 141 143 142 144 146 149 149 146 146 148 150 152 151 148 149 150 153 155 154 152 154 150 147 147 147 140 136 135 133 133 132 133 134 139 142 141 144 140 137 134 130 125 119 120 122 123 125 124 122 119 116 115 111 108 109 112 113 110 110 113 110 111 110 108 111 110 111 115 119 122 127 126 125 122 119 119 120 118 116 117 120 117 114 113 111 113 116 116 123 128 134 141 147 151 154 151 145 135 122 114 109 109 112 114 119 130 136 137 136 136 136 132 127 119 114 112 115 114 117 123 128 129 130 129 125 123 118 116 115 115 119 118 115 114 113 110 111 111 110 109 108 107 107 108 108 108 108 105 111 118 123 126 126 127 131 135 133 128 127 126 127 125 121 129 131 128 115 113 115 114 110 108 108 112 115 111 100 108 120 122 125 123 126 127 125 122 121 120 122 122 122 120 116 110 110 113 112 110 109 105 102 99 92 89 84 86 89 87 89 92 99 100 98  114 115 115 117 120 131 148 169 188 200 208 201 184 169 148 120 98 93 91 99 109 116 121 126 129 123 118 114 104 101 104 106 107 107 107 105 106 106 106 107 103 105 106 107 110 113 115 116 118 120 119 121 123 126 129 134 140 145 147 149 150 152 156 158 161 165 172 177 185 192 197 201 201 199 200 203 204 206 208 208 209 211 213 212 209 208 206 202 198 195 191 188 185 183 180 179 181 183 183 181 181 181 181 181 177 172 167 163 159 157 154 157 159 158 157 159 161 162 161 162 161 162 163 162 162 165 167 166 169 171 171 172 173 174 178 180 183 185 184 183 183 185 183 185 183 184 186 187 188 189 187 185 183 179 175 172 171 172 173 172 173 176 177 177 176 177 176 173 171 169 166 164 163 164 165 164 163 163 163 160 159 158 157 158 159 160 162 160 161 160 160 161 161 161 162 163 168 170 171 170 171 172 169 168 167 169 167 165 165 165 165 163 163 164 166 168 173 178 183 186 192 196 195 192 187 179 172 165 162 161 160 161 166 173 175 176 175 177 174 171 168 163 159 158 159 160 164 172 174 176 175 175 174 171 166 163 163 160 162 162 162 160 158 158 157 157 157 156 156 156 156 155 154 154 157 161 167 170 169 170 172 172 173 175 177 177 173 175 176 174 173 172 171 170 168 166 165 164 163 164 163 165 166 163 160 160 161 165 167 169 170 171 172 171 169 170 171 170 171 169 164 162 160 160 155 153 153 150 147 142 137 135 133 136 139 141 143 144 146 144 143 
26 107 108 110 113 114 121 126 133 143 148 140 130 116 97 78 76 76 67 64 65 65 66 62 57 53 52 58 66 74 82 86 93 94 95 95 93 95 99 102 101 97 98 100 101 103 107 107 105 105 108 108 105 104 102 100 97 98 103 106 106 112 118 124 128 132 139 144 151 160 169 174 175 172 171 170 170 171 171 174 173 172 173 169 164 162 161 156 153 149 146 147 145 144 144 143 141 138 134 125 112 101 96 90 84 78 73 66 71 77 81 88 95 101 97 101 104 102 94 91 97 96 89 83 80 72 71 79 80 81 81 83 81 79 79 78 78 76 73 71 67 66 65 65 67 69 67 66 65 62 63 63 63 65 61 54 52 50 46 43 44 45 49 49 53 57 56 51 48 40 32 29 30 33 33 34 33 35 36 33 31 28 29 33 34 34 34 32 33 34 29 28 30 34 35 36 38 42 50 54 49 49 47 43 40 40 39 37 35 35 36 33 32 30 35 37 41 52 64 73 77 84 94 97 93 82 71 59 47 32 25 24 28 40 56 65 69 70 70 71 71 63 55 53 54 58 61 64 68 72 76 76 74 71 69 67 59 54 55 51 51 47 43 43 42 41 39 33 32 27 27 30 30 30 33 28 18 22 31 37 45 45 42 40 44 41 42 41 43 46 50 45 52 58 57 49 40 35 35 32 21 17 22 25 26 4 1 23 46 55 58 56 54 47 38 37 38 40 40 43 42 39 35 31 30 30 34 33 31 26 20 13 8 7 4 0 0 1 7 27 31  105 105 107 110 112 124 144 162 175 187 187 175 156 131 103 84 80 78 73 76 85 92 97 98 94 92 92 88 87 88 89 95 97 99 98 96 98 100 103 104 100 99 99 104 109 113 113 114 115 117 117 118 118 117 117 118 124 126 130 134 137 142 147 151 156 161 168 174 180 186 192 195 195 191 188 189 192 192 194 195 196 197 197 196 193 189 186 183 179 177 180 182 180 178 176 176 176 175 171 168 164 157 154 149 144 139 133 132 135 137 143 149 159 159 161 161 159 157 156 159 156 156 153 151 147 148 152 155 153 154 157 154 153 155 154 152 149 151 151 150 152 150 149 150 153 151 152 152 149 149 147 146 145 141 135 134 132 132 133 133 138 143 142 142 145 142 137 135 128 118 115 117 121 122 122 122 120 119 116 114 108 107 109 110 110 110 109 111 112 109 110 110 113 112 111 116 118 123 126 125 125 122 118 118 119 120 119 118 118 117 114 113 112 114 114 118 123 131 137 142 149 151 156 155 148 141 128 118 111 107 108 112 118 128 136 138 137 138 138 136 129 123 119 115 116 117 116 120 124 127 128 126 124 124 122 123 120 122 124 122 119 117 115 115 113 109 111 110 108 108 108 107 108 108 108 104 106 115 119 124 125 127 130 134 131 130 127 126 128 125 118 129 133 131 121 114 114 115 109 104 105 107 112 116 105 98 109 120 124 122 126 126 126 122 121 120 122 121 121 119 115 112 109 110 110 112 111 107 103 99 94 89 87 87 88 88 91 97 104 103 102  110 110 111 114 118 132 149 167 182 192 199 187 170 149 122 98 89 88 85 88 98 108 115 120 120 115 114 112 101 98 100 101 100 102 103 103 104 103 104 105 105 105 107 106 110 114 114 115 117 119 119 122 125 128 130 134 139 143 143 147 150 154 158 161 164 169 175 178 184 190 193 195 195 192 191 192 194 196 198 199 201 202 203 202 199 196 193 188 185 182 178 176 174 171 169 170 171 174 177 179 182 184 184 184 180 174 168 164 161 159 156 158 161 162 162 162 164 166 167 167 166 165 166 167 166 165 168 170 170 170 174 175 176 177 180 182 183 185 184 183 182 183 183 182 183 184 184 186 188 188 185 184 182 178 175 173 170 170 172 173 174 176 177 177 177 178 177 175 169 166 164 161 162 163 162 161 163 160 160 159 158 155 155 156 156 157 159 159 160 159 160 161 161 161 162 163 165 169 171 171 171 170 168 167 168 169 169 167 166 164 163 163 162 163 166 167 173 181 184 184 190 194 195 193 190 181 176 170 165 163 161 163 166 170 175 176 177 178 175 174 169 165 163 163 162 163 161 166 173 173 172 173 174 173 170 167 165 164 164 164 165 162 161 160 157 157 157 157 156 157 157 154 153 154 155 160 164 167 169 169 172 174 174 176 178 178 176 176 175 174 173 173 171 171 171 168 165 165 164 164 163 164 165 166 163 160 161 167 168 169 169 171 172 170 170 171 172 171 171 168 163 160 161 158 154 153 152 149 146 146 141 137 135 138 142 143 145 149 150 145 144 
32 102 105 105 108 111 117 121 128 133 135 130 120 102 80 72 69 64 60 56 50 50 46 45 43 41 42 49 60 71 75 83 84 88 89 90 89 92 96 98 100 99 100 102 102 105 107 107 104 105 107 109 106 104 101 101 100 101 103 103 106 110 115 122 125 129 135 143 150 157 165 169 171 171 169 164 161 159 156 157 154 150 148 144 140 139 138 135 132 130 126 127 130 131 132 131 130 131 128 123 116 107 102 94 86 77 73 71 72 77 81 87 95 100 100 102 103 106 103 98 101 101 101 97 90 83 77 80 87 91 89 88 86 82 81 82 82 82 79 75 72 68 63 61 62 64 62 60 61 62 59 57 59 59 59 51 48 49 41 41 45 48 48 50 56 58 57 53 49 42 33 31 29 28 31 31 29 32 32 32 29 29 30 29 30 30 32 31 27 31 33 31 33 34 36 39 39 39 46 50 49 46 41 41 41 42 38 36 35 36 34 33 33 35 37 36 40 50 64 75 84 94 98 97 96 89 81 68 53 37 27 22 22 32 44 54 64 70 68 69 69 67 64 61 60 64 66 68 70 68 72 74 69 67 67 68 63 57 53 48 51 48 45 44 41 41 41 39 36 29 29 31 28 25 29 32 24 20 25 31 38 41 39 40 42 42 43 44 48 47 49 43 44 59 59 55 48 39 35 33 24 15 19 20 22 14 0 10 46 56 57 56 54 46 40 38 37 37 41 43 40 36 32 31 31 26 28 29 27 24 23 15 6 8 3 0 0 4 15 31 32  103 104 105 107 112 123 141 156 167 175 169 152 133 106 83 76 73 69 67 63 65 74 79 83 84 85 88 87 86 82 85 89 91 95 94 94 95 97 99 103 101 100 102 105 110 112 112 113 114 118 118 120 123 123 125 128 134 137 138 142 146 149 155 156 160 167 172 177 183 189 194 195 196 192 187 187 188 187 187 186 185 187 185 183 182 181 178 176 172 172 174 176 178 180 179 179 178 179 178 173 170 166 162 154 145 140 138 135 135 140 147 150 159 163 165 167 168 164 164 171 168 167 165 161 157 155 156 159 161 161 163 164 161 161 160 158 156 155 151 150 150 146 145 145 146 147 148 150 148 148 145 144 143 141 136 133 132 131 135 136 139 142 142 144 146 144 139 133 124 116 114 115 118 120 120 118 116 115 113 111 108 106 106 108 109 109 110 111 111 110 110 111 112 112 114 116 117 121 123 122 119 119 117 118 118 119 118 118 119 119 116 115 112 113 114 116 122 131 136 143 153 157 159 159 152 147 138 124 112 107 106 110 116 123 129 134 138 138 136 136 130 126 124 121 119 118 116 117 119 124 126 125 125 127 131 130 127 126 127 127 124 119 114 113 110 109 110 110 108 109 109 106 105 107 108 107 106 108 116 122 125 123 127 133 133 129 130 128 126 126 119 119 134 131 126 119 115 113 111 106 104 108 109 114 110 94 101 117 120 121 123 124 123 122 123 120 120 121 121 118 115 110 110 111 108 108 107 108 104 100 94 88 89 90 88 89 93 100 107 105 98  107 108 107 109 116 130 146 161 173 184 184 169 151 124 98 86 85 83 81 79 81 96 104 108 110 110 112 108 98 96 97 97 98 100 101 101 103 102 107 106 105 106 108 108 111 115 114 114 116 117 118 122 126 131 135 138 143 146 150 151 154 158 162 166 168 172 178 182 187 191 195 196 193 191 189 189 189 190 192 192 191 192 193 192 190 187 184 180 176 175 172 170 171 172 170 170 172 175 180 184 184 187 190 188 182 174 170 166 162 160 159 161 162 164 165 167 169 170 172 173 172 170 169 170 170 170 170 170 173 174 176 180 179 181 182 182 182 184 184 182 180 179 179 178 181 182 183 184 186 186 184 184 183 178 175 172 170 170 172 174 176 178 180 178 177 175 175 172 166 163 162 159 161 162 161 160 160 159 159 158 157 155 155 156 155 156 158 159 160 160 160 159 160 161 161 162 163 166 168 170 168 169 168 168 169 169 169 169 168 165 166 164 163 164 165 167 172 180 185 188 192 196 197 196 192 186 180 173 167 163 162 163 166 170 175 175 176 176 175 174 172 168 166 165 164 162 162 163 167 170 171 172 173 173 174 174 171 168 166 167 169 166 163 161 159 159 158 158 157 156 156 156 154 155 155 157 161 164 168 171 172 173 175 176 177 177 178 175 174 172 171 169 174 175 173 169 166 165 163 163 161 163 163 164 166 162 159 166 169 170 170 171 172 171 171 170 170 171 171 168 163 159 160 156 153 153 152 148 148 146 144 141 139 142 143 145 147 150 152 146 146 
30 102 100 100 101 106 109 113 120 122 124 116 101 86 72 65 61 54 50 47 39 41 40 41 42 42 43 48 58 66 73 82 85 85 86 89 92 93 99 102 102 102 104 104 105 108 106 106 104 104 106 106 105 106 103 103 105 103 103 108 111 112 115 120 126 132 136 144 151 157 164 166 169 168 166 162 157 151 146 142 137 136 135 132 127 126 127 124 122 122 122 121 122 125 127 125 124 127 124 123 119 112 106 97 87 76 72 75 75 76 78 85 97 99 99 102 106 111 107 106 106 107 103 99 96 93 87 86 88 91 91 89 91 83 80 80 82 81 79 77 74 66 61 57 56 56 56 58 58 57 57 54 53 55 51 45 47 46 40 43 47 47 49 50 54 56 59 54 46 39 35 32 29 28 30 29 28 26 30 29 27 28 29 28 27 28 30 33 35 33 34 32 34 36 36 38 38 45 45 44 43 42 41 39 40 39 36 36 38 39 37 36 35 39 35 34 38 49 63 69 82 96 103 105 103 97 89 76 63 45 27 25 24 28 39 50 57 64 67 66 68 72 73 69 68 68 70 71 69 64 66 70 68 64 64 67 66 63 57 55 54 51 47 46 41 41 41 41 37 31 30 34 32 27 30 33 33 26 20 24 29 34 38 41 40 41 45 48 49 50 48 44 37 39 54 55 56 49 39 36 27 16 15 19 17 18 3 3 35 54 58 57 51 42 39 37 37 37 36 43 42 33 30 30 30 25 27 30 27 25 22 16 10 8 5 1 0 6 21 31 36  102 102 103 103 108 120 134 145 154 159 147 127 104 82 75 72 68 63 62 59 57 66 76 83 85 87 90 89 84 81 86 88 90 91 94 94 94 99 102 102 103 104 104 105 110 112 113 113 113 118 119 122 126 130 133 137 142 146 149 151 153 155 160 163 167 172 176 182 188 195 197 199 197 195 192 189 186 186 184 180 181 185 182 180 180 180 179 177 176 177 176 175 178 182 179 181 183 182 182 179 178 176 167 158 146 141 140 139 137 143 149 155 160 166 171 173 178 175 174 180 181 176 174 172 169 162 162 164 166 166 166 168 165 164 162 159 160 157 152 149 145 140 139 139 144 145 147 148 147 148 146 143 141 137 134 134 131 129 132 137 139 142 140 145 144 143 137 129 124 116 112 113 114 116 115 117 115 112 111 110 105 107 106 107 107 109 113 117 113 112 111 112 113 114 117 116 118 119 120 119 117 116 114 116 118 119 120 121 120 119 117 117 116 112 115 115 120 128 134 142 153 162 164 163 161 152 144 131 116 110 108 108 113 119 124 130 133 134 134 135 132 129 128 124 121 118 116 116 114 120 124 124 124 131 136 137 135 132 132 129 126 119 114 111 111 109 112 112 108 109 110 107 105 109 112 110 109 108 114 118 120 121 124 127 129 128 127 125 125 124 120 117 120 128 129 127 119 116 112 108 103 103 107 115 117 103 95 110 120 121 121 120 120 120 120 120 120 119 121 118 113 108 109 113 108 106 107 108 104 101 97 92 91 93 92 91 93 101 106 106 98  103 105 105 105 112 126 140 153 162 170 166 149 126 100 84 81 82 80 80 78 77 86 98 105 109 111 110 109 101 95 94 97 100 102 102 101 103 105 109 110 107 108 110 110 112 114 114 113 114 119 121 125 130 136 139 143 149 153 156 158 160 163 168 170 172 177 181 185 190 195 199 200 197 195 191 190 188 187 188 187 186 185 185 186 185 184 182 179 177 174 175 176 174 175 177 177 178 181 184 189 190 191 192 191 184 178 174 169 166 163 163 165 164 168 172 172 175 177 175 178 179 176 175 174 173 174 174 173 176 178 179 182 182 182 183 184 184 184 185 182 178 174 172 174 178 179 183 186 185 185 183 184 182 178 174 172 169 169 171 174 177 178 179 178 177 175 173 171 166 161 161 161 159 158 159 158 158 159 157 157 156 155 157 156 155 156 158 162 161 161 162 160 159 160 161 161 164 163 165 166 167 166 167 167 167 168 169 169 168 165 166 165 164 165 163 166 171 177 181 186 192 198 200 199 196 190 186 178 169 164 161 162 165 168 172 175 174 174 175 174 172 169 167 167 164 162 162 162 162 167 171 172 173 175 177 179 177 172 170 170 170 166 164 161 159 158 158 159 158 158 158 156 155 153 155 157 160 164 167 171 172 171 172 174 176 176 176 174 173 172 169 167 173 178 173 174 169 166 164 162 160 164 164 165 168 165 160 164 168 170 170 170 170 171 170 170 170 170 170 168 163 159 158 155 152 152 150 147 149 147 144 142 142 144 145 146 148 152 152 149 146 
31 99 98 96 96 103 106 107 111 112 109 101 89 78 67 56 55 52 47 41 40 43 49 53 57 57 56 55 58 63 71 79 83 84 89 91 95 96 101 104 103 104 108 106 106 106 107 104 102 102 105 107 105 106 105 105 106 108 110 113 114 117 119 122 128 135 139 144 149 154 161 164 165 164 163 160 155 150 145 137 132 131 128 126 121 121 123 121 120 119 118 117 118 119 120 123 123 125 124 121 116 110 104 96 89 81 75 75 75 76 79 88 98 103 99 102 108 112 111 111 109 113 108 102 97 93 94 91 88 89 91 88 89 87 83 82 82 83 81 79 73 69 65 61 57 57 57 58 56 54 54 53 54 52 46 42 43 42 42 47 48 49 51 50 53 57 59 53 46 43 36 30 29 26 28 26 31 30 31 28 28 30 28 26 27 30 28 32 38 40 38 34 35 36 36 38 43 45 43 42 41 36 38 37 34 35 39 38 38 38 38 39 38 39 36 34 37 47 58 64 79 93 102 109 110 103 95 85 68 50 31 24 22 26 35 45 52 54 58 65 67 68 71 71 74 72 70 69 67 62 60 63 64 61 64 68 70 72 68 62 58 52 48 44 43 44 44 42 41 34 31 31 29 28 29 32 38 34 20 18 26 27 33 38 39 41 47 48 47 49 49 44 38 32 41 54 56 56 50 39 31 17 14 17 19 23 14 0 18 49 57 54 48 40 38 37 38 36 33 40 42 34 29 28 28 25 27 28 27 26 23 20 13 10 10 3 0 4 22 35 39  102 102 100 99 105 113 123 132 137 136 119 104 85 75 71 69 65 63 59 58 65 80 91 99 102 99 95 91 87 82 83 86 89 91 92 95 94 99 105 101 102 104 103 103 107 111 112 112 113 118 122 126 131 135 138 144 150 158 162 162 167 167 167 172 176 179 183 187 188 194 197 200 198 196 196 192 189 187 186 185 184 184 183 181 182 182 181 180 179 178 177 177 178 181 181 182 183 184 185 182 180 178 171 161 149 145 142 142 141 148 154 159 169 172 176 180 185 186 183 186 191 187 184 179 173 171 169 167 171 169 166 169 168 162 159 155 159 156 156 150 143 138 136 137 143 145 148 152 151 148 146 143 141 137 135 134 130 131 133 137 142 145 144 143 142 137 134 130 124 115 112 110 110 111 111 114 115 113 113 109 108 109 109 109 106 106 112 117 118 117 112 110 111 114 114 117 119 118 117 118 115 114 116 116 118 120 120 122 121 122 121 117 118 117 115 114 119 126 130 141 148 160 168 169 166 160 151 137 122 113 108 108 113 118 122 126 127 131 133 134 134 132 126 127 124 119 116 114 114 113 117 123 125 134 141 145 145 143 138 130 126 120 115 111 111 111 114 114 110 110 108 107 106 109 112 115 115 112 111 115 117 118 119 121 125 130 128 122 120 122 120 115 116 123 129 128 127 121 113 110 101 102 106 112 118 110 94 104 118 120 120 118 118 120 119 120 119 118 121 117 113 108 107 109 108 107 106 104 103 101 98 95 94 96 93 90 93 104 107 104 102  103 104 103 103 110 120 132 141 148 151 141 122 101 87 81 80 80 79 79 80 83 90 102 112 119 119 116 113 106 99 98 99 100 103 104 103 105 107 110 111 109 111 112 110 111 113 114 113 113 118 125 129 134 140 144 149 155 159 163 164 166 168 171 174 177 181 185 190 192 197 199 198 197 195 193 190 188 186 184 183 185 185 183 183 184 183 181 179 177 177 178 178 178 180 181 182 184 186 189 193 193 193 193 193 186 180 178 172 168 168 167 169 172 173 177 179 180 183 181 181 184 182 181 178 177 177 178 179 178 180 181 184 186 184 184 186 184 183 182 179 174 170 170 171 175 178 181 184 184 182 182 182 179 178 173 171 171 171 173 176 178 178 177 177 176 174 172 169 166 163 162 161 159 158 159 157 157 158 157 158 155 155 156 155 155 156 159 162 163 163 162 162 161 161 162 163 165 164 164 165 166 164 164 166 167 168 169 168 166 164 164 165 164 164 162 164 170 175 180 185 193 199 203 204 200 195 190 181 171 164 161 162 164 165 170 174 174 173 175 174 172 170 169 167 164 163 162 161 160 162 169 171 173 177 181 184 183 181 176 173 171 166 163 161 160 159 159 160 159 159 159 157 155 154 155 161 162 165 168 169 170 170 170 171 173 173 173 172 172 171 170 170 167 175 179 175 173 168 165 163 161 163 166 167 167 166 161 161 165 170 169 168 167 169 171 171 170 170 172 168 160 155 155 154 152 151 149 148 147 147 146 143 144 148 147 148 150 154 154 152 148 
33 96 93 94 96 101 103 103 102 98 93 90 85 78 69 58 54 51 47 42 47 53 58 58 60 61 63 61 60 66 71 77 82 85 89 91 94 95 99 102 103 107 108 105 103 103 106 101 98 100 103 105 107 109 108 108 111 114 118 120 120 121 122 125 130 135 140 144 145 148 151 153 151 152 152 149 145 142 139 134 133 130 125 121 118 122 122 119 119 118 116 116 119 119 119 121 125 127 123 120 119 112 103 96 89 82 79 78 75 79 84 92 101 107 101 102 107 108 113 113 113 117 110 105 98 89 89 89 90 88 85 86 87 87 86 84 83 81 80 79 71 67 63 63 63 59 58 56 54 56 54 53 54 44 42 42 41 41 39 45 52 51 52 51 51 58 56 50 51 46 35 31 31 29 29 28 32 32 32 32 27 29 28 24 28 31 27 30 36 39 41 39 35 35 39 37 39 42 42 42 37 32 31 32 32 35 38 37 38 39 37 40 41 39 35 35 39 47 53 62 76 89 101 108 111 107 103 90 71 56 36 25 21 22 32 40 49 53 57 60 61 61 63 67 69 69 69 67 63 57 53 54 54 58 63 71 77 80 79 72 62 52 50 44 43 42 44 44 42 37 33 31 27 26 29 34 39 42 32 21 25 23 25 33 41 44 47 48 49 48 46 42 34 30 29 46 57 57 56 44 37 22 10 10 15 21 25 6 5 36 53 48 43 37 38 36 37 33 32 36 37 36 27 22 24 25 23 24 26 26 26 16 10 14 12 2 0 4 24 37 39  102 101 98 101 104 107 113 116 114 107 98 91 83 74 71 67 65 63 57 62 78 92 102 109 110 110 104 95 92 83 79 84 87 89 91 92 93 97 100 100 102 103 102 101 105 110 111 111 111 117 123 127 137 141 146 155 163 170 175 174 174 175 179 182 185 187 190 191 191 191 192 193 194 194 193 189 188 187 187 187 186 183 182 181 181 181 180 181 181 180 180 182 184 186 187 189 191 191 190 188 183 180 174 164 154 151 147 147 148 151 159 166 175 174 177 184 185 190 191 192 194 194 188 180 174 175 171 170 171 167 166 167 165 159 156 153 153 152 151 145 142 140 142 144 145 144 146 149 148 147 146 141 139 138 136 132 133 134 137 139 141 144 142 139 138 135 132 131 124 119 115 113 110 109 111 113 115 117 112 109 112 112 110 111 109 108 111 116 118 119 115 111 112 114 111 115 117 116 115 115 112 113 114 116 119 122 122 122 122 120 120 121 120 115 116 115 118 125 128 138 148 160 169 171 166 162 152 137 124 112 106 108 111 118 119 126 128 130 132 132 130 129 126 122 120 117 114 110 108 108 108 119 124 133 147 153 155 153 145 135 127 118 115 111 111 112 114 114 109 109 110 107 107 107 109 114 118 114 112 114 115 117 118 120 122 124 123 121 119 119 119 116 115 116 125 132 132 129 120 113 104 102 104 110 113 115 103 99 113 121 120 117 114 116 118 118 118 118 119 117 111 104 104 104 107 104 101 103 102 100 96 94 96 98 94 87 91 104 109 107 106  103 103 99 102 108 115 120 126 130 125 115 103 95 87 82 81 81 83 82 86 91 100 111 119 124 124 125 121 111 102 99 101 102 104 103 105 106 108 110 111 110 112 112 110 111 112 113 113 113 119 126 130 136 145 150 155 160 166 170 171 172 174 176 179 184 185 187 190 192 192 194 193 191 192 191 188 185 183 182 183 182 183 182 181 181 181 181 180 179 180 181 182 182 184 185 186 188 192 194 196 196 194 193 192 188 184 181 178 172 172 174 174 175 177 180 183 183 186 186 185 187 187 186 183 181 181 182 181 181 183 181 183 185 185 184 184 184 183 178 172 171 170 170 172 176 178 180 183 183 183 183 182 180 177 174 173 173 173 175 178 179 179 178 175 174 172 170 170 167 164 161 160 160 160 160 159 159 158 157 157 153 153 156 155 156 159 160 161 164 165 163 162 161 162 163 164 165 165 165 164 163 163 164 163 166 167 167 166 167 167 166 165 166 164 164 166 169 173 179 186 192 199 204 205 202 198 190 181 174 167 162 161 163 165 170 173 174 174 175 175 173 171 169 166 163 161 160 158 158 157 162 169 175 178 185 190 189 186 181 173 170 167 163 164 161 160 158 158 160 159 159 158 157 156 157 162 163 164 167 169 168 168 169 169 171 171 171 171 169 171 171 169 167 170 177 178 178 174 167 164 161 161 164 166 167 168 162 160 164 169 169 167 166 167 169 169 169 170 171 168 161 157 155 153 152 151 149 149 148 149 148 147 146 148 149 147 150 155 156 153 149 
35 98 97 95 98 103 103 101 98 89 89 89 86 79 70 61 52 49 46 49 55 60 66 66 65 61 63 61 62 62 66 74 79 84 84 87 88 90 96 99 102 106 106 104 100 98 102 100 98 100 102 105 108 113 114 113 115 119 121 125 125 125 126 127 131 136 138 139 141 140 139 139 139 137 136 135 134 132 130 129 130 128 125 123 122 123 123 121 118 120 119 120 122 124 123 124 126 128 126 124 120 113 105 97 89 83 82 80 79 81 86 95 104 108 105 103 104 103 108 111 110 114 110 105 97 89 86 84 85 86 83 86 88 87 86 83 82 82 82 79 70 66 62 60 59 57 57 58 55 56 54 51 50 43 39 41 46 44 41 42 46 50 52 51 50 51 52 55 55 50 40 35 33 34 30 33 33 31 31 30 29 30 29 27 30 30 30 34 36 40 43 40 37 34 39 37 36 37 37 37 32 28 25 26 30 31 35 40 40 43 43 41 43 41 35 38 35 43 54 64 74 87 101 109 112 109 105 95 76 59 41 30 23 24 35 46 55 60 61 60 57 55 57 58 57 60 65 61 57 54 47 46 48 56 64 71 74 80 80 73 63 50 44 41 43 44 46 45 41 35 33 31 28 31 32 36 38 40 40 28 23 22 23 29 38 44 47 48 50 49 46 44 34 32 34 35 49 58 62 55 40 25 12 9 17 20 31 25 0 16 44 47 39 34 36 35 34 32 31 34 36 34 27 22 21 23 24 24 23 23 28 19 12 14 12 2 0 6 27 38 41  103 103 101 103 106 105 104 102 98 96 95 90 84 76 71 67 64 62 64 76 89 101 111 117 117 113 110 103 93 81 79 83 84 87 89 87 88 94 98 99 101 100 101 100 102 108 108 108 110 118 126 132 141 151 156 163 171 178 185 184 183 185 186 188 190 190 191 192 192 189 187 188 188 187 186 186 187 187 186 185 184 185 183 182 182 184 184 183 185 186 188 190 192 192 194 197 200 198 195 194 189 182 177 168 157 155 156 154 157 160 164 170 177 178 178 184 184 190 194 191 195 197 190 182 174 173 171 171 168 166 163 161 158 153 149 147 146 145 144 140 137 138 141 143 143 146 147 149 150 146 143 141 136 134 135 136 140 138 141 142 143 142 141 137 135 131 131 130 123 119 117 116 114 111 113 115 115 114 112 113 111 111 109 108 108 111 114 113 115 118 117 115 113 111 111 110 113 114 112 113 110 110 109 114 118 120 122 122 124 125 123 123 121 117 117 117 119 123 130 140 148 161 169 172 169 164 155 137 125 114 107 108 110 114 123 130 132 130 129 126 122 126 123 118 117 113 111 107 104 105 108 115 124 134 148 154 157 154 148 139 125 117 112 113 115 111 110 113 110 108 110 108 108 108 110 116 119 117 114 112 113 113 116 119 119 119 119 119 118 116 119 117 116 121 123 129 131 132 125 115 107 100 100 107 112 118 113 99 102 116 117 115 111 111 116 118 118 117 118 117 110 104 103 103 105 105 103 102 103 102 97 98 98 99 97 89 93 104 110 109 107  104 104 102 104 109 111 111 112 109 106 103 100 94 89 85 83 83 83 85 94 104 110 119 127 130 128 127 126 117 106 98 98 99 102 103 103 104 106 109 109 111 112 109 109 110 109 110 110 112 119 126 132 140 149 155 161 167 173 176 178 178 180 181 183 186 187 188 189 190 190 188 186 184 184 184 182 181 180 180 181 180 180 178 180 179 179 180 182 182 182 183 184 184 187 188 189 189 191 194 198 198 197 195 194 190 188 183 181 177 176 177 178 180 181 181 184 185 186 188 187 189 190 189 187 185 185 184 183 184 183 182 183 185 185 184 182 180 178 175 169 169 170 173 177 179 179 180 181 183 183 181 180 179 175 175 175 176 176 178 178 178 179 179 175 173 171 169 169 168 164 161 161 160 160 161 161 160 159 157 154 154 154 155 156 156 158 159 161 163 165 163 161 160 161 162 165 165 163 163 163 161 162 162 163 166 166 165 167 167 167 167 168 168 167 165 166 168 171 176 183 191 200 204 204 203 200 192 180 173 167 164 162 162 166 171 175 177 176 174 173 172 169 167 166 162 159 158 156 156 157 159 166 176 181 185 190 190 189 185 178 172 168 166 163 161 160 159 158 160 159 159 158 157 157 159 162 165 166 167 169 169 167 168 169 169 169 169 170 169 169 169 167 168 169 172 178 180 179 172 166 162 160 161 164 167 171 168 162 161 166 168 164 165 166 168 170 168 169 170 166 160 156 153 151 152 150 148 148 149 150 149 149 149 149 150 147 150 157 159 155 149 
37 102 102 101 102 105 101 97 92 86 89 87 84 82 71 58 53 50 45 54 59 62 68 71 70 67 61 57 57 57 61 68 72 76 78 80 83 85 87 93 99 100 101 98 96 95 95 97 98 99 103 106 110 114 118 117 119 123 125 128 130 130 130 132 131 132 133 133 133 132 130 129 127 125 125 125 126 125 124 124 125 124 122 121 119 121 123 123 118 119 121 122 123 125 125 126 128 129 129 127 122 116 110 102 94 89 88 85 81 85 88 90 98 105 105 99 101 101 99 101 102 106 111 104 94 87 79 78 77 77 80 84 87 86 84 80 82 82 80 76 71 66 65 56 54 56 55 59 59 57 54 51 47 43 41 45 47 47 47 48 46 49 53 53 50 47 47 54 54 49 43 37 35 35 32 34 36 34 30 31 31 31 32 31 29 30 33 35 34 38 42 39 37 35 39 34 34 35 32 30 29 30 28 26 27 31 36 38 39 44 44 42 45 43 40 40 37 42 49 58 73 89 102 112 111 111 108 97 78 60 46 38 35 37 48 56 63 66 66 64 55 51 51 49 45 48 53 50 48 43 41 40 40 48 59 71 74 76 76 72 66 55 43 40 40 40 46 45 42 35 32 29 31 30 30 39 39 38 42 39 25 21 21 24 37 47 49 49 50 50 44 41 36 34 36 37 40 54 62 60 46 26 12 7 9 18 36 43 14 0 25 43 37 34 30 31 34 32 33 37 38 34 29 22 19 23 26 23 21 22 27 25 18 15 9 3 0 9 29 41 42  108 106 105 106 107 104 102 96 94 95 93 90 87 76 66 67 63 58 73 89 104 109 117 123 124 114 110 104 90 81 74 75 80 82 82 82 84 87 93 96 97 97 96 95 98 104 106 107 109 118 127 136 147 158 165 170 179 188 193 194 195 196 195 195 196 195 193 192 191 188 186 183 182 185 184 184 185 184 185 185 186 183 181 181 184 184 185 186 187 190 193 194 197 199 199 201 202 204 202 201 197 188 181 175 167 165 165 163 166 165 166 171 176 180 177 181 183 185 187 186 192 195 190 182 174 170 167 166 164 162 158 155 149 144 140 141 139 138 137 134 135 138 140 145 147 148 150 149 149 144 142 141 136 134 137 143 147 148 146 144 145 142 140 137 132 131 133 129 123 120 115 115 117 115 114 115 116 113 113 113 110 112 111 110 109 111 113 112 115 118 116 114 113 112 110 110 113 111 111 111 111 112 110 113 116 119 119 121 127 128 125 125 123 119 118 117 119 122 128 141 148 162 171 172 172 166 155 138 125 116 113 113 118 122 127 133 131 129 126 123 123 120 114 112 110 108 105 108 107 107 113 117 123 135 147 153 154 152 148 140 126 116 110 112 113 113 113 113 109 107 109 109 109 110 113 115 117 119 117 113 110 112 114 116 116 115 116 118 117 117 119 116 117 120 121 124 132 134 130 121 110 103 101 104 107 117 122 107 94 102 111 112 113 112 115 117 116 117 117 116 111 105 102 100 104 106 102 101 102 105 103 99 98 98 94 90 96 104 111 113 109  109 108 107 107 110 111 111 105 100 101 102 100 97 93 87 85 84 85 94 103 112 120 128 133 136 133 125 124 119 107 99 96 95 98 100 101 101 103 106 108 110 109 108 108 107 108 108 109 111 118 126 134 142 152 160 166 171 178 182 183 184 184 185 186 186 187 187 189 188 185 182 180 178 177 178 179 178 178 178 178 177 176 178 178 178 177 178 180 180 181 183 186 187 189 189 190 191 192 194 197 198 198 197 194 192 190 187 183 182 180 180 180 182 184 182 183 186 186 188 188 190 191 190 190 188 188 185 184 184 183 183 183 183 182 181 178 176 174 171 169 167 171 176 179 181 181 180 183 183 180 177 176 177 176 174 176 179 179 179 179 180 180 178 175 171 168 169 170 167 165 164 162 161 160 161 161 161 161 157 156 156 156 155 156 158 157 159 162 164 164 163 162 161 162 162 164 164 161 162 161 160 161 162 164 166 167 168 170 169 168 169 168 167 167 166 166 168 172 177 183 191 200 205 206 205 201 192 183 173 166 163 161 163 168 174 178 180 179 176 172 169 167 166 164 162 161 159 158 158 159 163 166 174 182 186 188 190 190 186 180 172 167 164 162 161 160 160 160 160 159 159 158 158 159 162 164 166 166 167 168 169 167 168 167 167 168 168 168 168 169 166 166 168 170 170 174 182 181 176 169 164 161 160 163 167 171 171 165 161 163 165 162 163 165 166 169 169 169 168 166 160 155 153 152 152 150 148 148 149 151 151 149 150 151 150 148 150 156 159 156 152 
35 106 103 102 102 101 100 96 88 84 86 83 78 77 71 56 49 44 46 55 60 65 70 72 74 67 60 54 51 49 52 59 62 64 70 74 76 78 82 90 95 95 96 96 94 91 90 93 94 96 100 105 109 113 120 121 124 126 130 132 133 134 133 135 135 132 131 129 125 126 123 122 121 118 117 120 121 121 121 120 121 121 121 120 117 116 116 118 121 122 124 125 125 127 127 127 129 128 129 126 122 120 115 110 101 93 91 92 86 89 93 89 93 98 100 92 95 95 95 94 97 103 108 108 99 88 78 70 71 71 72 77 82 83 84 84 82 80 77 73 69 62 60 56 54 51 54 60 62 60 56 53 46 44 46 45 46 48 50 50 52 50 50 52 49 46 48 53 50 45 41 38 36 34 33 34 37 34 33 34 31 35 35 33 34 32 32 36 36 34 39 37 35 36 39 35 34 34 30 27 27 28 26 26 30 33 36 40 40 44 48 45 44 45 42 40 38 41 47 60 76 88 102 113 117 118 114 102 86 66 48 40 44 54 62 69 75 76 72 68 60 50 46 43 40 37 37 35 34 30 31 34 36 41 55 67 74 76 76 72 68 59 49 40 38 39 43 44 43 37 32 27 27 30 34 39 37 37 39 43 31 22 22 22 33 45 48 48 48 47 42 37 34 35 37 42 43 45 60 57 50 34 12 7 7 20 38 49 36 4 6 28 36 35 30 32 33 30 36 41 40 32 27 21 17 20 23 20 17 19 23 23 16 17 6 1 1 12 29 41 43  111 109 106 104 104 103 96 92 90 92 91 90 82 75 69 65 63 65 80 99 110 118 124 128 127 115 107 99 88 82 74 67 73 76 76 77 79 84 89 93 93 94 95 93 96 100 104 105 108 116 126 138 151 161 170 179 186 193 197 199 200 200 201 202 200 199 196 192 189 186 184 179 178 180 182 183 183 183 183 183 183 182 180 179 179 180 181 184 188 191 192 195 200 201 201 202 204 205 205 204 199 192 185 179 175 173 172 169 169 170 167 170 176 178 173 174 180 182 183 187 190 193 193 185 174 168 163 158 156 153 150 144 138 134 133 134 131 132 129 127 131 136 141 146 149 148 152 151 150 145 143 139 136 138 141 144 148 151 149 147 146 144 140 135 131 131 131 129 124 121 119 116 114 113 113 114 115 113 112 113 117 116 112 113 111 110 113 112 113 114 114 113 113 113 111 114 113 111 109 110 111 111 112 115 119 121 121 123 125 127 125 124 124 121 116 116 120 122 126 139 151 162 172 175 176 171 161 148 128 116 115 117 124 130 135 140 139 133 129 125 120 116 112 107 104 105 104 106 107 109 115 118 122 134 147 151 154 154 147 141 131 118 112 110 113 116 114 112 109 107 107 108 109 113 115 116 118 118 118 115 112 113 112 112 115 113 113 114 113 116 116 115 117 118 122 124 126 133 133 126 114 104 102 103 106 115 123 116 95 91 106 112 113 112 113 114 116 118 118 116 110 105 103 104 106 106 101 100 100 101 102 98 99 99 93 93 99 106 113 114 110  112 111 109 108 109 111 106 101 99 99 100 99 96 93 88 86 84 90 100 112 122 130 135 140 140 133 124 122 117 108 100 95 95 95 97 96 97 100 102 105 106 106 105 103 104 105 106 107 110 116 126 136 145 154 163 170 176 181 185 186 187 188 188 188 188 186 186 185 183 180 179 176 175 174 175 176 176 176 176 176 174 174 175 174 174 174 174 176 177 178 181 184 185 186 190 191 192 192 193 194 196 195 196 194 193 190 188 186 185 185 183 183 184 185 185 184 185 186 187 188 190 191 190 191 190 186 185 183 183 183 181 180 179 179 176 175 174 173 170 169 170 174 178 179 181 180 181 183 182 176 173 172 173 176 175 176 180 181 181 181 180 178 176 173 170 168 168 168 166 167 165 164 164 162 163 162 162 161 158 159 159 157 157 158 160 159 159 160 162 162 163 163 162 162 161 162 162 162 161 161 161 161 163 165 167 166 167 170 172 171 169 169 167 165 166 167 168 171 180 185 193 201 206 209 206 203 194 185 173 165 162 164 167 172 177 179 179 179 177 173 169 165 165 163 161 161 160 160 160 161 165 167 172 179 185 188 188 189 187 182 175 169 165 163 161 160 161 161 161 159 159 159 161 162 163 166 168 168 167 168 167 167 166 167 167 167 166 166 167 167 165 167 167 167 168 170 176 182 180 173 167 161 159 161 166 171 172 168 161 157 160 161 160 163 166 168 169 169 168 165 160 155 154 153 152 154 152 149 150 152 152 150 151 154 151 150 153 157 159 158 152 
37 107 104 99 94 95 92 86 83 81 81 79 75 70 64 57 49 42 45 53 59 64 72 75 70 58 53 50 41 40 46 49 53 58 62 66 68 72 78 86 87 90 90 90 87 84 88 87 89 95 96 104 111 113 118 121 123 126 130 134 134 134 134 135 136 134 131 129 125 122 117 117 115 112 112 114 117 120 119 114 116 116 116 114 113 111 109 111 116 119 121 123 123 127 130 128 129 130 130 126 122 122 119 112 105 99 96 97 95 96 93 90 94 95 93 87 86 89 92 94 94 98 107 109 103 92 79 71 70 68 69 72 76 77 83 87 84 81 77 72 68 61 56 53 53 53 55 60 61 58 56 50 46 47 47 44 45 50 53 52 52 50 46 47 49 46 46 48 48 45 40 39 39 33 33 35 36 35 37 35 34 38 39 38 37 34 30 34 35 36 38 35 35 38 36 34 34 31 28 28 28 27 26 25 30 32 36 40 41 42 47 45 44 43 41 40 40 42 49 62 77 92 105 116 120 121 116 106 90 71 52 42 49 61 69 80 87 87 82 72 61 49 38 32 30 25 20 22 21 20 20 25 35 41 48 58 70 71 72 70 69 59 51 46 42 40 40 42 43 36 32 27 25 35 36 36 39 41 38 40 35 24 17 19 25 38 45 48 47 46 40 32 33 36 39 42 46 41 50 56 49 41 21 7 9 24 37 47 46 21 0 12 33 36 34 30 29 32 38 41 41 33 25 25 21 21 22 21 20 18 19 22 15 16 11 1 4 15 27 41 43  112 109 104 100 101 95 87 86 87 87 88 88 83 75 70 63 64 71 87 106 115 127 133 131 123 112 102 94 85 81 74 66 66 68 70 70 73 79 83 85 89 88 91 90 90 98 101 102 108 117 129 142 155 165 174 181 188 196 200 202 203 201 202 204 201 198 196 193 189 184 179 175 174 176 178 181 183 180 178 178 176 175 174 174 172 172 175 177 183 186 190 193 198 202 204 205 206 206 206 205 202 196 189 182 178 176 176 174 173 172 170 171 175 174 170 169 177 182 184 187 191 194 191 187 178 168 158 149 146 144 141 137 132 130 131 130 125 124 124 127 130 133 139 142 149 150 152 150 148 143 136 134 136 138 143 146 150 152 151 149 146 140 136 133 130 129 126 128 126 122 122 123 118 116 114 116 115 115 113 114 118 118 113 111 112 110 112 112 112 114 113 113 114 112 113 114 110 112 110 109 109 110 114 119 119 121 120 120 125 127 125 124 123 121 115 116 120 122 129 140 154 164 174 180 181 175 166 152 135 120 113 118 128 136 142 147 148 139 129 125 117 109 106 102 100 101 103 103 107 110 112 116 122 131 141 147 149 148 145 140 131 126 118 112 114 113 109 110 108 104 105 108 110 116 117 118 120 119 117 116 114 111 110 111 113 114 113 112 113 115 114 113 115 118 119 124 121 127 132 126 120 108 103 104 107 114 119 118 106 94 98 108 111 110 110 111 113 117 118 115 111 105 106 103 103 104 103 102 100 97 100 100 101 100 93 94 104 108 114 113 109  113 111 107 106 105 105 99 97 95 95 97 97 94 91 87 85 83 94 106 119 131 140 145 149 143 132 124 119 114 110 104 94 91 92 94 93 94 96 99 101 102 101 102 101 99 101 103 105 107 114 126 136 146 156 164 171 177 181 185 187 188 188 187 187 186 185 185 183 179 178 176 173 170 170 172 174 174 173 173 173 171 171 171 170 170 170 170 171 172 175 177 180 183 184 188 189 190 190 192 193 194 193 192 194 193 191 190 189 187 186 185 184 185 186 186 184 185 186 187 186 188 191 190 190 189 186 183 182 181 180 178 176 176 176 174 174 174 171 170 171 172 174 178 180 180 180 184 183 179 175 171 169 172 176 177 177 180 183 183 183 180 178 176 172 169 167 167 166 166 168 165 165 166 163 163 163 162 160 159 159 160 160 160 160 159 160 160 159 162 163 163 162 162 163 163 164 162 162 161 161 161 161 163 164 166 165 167 170 171 172 172 170 170 167 165 167 168 172 179 186 193 201 206 208 208 204 197 188 177 168 165 166 171 176 180 183 183 181 177 173 168 165 164 163 161 161 160 161 162 163 165 167 171 174 180 186 186 187 186 182 178 174 168 163 162 161 160 160 161 160 160 161 163 164 166 167 167 167 168 167 166 168 168 167 165 165 163 166 167 166 165 165 166 168 168 168 172 179 181 177 172 162 158 160 166 171 172 170 163 155 157 161 160 162 164 167 167 169 168 164 160 157 154 154 154 154 153 151 152 153 154 152 152 154 151 153 156 158 160 159 152 
41 103 99 94 87 83 82 78 75 75 73 70 71 64 61 52 41 41 43 49 54 60 65 70 59 47 45 41 35 36 37 42 46 47 54 60 61 65 71 78 81 80 81 81 81 80 84 82 84 89 96 103 108 114 118 119 121 125 129 130 132 133 133 133 131 132 128 125 120 117 114 111 107 107 108 109 114 115 110 110 113 109 106 104 106 104 101 106 108 110 112 116 119 124 126 127 130 131 132 130 127 127 124 117 112 108 104 104 100 100 99 95 96 95 92 88 83 82 86 93 96 101 108 107 104 98 86 75 71 70 70 69 73 75 78 83 84 83 78 71 65 60 56 54 52 53 59 61 59 57 52 50 51 50 49 44 46 50 51 52 52 50 47 46 48 44 41 44 44 41 40 41 40 37 35 34 37 37 40 39 39 41 40 39 38 33 32 33 35 36 37 38 38 37 35 33 31 32 29 28 28 26 26 26 29 28 32 35 42 42 44 44 44 43 40 38 40 43 54 66 77 93 107 115 120 120 115 108 93 77 61 52 52 65 76 84 90 92 92 80 69 58 41 28 23 16 11 13 11 12 15 19 29 36 41 49 59 67 68 65 65 62 58 52 44 44 45 43 41 39 34 33 30 33 35 39 42 41 37 35 37 33 22 22 27 35 44 44 46 47 41 33 31 35 40 43 47 45 40 47 48 43 33 11 11 27 37 44 44 34 4 2 25 32 32 30 31 34 39 41 38 34 27 25 21 22 23 24 21 18 13 18 20 15 12 3 10 19 26 40 43  109 106 99 97 95 89 82 80 82 81 82 83 79 75 66 63 69 79 95 111 123 131 133 123 113 103 93 85 81 80 73 63 61 65 66 67 69 74 77 80 79 80 82 84 87 93 96 98 105 118 130 143 155 167 175 180 188 196 201 203 204 204 204 204 202 198 195 191 185 180 174 168 167 171 172 176 179 176 174 174 171 169 167 166 164 162 167 173 176 179 185 189 194 200 203 205 207 209 208 207 205 201 195 188 183 180 180 176 176 178 176 176 175 175 174 171 173 176 183 187 193 196 191 184 176 168 154 142 139 138 136 139 135 132 131 130 128 122 124 129 131 132 137 140 147 150 150 146 147 139 131 135 137 136 142 150 150 150 151 148 143 138 136 132 127 129 129 127 124 124 125 124 120 116 115 116 116 116 114 114 115 118 116 113 111 110 110 112 112 113 112 111 115 113 114 115 108 107 111 110 111 114 118 119 115 120 121 121 123 127 127 123 123 118 117 116 118 125 134 144 157 168 178 182 184 180 172 159 142 128 120 123 133 141 146 150 151 144 134 126 117 109 103 103 100 98 100 101 105 106 112 116 118 122 131 137 142 141 141 135 131 128 120 114 114 112 114 113 109 106 107 109 112 115 118 119 119 118 116 116 112 112 110 112 110 113 112 112 113 113 112 114 114 117 120 122 122 121 126 127 125 116 105 105 110 113 115 116 115 96 88 104 109 108 107 109 111 115 114 113 108 107 106 104 103 104 104 103 104 102 102 102 99 100 97 99 106 108 113 112 102  110 108 104 100 99 96 93 92 91 92 94 94 90 89 85 84 86 98 113 129 141 146 153 152 142 133 123 115 113 111 105 97 90 88 89 90 90 93 94 97 98 98 97 97 95 97 99 101 105 113 124 135 145 155 163 170 175 179 184 186 186 187 187 186 185 184 182 179 177 174 171 169 166 165 168 171 171 172 170 169 168 169 168 166 164 165 164 165 166 169 172 177 180 183 185 187 188 189 190 190 190 190 191 192 192 191 192 190 187 186 185 183 184 185 185 185 186 187 187 185 187 189 189 187 187 184 181 180 178 178 177 176 174 175 174 174 172 171 173 174 175 176 178 179 180 180 183 182 176 173 171 170 173 176 177 178 182 185 183 183 182 178 175 172 168 166 165 166 166 167 167 168 165 165 164 163 161 160 159 159 162 162 162 160 159 160 159 159 160 162 163 164 163 165 165 165 164 162 160 161 161 162 164 166 166 166 168 171 172 172 172 170 169 167 166 167 169 173 178 186 194 201 205 206 207 203 198 190 180 170 166 167 172 178 182 185 186 184 178 172 167 164 162 162 160 158 159 161 161 163 165 166 169 173 176 181 186 183 182 183 182 178 174 168 165 160 159 159 159 159 160 160 164 164 167 168 168 168 167 167 166 167 168 166 165 164 164 166 166 166 164 164 167 169 168 170 171 170 176 178 176 167 159 159 165 169 170 170 166 160 156 160 160 161 162 161 166 168 167 163 160 158 155 154 153 153 155 152 151 153 154 153 152 153 152 155 158 158 159 158 153 
37 98 92 86 78 72 71 70 66 65 66 65 66 58 56 45 38 39 42 51 56 60 64 60 48 42 38 36 30 26 29 36 39 43 48 51 52 57 66 71 73 75 75 72 72 74 76 77 80 86 96 101 105 111 116 117 119 122 125 126 127 128 130 127 124 125 121 118 115 112 108 103 98 98 99 100 106 107 104 104 101 98 98 95 96 96 96 99 100 100 104 108 113 119 120 125 130 130 132 131 131 129 124 118 115 111 108 107 104 101 101 101 101 96 94 91 85 81 84 92 94 100 107 111 107 102 91 82 76 71 70 69 70 74 75 77 79 80 80 73 64 61 60 56 53 55 59 59 58 57 54 54 55 50 50 45 44 46 48 52 51 48 48 46 46 46 41 40 37 35 36 36 38 40 41 38 37 37 40 41 40 37 37 38 35 34 32 30 31 30 29 36 36 37 38 34 30 30 29 27 24 26 27 28 31 31 33 36 38 40 42 44 42 43 42 38 37 43 57 66 78 93 104 113 116 116 114 107 98 82 66 60 59 67 79 88 92 92 91 85 73 61 47 36 24 13 7 8 9 11 14 19 23 27 34 42 47 56 62 64 62 61 61 56 53 49 46 41 42 40 32 30 32 36 40 43 43 40 35 32 35 38 27 23 29 35 41 41 42 45 38 34 35 36 41 44 44 41 37 31 42 48 38 21 17 23 32 41 43 37 10 0 13 32 32 31 28 34 40 41 37 31 26 25 23 24 27 25 22 23 17 17 20 17 12 6 14 21 25 37 40  105 102 97 91 84 80 76 78 77 78 79 80 76 70 64 63 72 86 103 120 131 138 132 117 108 98 87 78 77 77 76 65 59 62 60 61 65 68 73 74 75 77 77 78 82 89 93 98 103 114 130 141 154 163 171 179 185 191 197 200 200 201 200 199 197 194 191 185 180 174 167 158 155 159 163 169 173 171 169 165 162 162 158 157 158 156 158 161 163 170 178 183 190 195 199 203 205 207 208 208 206 202 198 192 186 183 180 179 181 182 182 181 175 177 177 173 172 174 181 187 192 196 194 183 173 167 152 140 133 132 134 137 138 137 136 131 130 129 126 126 129 133 135 139 144 145 144 144 145 141 137 138 138 139 143 148 148 150 149 147 146 139 135 135 130 129 128 126 125 125 122 120 120 118 115 116 116 114 114 115 116 114 112 113 111 108 108 109 109 110 112 112 114 115 115 112 109 107 108 110 112 115 117 117 115 118 121 120 121 125 126 120 122 119 117 116 121 129 138 149 158 169 179 184 186 183 175 165 149 135 128 127 135 145 150 153 152 146 137 128 117 110 106 102 100 98 98 100 104 104 107 111 111 114 121 127 131 135 137 134 134 132 128 124 119 116 113 111 110 105 105 107 113 117 121 120 119 118 116 116 112 109 107 112 111 111 110 112 113 113 113 113 113 118 121 120 121 120 117 121 126 123 110 106 109 111 113 115 114 101 88 96 106 106 107 107 107 114 113 109 107 104 105 106 105 105 107 106 106 105 103 103 101 101 99 102 106 106 108 108 101  107 104 100 96 93 89 86 86 87 87 89 88 87 86 83 83 91 103 119 137 148 157 158 148 141 132 122 112 111 111 106 99 90 84 87 88 88 89 91 93 93 93 92 93 92 92 96 99 102 110 121 133 143 153 161 167 171 177 181 183 183 184 185 184 181 178 178 175 171 168 166 163 161 161 163 167 168 169 168 165 163 164 165 163 162 163 161 160 163 164 168 171 175 178 181 184 186 186 187 188 189 189 190 190 191 191 189 189 186 185 184 184 184 184 186 186 187 187 189 187 187 188 188 187 186 184 181 178 176 176 175 175 175 175 174 171 172 174 175 176 177 177 178 178 178 179 179 179 175 171 171 173 175 176 178 178 181 183 184 182 180 178 175 172 168 168 167 166 165 166 166 167 166 166 165 163 163 161 161 160 161 161 160 159 156 157 157 156 158 159 162 164 163 166 165 163 163 162 162 161 161 162 165 167 166 166 167 169 171 172 171 170 168 166 168 169 171 174 181 188 194 199 204 206 205 203 198 191 183 175 169 170 174 181 185 186 186 183 179 175 168 164 161 160 160 158 158 159 161 162 164 166 167 169 172 173 178 181 180 181 181 180 178 173 167 162 161 161 159 160 162 163 166 168 169 169 169 169 166 167 166 165 169 167 166 165 165 164 166 165 163 163 165 167 168 169 168 166 169 175 176 173 163 160 162 165 169 170 169 162 157 158 161 161 160 160 163 166 165 161 160 157 155 156 154 154 155 155 153 154 156 154 152 154 154 156 158 158 160 156 151 
31 90 85 78 69 65 60 57 59 59 61 58 59 55 47 38 38 41 46 51 54 63 69 59 52 44 37 33 27 23 28 31 32 35 41 45 51 56 59 60 65 68 69 66 64 67 70 72 76 83 88 94 104 107 112 113 115 117 120 122 122 122 123 121 119 116 113 110 107 105 96 89 85 85 89 94 96 96 95 95 91 88 90 86 87 85 88 91 91 94 98 102 107 112 116 121 126 125 128 131 130 128 126 120 115 113 111 108 105 103 103 101 104 101 97 94 87 87 89 91 92 98 107 115 113 109 99 91 82 75 72 70 69 71 70 70 76 77 74 72 67 61 59 56 57 57 57 55 54 59 57 49 52 51 47 46 45 43 46 49 49 51 51 47 46 43 37 37 35 33 32 31 35 39 39 39 39 39 38 38 39 38 36 36 33 31 29 28 27 26 31 34 36 38 38 32 28 31 29 26 26 28 28 30 30 31 31 35 41 41 42 43 45 45 43 41 41 46 58 67 76 89 99 106 114 113 112 106 98 83 71 63 62 69 77 85 91 89 87 82 69 57 45 39 30 19 11 9 9 11 11 13 20 24 27 37 45 50 54 60 61 62 64 59 57 54 51 45 42 37 33 33 36 40 44 44 44 43 39 33 36 36 31 24 26 34 38 40 43 40 36 34 33 35 40 42 41 38 34 25 24 40 39 29 23 18 24 32 38 35 16 0 2 24 32 31 28 35 41 41 37 28 25 24 25 24 26 25 22 24 23 20 20 17 13 12 17 23 26 33 38  102 99 92 85 79 74 68 72 75 77 77 76 74 70 64 64 74 90 107 123 137 147 138 124 110 100 88 74 75 74 73 68 62 57 58 59 61 63 66 66 70 73 72 73 75 84 90 94 102 112 126 140 150 158 167 174 180 187 194 196 195 196 195 194 191 188 183 178 172 165 156 146 142 148 156 160 163 165 163 156 151 152 149 148 149 150 153 155 158 165 172 178 183 188 193 199 201 203 205 203 202 201 197 191 188 184 180 179 181 182 185 187 182 180 182 178 175 177 182 186 190 195 194 187 176 167 153 138 130 130 132 135 137 137 138 136 134 135 132 126 126 132 137 140 145 141 142 143 143 139 137 139 137 138 144 146 143 144 145 144 143 141 136 137 134 131 127 125 126 124 122 120 119 118 115 114 117 115 115 116 115 118 114 111 110 107 107 106 106 108 112 114 113 115 114 112 111 111 110 110 113 117 116 116 117 116 118 120 123 124 124 123 122 120 118 119 123 130 139 150 160 172 180 184 186 184 177 168 154 140 133 130 136 147 152 154 153 147 136 125 117 112 109 106 104 100 98 96 100 104 103 103 105 110 116 122 124 128 132 134 135 136 133 131 126 120 115 111 109 107 108 115 118 120 123 122 119 117 114 115 114 112 110 112 112 112 113 112 110 111 112 110 113 116 118 117 118 119 113 114 123 124 117 110 107 108 110 112 110 106 92 88 103 108 109 103 106 112 111 109 106 102 104 107 106 104 106 108 107 107 106 104 104 102 102 105 107 106 104 105 100  105 101 94 89 85 84 83 82 83 82 84 86 83 82 81 82 92 108 127 141 155 165 161 153 144 135 124 112 109 107 106 102 93 86 84 83 85 87 87 90 89 88 88 87 88 90 93 96 99 108 120 130 139 150 156 162 167 173 177 180 180 180 181 180 178 175 172 170 167 163 160 157 154 155 158 162 165 166 166 163 160 159 159 160 160 160 160 161 162 163 165 168 171 174 176 180 185 184 185 186 187 187 187 186 187 185 185 185 182 183 182 181 183 184 185 185 185 185 188 188 186 186 187 186 184 182 181 179 177 175 175 175 175 175 175 174 176 176 175 175 176 175 176 179 178 179 178 176 177 176 175 176 176 176 177 177 179 180 182 180 178 178 177 173 170 168 168 166 167 166 165 165 165 165 166 164 163 163 162 161 160 159 159 157 156 156 157 157 158 160 162 163 164 164 164 163 162 161 161 160 160 162 165 164 164 166 166 166 168 171 171 168 169 166 167 168 171 175 183 188 192 198 202 206 205 199 197 193 186 178 173 173 177 181 185 187 186 184 180 173 167 163 160 158 157 155 156 158 159 160 160 162 161 164 168 170 173 177 180 181 180 180 180 176 172 169 165 163 161 160 163 165 168 169 169 170 168 168 168 166 166 166 167 167 166 167 165 162 165 165 163 162 164 166 167 166 164 163 163 168 175 175 169 162 160 164 166 169 167 163 158 156 160 162 160 159 163 164 164 161 160 157 155 158 157 155 156 156 155 155 156 156 152 155 157 159 160 158 158 154 149 
30 85 79 71 62 54 51 51 50 52 55 52 51 48 39 34 35 38 42 45 53 61 64 57 51 47 40 30 24 20 22 23 24 28 34 40 45 47 54 55 57 58 59 60 58 59 63 68 74 81 85 94 99 100 103 108 108 110 113 114 114 115 116 115 114 109 105 101 101 98 90 81 77 78 82 86 87 87 88 86 79 77 79 76 73 72 75 79 81 87 92 97 104 108 113 118 120 121 124 127 125 128 125 119 116 115 111 109 106 104 104 104 107 108 104 101 96 92 92 91 94 100 106 113 114 110 103 96 88 78 73 70 68 69 67 66 70 71 68 65 60 55 55 54 56 58 55 54 57 56 51 46 44 43 40 41 42 39 42 47 47 52 50 47 46 43 39 33 31 34 32 32 31 32 37 39 37 37 39 37 36 37 35 34 30 26 26 23 26 27 29 29 35 39 36 31 30 29 26 25 26 28 27 29 32 31 28 31 37 41 43 45 48 46 45 44 44 52 60 67 75 82 91 100 109 112 111 104 97 87 74 67 64 69 75 79 83 86 83 72 60 47 40 37 31 29 23 21 15 12 11 12 19 23 27 31 40 43 46 55 58 61 63 60 57 56 56 52 44 38 34 36 41 44 44 44 43 42 37 34 33 31 32 26 25 30 34 36 39 37 35 35 28 33 41 41 38 36 31 22 14 24 37 34 30 21 19 24 28 23 20 5 0 8 28 32 29 38 41 37 34 29 24 23 29 26 28 27 23 22 23 20 20 18 13 17 24 24 27 31 34  102 96 87 80 77 71 65 66 69 73 72 72 73 70 60 60 75 92 111 126 142 151 142 130 118 102 90 74 69 72 68 67 63 58 57 58 58 60 61 63 65 64 65 70 71 78 87 92 101 111 125 136 145 153 161 166 174 182 188 189 190 190 190 190 185 181 176 173 166 153 143 137 136 139 144 149 154 157 155 148 143 141 139 139 139 140 144 146 151 158 165 173 179 183 189 193 197 200 200 198 198 196 192 188 185 181 178 177 178 181 185 188 189 187 186 183 179 180 184 186 191 196 193 187 177 166 154 140 130 129 132 134 136 138 139 138 139 136 132 129 126 130 134 135 140 141 140 141 143 141 140 138 136 138 139 141 139 136 138 139 138 138 136 134 135 132 127 128 128 123 122 120 117 116 113 111 114 113 115 113 112 114 113 110 108 108 106 105 107 108 109 113 114 115 112 114 111 110 110 112 113 115 114 116 118 118 117 121 122 122 124 123 121 119 120 119 124 131 141 151 159 170 177 184 188 183 177 168 157 146 137 132 138 145 149 152 151 145 134 123 118 113 110 109 108 102 98 97 96 100 102 105 106 107 111 116 121 122 128 132 134 136 132 132 129 125 119 116 109 110 113 118 123 124 122 121 119 117 117 115 115 113 108 110 112 110 111 113 109 109 112 110 113 114 117 116 116 119 112 109 115 123 121 113 107 107 108 109 109 111 97 84 95 108 108 102 107 108 107 109 105 103 105 105 105 107 107 106 105 107 105 105 104 104 106 106 108 110 106 103 100  100 98 91 83 80 80 79 79 79 79 83 84 80 79 79 82 93 109 129 145 160 170 167 158 147 138 125 113 107 107 107 105 99 90 81 82 83 85 84 86 86 86 86 83 85 87 89 94 97 105 118 128 136 145 151 156 162 167 172 175 176 175 176 175 172 169 166 163 161 158 153 149 147 149 153 158 162 163 164 160 155 153 150 151 154 155 157 158 160 163 166 168 171 172 174 178 181 181 182 182 182 182 182 180 181 181 181 180 179 179 178 180 181 181 184 182 183 184 186 186 186 186 186 185 184 181 179 177 177 176 175 175 174 175 177 178 177 177 176 177 176 174 174 176 177 176 177 179 180 180 179 178 177 176 177 178 178 177 178 177 176 178 177 174 172 167 167 166 165 164 164 164 166 165 165 165 162 161 160 160 159 158 158 156 157 157 157 157 157 161 161 163 164 165 164 164 162 162 161 158 160 164 165 164 163 165 167 167 169 170 170 167 168 167 168 168 172 176 183 188 191 196 199 204 205 201 198 193 187 181 176 174 177 180 182 183 183 181 178 170 165 164 161 160 157 155 155 156 156 156 157 158 159 163 166 167 169 170 174 180 181 180 181 179 178 176 171 167 162 162 165 167 168 167 168 168 167 168 167 166 166 165 166 166 166 168 166 164 163 162 161 161 162 164 165 163 162 160 162 164 171 176 171 165 162 162 165 166 164 165 160 155 156 160 159 159 161 164 164 161 159 156 156 159 158 157 157 158 157 156 157 157 156 157 160 159 160 160 155 153 149 
32 79 73 64 55 48 45 45 45 45 48 49 45 45 40 34 31 32 40 47 56 63 64 58 53 50 45 31 23 18 20 19 20 23 27 36 40 40 47 49 50 54 52 51 52 53 52 59 72 78 84 92 95 97 100 104 106 106 107 108 108 108 108 109 109 103 98 95 93 90 83 75 71 69 71 75 76 77 79 76 71 66 64 62 62 63 63 67 70 76 84 90 96 101 109 112 114 117 120 122 122 123 120 115 111 110 110 107 104 104 107 108 108 112 112 106 103 98 96 95 94 97 103 106 110 107 99 94 91 82 74 70 68 66 64 63 60 61 62 54 49 51 53 55 54 52 58 58 54 53 51 45 39 39 37 39 40 36 38 42 43 45 45 47 46 49 48 34 32 33 31 29 27 31 36 38 37 37 40 40 35 37 35 34 31 32 30 24 23 27 31 31 34 37 37 33 32 31 26 23 26 25 28 30 31 30 29 32 33 37 43 43 43 43 44 43 45 54 59 65 73 77 82 92 104 110 108 105 97 87 78 71 63 63 69 73 74 74 71 62 53 45 40 38 37 35 31 28 26 23 21 18 21 28 31 33 33 36 38 40 46 55 59 59 58 61 58 55 50 44 39 39 41 40 46 44 41 38 35 31 28 29 31 29 25 27 33 32 30 29 31 31 28 33 39 39 36 32 30 20 16 14 28 37 30 25 20 21 19 16 20 13 0 0 19 27 31 39 40 38 33 30 23 23 28 29 26 24 25 23 27 25 24 23 16 20 26 24 30 31 29  98 92 85 80 75 72 67 66 67 70 72 69 70 66 59 56 73 93 114 130 145 154 148 137 122 105 88 74 66 66 65 65 62 59 53 51 55 59 60 58 60 57 61 63 66 73 83 92 98 107 121 131 139 147 155 162 168 174 181 184 182 182 184 183 179 172 165 165 156 143 135 130 128 130 137 141 144 147 146 142 134 127 125 125 125 127 134 138 143 148 157 166 172 178 185 188 192 195 193 193 193 190 184 181 179 175 172 173 175 180 184 186 191 192 188 186 183 183 183 185 188 191 189 185 176 165 153 143 132 126 130 135 136 139 141 138 136 135 129 124 126 131 131 131 135 140 143 144 147 144 140 138 139 139 135 135 135 135 134 134 135 136 135 137 142 139 131 129 126 121 120 117 115 115 113 113 113 113 113 111 110 114 112 111 111 110 106 104 107 108 110 113 117 114 114 116 113 109 108 110 109 115 114 114 116 117 117 118 120 124 123 119 118 119 118 121 126 131 140 151 155 162 171 180 186 185 178 168 160 151 140 133 135 140 143 145 144 139 130 122 117 112 113 113 110 107 104 105 103 103 104 107 108 108 110 111 116 118 119 123 127 131 131 132 132 131 126 120 114 113 118 120 122 122 122 119 116 115 117 114 112 111 110 108 111 110 109 109 107 106 107 110 111 112 117 115 117 118 109 107 108 117 119 113 109 104 105 108 109 111 105 87 85 100 107 105 106 106 106 108 105 103 105 104 106 106 107 105 104 108 108 108 105 104 105 107 107 110 104 100 100  99 92 87 83 82 79 75 75 75 78 78 79 76 74 75 79 92 109 128 147 162 174 173 163 152 142 128 113 104 105 106 106 102 95 85 81 81 82 82 84 85 84 83 80 82 83 87 90 95 101 113 124 131 138 146 153 158 163 168 170 169 170 171 170 168 163 159 156 154 152 146 141 141 144 149 154 157 159 160 156 149 145 142 144 147 149 150 154 156 161 164 167 170 173 175 178 179 179 178 178 179 178 178 177 177 177 177 177 177 175 175 177 180 180 180 180 180 182 184 185 186 185 185 184 183 181 181 179 177 176 173 175 175 176 177 178 178 176 176 176 173 172 174 175 174 177 181 184 183 182 180 180 179 177 177 178 175 172 174 175 176 177 175 174 173 168 167 166 163 164 162 163 165 164 163 164 163 162 161 160 159 159 157 158 157 157 156 156 156 158 159 162 164 165 165 164 162 160 160 161 162 164 164 164 163 165 165 167 168 168 168 167 168 168 167 169 172 176 183 185 188 192 198 203 205 204 200 194 189 184 178 175 175 178 178 177 178 178 175 170 167 168 164 162 159 157 155 154 154 155 158 158 160 164 166 166 168 169 170 174 180 180 180 181 181 180 178 173 168 164 166 168 169 168 168 167 165 167 168 166 166 164 163 164 165 168 166 165 163 160 160 159 162 163 162 162 160 159 160 161 166 175 175 169 167 164 164 164 163 165 162 155 154 158 159 159 162 165 164 160 157 155 156 159 160 158 158 159 158 158 159 158 156 158 162 160 159 159 153 152 150 
32 73 68 61 52 46 39 37 40 41 41 43 42 39 36 32 29 32 39 48 56 65 68 65 58 53 48 33 22 18 18 20 19 20 24 32 36 38 42 45 44 44 44 43 42 45 49 54 62 70 79 87 90 94 96 98 101 102 101 99 99 99 100 100 100 97 92 87 79 79 74 67 62 57 60 66 65 67 68 67 64 57 55 53 53 52 53 57 62 68 74 81 88 94 101 104 108 112 114 116 117 116 113 110 108 105 104 103 100 101 106 108 111 115 114 111 105 98 95 93 92 92 98 98 104 104 94 89 91 88 80 70 66 62 57 57 52 53 50 44 44 45 44 48 53 55 58 54 55 51 44 42 39 41 44 44 40 39 42 42 42 42 44 50 53 55 52 45 36 32 31 31 31 31 31 33 34 32 34 37 36 36 34 33 33 33 29 27 24 22 29 34 36 36 37 36 35 30 28 27 28 26 28 31 33 31 30 34 35 37 40 38 38 42 44 43 46 53 57 65 69 73 76 84 96 103 104 103 96 87 76 68 59 56 61 64 63 62 59 55 51 45 43 44 47 42 39 33 30 30 28 23 23 26 28 29 30 33 34 35 36 45 52 57 57 57 58 58 56 54 49 44 43 42 44 43 41 38 33 31 31 29 31 30 24 24 29 32 32 29 26 24 28 33 37 35 31 34 32 22 18 20 22 38 36 30 27 15 12 17 25 26 3 0 9 24 35 41 42 38 33 30 24 27 31 32 28 25 24 26 36 34 35 28 21 22 25 25 31 27 28  98 93 87 84 77 70 68 67 70 71 70 69 69 62 55 54 68 92 115 132 149 159 157 143 126 111 89 71 64 63 66 69 67 62 56 51 55 56 56 54 57 55 55 58 62 70 79 89 95 104 116 124 132 142 149 154 159 164 169 172 170 173 174 173 169 164 154 148 142 134 126 118 116 123 130 135 138 140 138 132 120 114 110 111 112 115 122 127 136 141 149 157 164 171 177 182 186 188 188 188 186 182 176 174 173 169 163 165 169 175 179 185 191 193 188 186 184 181 180 182 183 185 184 182 175 167 154 144 136 128 127 131 136 139 140 139 135 131 127 122 124 125 129 131 138 142 147 148 148 142 138 142 139 139 137 134 135 135 132 131 134 135 135 143 149 144 132 125 123 118 119 116 114 112 112 113 114 112 111 110 113 112 111 111 113 107 107 107 108 109 112 116 118 116 116 116 112 110 110 109 112 118 117 114 114 114 117 116 119 120 118 117 119 118 116 120 126 131 140 149 150 155 164 173 179 182 178 170 161 151 142 133 133 136 137 137 135 130 128 124 118 116 117 119 116 111 109 109 107 106 106 107 107 109 111 111 113 115 115 117 121 124 128 130 131 134 133 129 127 122 118 122 123 122 121 117 117 115 114 114 111 107 109 106 109 111 113 111 105 105 106 108 111 112 115 114 114 116 111 108 109 111 117 118 115 110 105 103 106 109 112 94 81 93 106 106 108 109 109 106 102 101 104 107 109 108 106 104 106 114 114 114 108 106 107 108 106 109 104 98 101  93 89 86 81 79 78 74 72 76 77 75 76 76 74 71 72 90 109 128 148 165 178 176 168 159 145 130 114 103 102 104 104 103 100 90 80 77 80 78 82 82 80 80 79 78 80 83 88 94 100 109 118 125 131 140 146 151 155 160 161 161 162 163 162 160 156 152 149 147 144 138 134 137 140 145 149 152 155 155 153 145 140 137 136 138 142 146 149 152 157 160 165 169 171 174 177 178 180 178 177 177 176 174 173 172 171 172 174 173 171 173 175 177 178 178 178 179 180 182 182 183 183 183 184 184 182 181 178 175 174 174 175 178 178 178 178 177 174 173 173 171 171 172 173 174 179 183 184 184 183 181 181 180 179 179 176 172 171 173 174 173 174 174 175 173 170 168 164 162 162 161 161 163 163 162 162 163 162 161 159 159 158 158 157 155 155 156 157 156 158 160 161 163 166 165 166 163 161 160 160 161 161 161 163 162 163 164 165 167 167 168 166 166 167 168 170 173 178 181 184 185 189 195 200 203 203 201 195 189 185 180 176 174 174 174 174 174 174 172 170 167 166 165 164 161 160 157 156 155 155 157 160 161 162 162 165 166 168 167 167 173 176 179 181 181 180 181 180 176 170 168 169 169 167 168 167 167 166 166 165 165 163 160 163 165 165 166 164 160 159 159 160 162 162 161 162 159 157 157 160 163 168 177 174 170 166 163 162 162 164 165 159 154 155 159 162 164 164 161 159 158 154 155 159 159 158 158 158 158 160 159 159 157 159 162 160 159 159 153 150 149 
32 67 63 54 45 41 40 34 37 42 42 42 41 38 32 27 24 29 37 45 55 65 71 70 63 57 54 37 26 20 15 17 19 18 22 27 30 35 38 37 35 36 37 37 37 38 43 52 58 67 73 78 85 89 90 90 91 92 91 88 90 90 89 91 89 87 85 78 71 68 62 55 52 50 53 58 59 61 61 59 55 46 45 46 46 47 48 50 52 61 66 73 82 87 93 97 103 106 106 109 110 109 108 105 103 99 96 94 94 95 101 103 106 112 113 113 109 100 93 89 88 90 91 91 96 99 94 90 87 85 78 73 67 58 53 51 46 44 43 38 36 37 40 46 49 52 57 53 54 47 41 41 39 42 47 44 40 42 43 42 40 40 43 45 52 56 48 38 30 29 28 28 31 29 31 31 31 32 34 36 37 36 37 34 30 29 27 28 30 28 27 29 31 35 36 38 34 29 28 29 32 29 30 31 28 28 30 31 34 35 36 36 36 44 46 44 49 56 58 64 67 68 71 77 86 95 99 100 94 89 78 67 58 51 53 55 53 50 49 48 45 44 50 51 52 49 44 35 32 33 33 34 34 32 28 25 29 28 28 32 30 30 38 48 53 55 58 62 64 65 59 52 47 46 43 41 41 38 35 34 30 30 31 30 26 21 27 31 31 28 23 23 28 32 32 34 32 33 30 20 15 22 24 29 41 37 30 18 12 18 25 28 13 0 1 20 39 43 40 37 36 28 26 28 29 30 30 28 23 25 42 43 39 33 25 25 25 27 30 28 25  96 93 88 82 80 73 67 67 68 69 69 69 68 61 52 54 66 87 110 129 148 160 158 148 133 115 95 72 59 59 63 64 66 66 60 54 54 51 53 55 53 52 54 56 59 68 78 86 94 100 110 119 125 133 139 143 148 152 154 156 158 162 162 161 159 153 144 136 128 122 115 107 105 114 123 128 130 132 128 118 107 100 100 104 105 104 109 115 124 132 142 149 156 163 169 174 178 180 182 180 179 175 171 167 161 160 157 156 158 164 170 177 183 187 187 185 180 178 175 174 176 176 177 176 171 168 157 144 136 130 127 129 133 134 134 135 134 126 123 120 120 120 125 131 138 144 146 146 144 140 139 140 141 140 136 132 131 132 130 130 130 132 134 142 144 137 127 119 119 116 114 112 112 111 110 111 113 109 107 111 114 113 111 106 109 109 111 110 109 111 113 114 116 115 116 114 112 111 111 111 114 116 115 112 112 113 115 115 116 117 116 115 119 116 115 121 129 132 138 145 148 152 159 166 172 176 176 171 164 153 145 135 134 133 131 131 129 125 125 122 118 123 123 121 118 113 110 109 110 109 110 109 106 107 109 107 107 110 113 113 112 116 122 127 130 132 134 136 139 133 127 124 122 121 119 116 118 115 113 112 110 107 109 108 107 111 110 111 106 107 107 109 112 112 114 114 112 110 108 105 109 110 113 122 121 115 105 104 107 109 112 105 86 85 100 108 112 111 110 107 103 103 106 109 109 105 103 104 106 117 120 119 115 108 110 108 106 107 104 99 100  90 87 83 80 76 76 74 73 73 73 75 75 73 71 66 69 87 107 128 148 165 178 180 171 162 147 129 114 99 98 102 104 104 102 93 84 78 78 78 79 79 76 76 76 76 78 83 87 92 97 107 113 120 128 134 140 143 147 152 153 153 154 156 155 153 149 145 142 138 135 132 131 132 138 144 148 151 151 151 147 138 132 131 132 135 138 140 143 147 150 155 161 166 169 172 174 175 177 178 176 174 173 172 170 168 168 169 169 169 169 172 173 174 175 175 175 176 179 180 180 181 183 183 182 183 182 180 178 176 178 177 176 177 178 178 178 177 174 171 170 169 170 172 174 177 181 183 184 184 183 182 180 178 179 176 173 171 170 172 171 170 172 173 174 172 170 165 162 160 159 160 159 161 162 160 161 162 163 161 158 158 158 158 156 155 152 155 157 158 159 161 162 162 165 165 165 164 163 162 160 161 160 160 161 162 163 163 164 166 166 167 164 165 166 167 170 175 178 181 183 184 187 192 194 200 200 200 198 192 186 180 176 172 172 172 171 171 171 170 169 167 168 168 167 165 161 158 157 156 156 158 159 161 163 162 164 166 167 165 164 165 169 173 178 179 180 182 183 183 179 175 169 169 170 166 167 167 165 164 164 164 163 162 162 166 166 166 165 161 157 157 160 163 161 160 162 161 157 155 159 163 165 172 175 172 170 165 163 164 163 166 162 157 153 158 164 164 163 160 159 155 154 156 160 161 160 158 157 158 162 159 160 161 162 162 160 159 158 153 149 150 
35 61 54 47 42 39 41 36 36 38 42 41 35 33 29 21 19 24 32 40 55 65 71 73 68 62 55 42 31 20 13 13 16 17 17 21 24 28 30 31 30 31 33 34 34 35 37 45 55 66 71 75 78 80 83 81 84 83 81 77 78 78 80 85 83 79 76 70 65 59 53 49 49 50 54 61 63 61 58 53 49 43 40 39 40 42 42 44 50 55 60 65 72 82 90 95 95 98 103 102 103 100 99 100 96 96 89 85 88 89 94 99 101 105 108 111 110 103 94 88 85 84 83 83 90 91 88 88 84 80 75 71 67 63 57 47 39 36 35 31 27 29 37 42 42 45 50 51 45 43 40 39 39 43 43 38 39 40 37 39 41 40 41 41 43 50 42 29 25 26 27 27 27 27 29 28 29 31 33 31 31 33 33 32 33 34 31 29 31 32 33 30 30 33 35 36 34 30 32 30 33 34 32 33 28 26 32 33 31 32 33 37 38 44 46 48 50 53 56 60 66 67 71 73 77 88 96 100 96 90 77 66 55 49 48 45 44 44 45 45 45 45 49 54 55 53 47 39 34 32 32 33 35 35 31 24 24 25 25 28 26 22 23 33 45 53 60 63 70 73 69 65 58 48 39 42 39 35 36 32 29 30 29 29 25 21 22 27 26 26 24 22 28 31 33 35 35 33 30 23 18 20 27 25 30 38 32 27 18 15 21 25 23 4 0 12 40 45 40 35 36 30 27 28 29 32 32 28 28 27 41 53 45 41 29 25 29 30 30 27 22  95 93 88 83 79 75 70 67 69 68 69 68 66 59 50 51 62 81 106 127 145 157 161 153 138 117 98 76 57 57 60 59 63 64 61 58 52 48 51 51 49 50 52 53 55 64 76 85 94 98 107 113 120 125 129 136 139 140 137 139 144 148 150 149 147 142 133 127 119 112 106 104 103 112 125 132 129 128 124 112 100 91 89 93 95 98 102 108 116 124 132 140 147 154 162 164 168 172 173 173 169 168 166 161 157 154 149 147 150 153 159 166 172 177 181 181 177 174 170 167 168 169 169 170 166 166 160 149 140 134 130 128 131 133 130 127 128 124 118 113 115 121 125 132 137 140 142 140 139 140 140 138 141 136 134 131 131 129 129 130 128 130 129 129 137 132 120 114 114 114 113 108 109 108 108 109 110 110 109 110 111 109 109 109 109 110 109 110 110 113 114 111 114 115 114 112 112 112 111 112 115 115 112 111 111 113 114 114 115 115 115 115 116 119 119 122 129 132 136 142 146 150 153 159 164 170 172 170 165 153 145 136 134 132 129 129 124 123 124 121 119 123 125 122 120 117 111 107 108 109 108 108 110 108 106 103 106 105 107 109 105 105 111 120 126 132 138 146 149 148 140 129 122 118 118 116 117 115 112 112 111 111 110 107 108 110 109 109 108 106 106 110 116 113 112 112 112 110 106 105 108 107 111 119 123 118 112 107 106 109 112 111 93 80 94 111 113 111 109 105 104 105 106 108 111 106 105 106 103 114 125 120 117 111 109 109 105 105 102 95 98  87 84 80 78 76 73 73 72 72 73 74 74 72 67 63 65 83 103 123 144 160 175 182 175 164 151 131 113 97 96 101 103 104 104 100 91 83 79 77 78 78 75 73 73 75 77 82 83 89 95 101 109 117 122 128 133 137 140 143 144 145 146 147 148 146 142 138 135 131 128 127 126 128 138 146 151 152 150 148 144 131 124 123 124 127 132 135 138 143 145 150 155 160 164 167 170 173 172 174 174 173 170 170 170 169 167 166 166 167 167 170 172 172 171 171 172 173 175 178 179 179 180 182 181 180 181 181 181 181 181 181 181 179 177 177 177 175 174 171 169 168 169 173 176 179 181 183 184 183 183 181 179 177 175 172 170 170 169 167 170 170 171 171 171 173 170 165 162 159 159 159 158 159 159 159 160 161 160 159 159 159 157 156 155 154 153 154 156 158 158 161 162 163 164 164 164 163 164 164 162 162 162 161 160 161 162 163 163 165 166 165 164 167 166 166 172 176 178 181 181 182 185 190 193 198 200 199 198 194 188 180 175 173 170 169 169 169 168 168 168 166 168 169 168 167 161 158 157 156 156 158 158 159 161 161 162 164 165 164 162 162 163 166 171 177 180 183 185 187 185 181 173 170 169 165 167 167 165 164 164 165 164 161 161 163 166 165 166 164 157 157 161 161 161 160 161 160 159 157 157 161 165 166 173 175 172 167 162 162 163 165 164 159 154 158 166 166 163 161 157 154 156 158 160 162 160 157 157 158 163 162 162 164 162 161 160 158 155 153 149 151 
32 53 50 45 42 36 36 36 34 37 37 34 31 28 24 19 18 22 25 36 50 63 73 76 73 66 55 43 31 18 14 14 13 13 15 22 23 22 26 29 28 30 29 27 30 31 34 44 55 62 67 69 72 75 77 76 76 76 75 71 68 67 75 78 73 70 67 64 56 51 49 48 50 50 54 60 62 61 58 52 48 46 43 41 37 37 39 39 46 50 54 62 68 76 80 86 92 96 93 95 95 94 93 92 91 89 86 82 80 83 87 89 93 96 100 106 106 98 93 87 81 78 77 78 87 85 82 81 78 73 73 67 62 64 57 48 41 32 27 23 20 24 30 36 39 43 46 46 41 38 36 39 39 43 44 36 38 39 40 39 42 40 37 39 39 39 38 27 22 25 28 29 29 26 29 31 31 29 29 29 26 30 32 35 36 35 36 34 33 35 37 34 34 34 34 31 34 33 36 36 37 38 35 35 31 30 33 32 31 32 35 34 37 42 44 48 54 55 58 60 59 65 71 72 76 87 95 101 100 91 80 64 53 45 43 42 36 37 43 45 48 49 48 51 53 54 47 39 35 31 33 32 33 32 32 32 28 25 25 25 22 18 16 18 34 46 58 66 73 76 78 76 68 56 45 41 39 36 36 33 32 29 27 25 23 18 18 23 25 26 23 23 28 31 33 35 33 31 32 25 21 23 24 26 22 32 31 27 23 17 19 23 27 15 0 5 33 45 44 36 32 28 25 29 32 32 32 31 31 30 35 53 49 42 32 28 31 30 29 26 24  93 91 88 82 78 73 72 71 70 67 66 66 63 59 51 50 58 77 99 122 140 155 163 154 140 122 100 76 57 51 55 60 66 62 61 60 53 51 51 50 50 50 48 51 53 65 73 82 89 95 101 106 112 120 122 125 126 129 125 127 134 138 139 136 134 129 123 117 112 108 104 101 101 117 129 133 134 130 121 112 101 91 87 85 88 88 91 98 107 116 123 133 140 145 151 157 161 163 164 163 160 160 157 155 154 151 143 141 143 145 151 157 162 164 170 174 172 166 163 162 162 162 163 166 164 164 158 152 143 140 135 132 135 135 130 127 124 120 115 112 117 125 130 132 137 139 139 141 139 136 137 135 135 134 131 129 127 127 128 130 126 126 128 124 125 127 117 113 112 114 112 105 105 107 110 111 109 107 107 108 108 106 109 112 112 112 110 111 115 115 114 113 113 114 114 114 113 112 112 115 115 117 116 114 113 114 115 115 113 111 113 116 116 117 119 121 127 132 135 136 140 146 150 153 161 168 172 170 163 156 147 136 132 130 127 125 121 120 122 121 119 119 121 123 120 115 108 104 107 108 108 106 109 107 107 106 106 103 101 104 104 100 101 111 119 133 143 151 157 157 150 139 128 119 117 118 117 116 113 112 110 110 109 107 106 109 111 111 110 104 104 111 116 116 112 110 109 110 106 107 109 108 108 108 118 120 115 106 104 107 109 112 104 83 89 109 116 111 105 104 103 102 105 106 106 105 107 107 104 110 122 122 118 111 109 108 102 103 101 94 98  82 82 80 77 75 73 72 72 72 71 73 73 70 66 62 60 74 96 118 140 158 173 183 178 167 151 132 110 93 92 97 101 102 102 103 98 88 80 79 77 78 76 73 73 72 74 79 82 86 93 98 105 112 117 121 126 131 133 132 134 137 140 142 142 140 137 133 128 126 125 122 124 129 139 148 156 156 154 149 147 137 125 121 119 118 120 125 131 136 141 144 147 152 158 161 165 168 170 170 169 169 169 168 167 166 167 169 169 167 168 168 169 169 168 168 169 169 172 174 175 175 176 178 178 179 181 183 183 184 182 182 183 180 180 179 176 172 173 170 167 170 172 174 177 180 181 182 182 182 181 179 176 173 170 170 168 167 165 165 169 170 170 170 168 169 171 167 162 162 159 156 155 156 157 159 160 161 159 157 158 157 156 156 157 157 157 156 156 159 161 163 161 162 164 164 164 164 163 162 163 163 163 162 161 160 161 163 163 164 165 165 165 167 166 165 172 175 178 179 182 183 186 189 191 195 199 201 200 196 190 182 175 172 170 168 167 166 166 168 167 164 163 164 165 166 163 159 157 156 157 157 158 159 160 160 161 160 161 162 161 160 160 160 165 172 177 181 186 188 188 186 179 173 168 165 165 166 166 166 164 165 163 160 158 160 164 164 164 164 161 161 162 162 161 161 160 160 159 157 157 159 162 163 168 175 172 169 165 161 161 162 164 161 155 158 165 165 162 161 157 153 156 156 158 160 158 156 157 156 160 165 163 164 164 162 161 157 155 152 150 152 
32 46 48 44 38 40 39 35 34 33 32 30 29 27 26 20 16 19 25 36 50 63 73 79 76 66 57 47 34 23 15 16 13 13 16 15 20 23 22 24 27 26 24 27 30 31 36 43 51 56 63 64 66 67 66 71 69 69 69 62 61 62 66 68 66 60 58 52 48 48 46 48 49 50 54 59 58 56 55 52 49 45 44 41 37 36 36 33 38 46 48 56 62 68 76 84 87 90 91 90 90 88 87 85 81 80 78 78 79 79 82 83 85 88 89 94 98 94 89 83 82 80 74 71 79 81 77 76 73 69 67 61 57 57 52 42 36 28 19 16 13 20 28 32 37 39 40 40 41 37 33 36 39 42 43 39 40 39 39 36 40 36 33 36 39 37 32 26 23 22 28 31 28 28 28 31 31 27 26 30 29 31 34 39 39 36 37 40 41 41 40 37 38 39 33 34 37 35 36 40 38 39 38 36 35 34 33 32 29 31 33 37 41 45 42 45 56 59 62 61 59 66 71 75 80 88 95 103 100 92 82 66 52 41 38 37 31 33 40 46 52 52 52 53 54 52 46 39 35 32 32 31 31 32 33 35 35 30 24 23 22 16 14 16 25 37 52 68 77 79 82 80 73 62 51 43 42 38 37 33 32 29 30 26 23 20 17 21 27 27 27 27 29 34 33 31 32 31 34 30 21 19 24 26 19 19 26 29 24 19 21 24 27 26 4 0 19 41 43 39 31 28 31 32 30 30 31 31 32 32 34 49 51 45 38 31 34 34 31 27 26  91 88 86 82 82 80 75 71 70 69 66 64 61 59 51 48 51 71 95 118 137 154 161 156 142 123 103 80 58 51 55 60 61 66 64 62 58 53 51 51 50 49 51 51 56 66 72 81 85 91 97 103 105 111 116 114 118 118 116 119 125 127 127 125 122 119 116 111 107 104 103 103 108 120 131 134 136 136 129 121 111 98 92 88 85 82 86 92 99 105 115 126 132 138 144 149 154 157 156 155 153 153 151 150 147 142 139 138 137 139 141 146 152 154 157 161 160 157 157 159 160 158 158 160 162 163 158 151 145 140 135 134 137 138 132 129 121 116 115 114 120 128 131 134 136 136 136 140 137 133 132 130 131 130 129 129 125 126 125 126 126 126 125 122 123 120 117 115 112 113 111 108 106 106 109 108 109 108 108 106 108 110 110 113 115 115 116 117 117 116 117 116 115 115 115 117 116 117 118 118 116 117 115 113 115 116 117 113 112 112 114 117 117 115 116 122 126 132 135 131 134 141 147 151 158 165 171 169 163 157 147 138 130 128 123 118 116 121 123 121 120 120 121 122 118 114 106 105 104 107 107 107 107 105 105 107 108 106 104 102 102 99 98 102 114 126 142 153 159 158 156 147 134 122 116 119 117 117 112 108 109 107 108 106 106 107 109 109 108 108 109 111 114 114 111 110 109 111 107 105 106 109 107 102 107 111 114 109 105 104 105 109 109 91 85 102 114 111 106 100 98 100 104 105 104 104 102 102 105 108 119 120 119 113 108 109 106 105 102 97 99  80 79 79 77 77 76 73 71 70 69 70 71 68 62 58 57 67 91 112 135 155 172 182 180 169 153 134 109 88 85 91 97 99 102 103 101 96 85 80 79 77 76 75 73 72 74 78 83 89 93 97 104 110 115 118 122 125 127 126 127 131 136 138 136 133 131 129 125 123 125 125 127 133 139 148 155 158 157 154 151 143 133 125 120 115 113 115 119 125 132 137 141 145 150 155 159 162 164 164 164 164 165 164 164 166 168 170 170 170 171 169 168 168 166 166 167 167 170 171 173 173 174 175 175 178 181 182 183 183 181 180 181 180 180 179 176 173 172 170 169 170 175 177 179 181 181 181 181 179 178 174 171 169 168 167 166 165 163 164 167 169 169 171 171 168 171 169 165 164 160 158 157 157 156 159 160 159 159 157 157 157 156 157 159 159 160 158 156 161 161 163 163 161 163 164 165 164 164 163 164 165 165 164 164 164 162 161 163 163 163 164 164 164 166 167 170 176 178 178 181 184 187 188 190 195 199 202 201 196 191 184 177 171 169 168 167 166 164 165 167 165 162 161 162 163 162 157 155 157 156 156 157 157 159 160 160 160 158 159 161 158 159 159 159 164 174 181 187 187 189 187 184 176 168 165 164 165 164 164 164 163 162 160 157 159 161 164 164 165 163 162 162 163 162 161 160 160 161 158 158 159 160 162 164 168 172 169 165 160 158 159 160 160 155 154 160 164 162 159 156 154 153 156 157 158 159 157 157 159 160 168 167 167 167 164 163 160 156 154 152 154 
31 46 45 43 39 37 39 36 34 32 31 30 27 27 25 21 17 17 23 36 50 62 73 81 79 68 58 47 35 28 20 15 12 11 16 15 17 17 18 23 23 22 20 25 30 32 36 39 49 54 57 61 61 57 60 60 60 61 61 55 52 56 58 58 57 52 52 51 48 49 47 53 54 61 61 59 57 56 53 54 48 44 43 43 41 36 34 34 39 44 49 53 61 65 74 81 82 84 89 87 86 82 81 80 74 73 72 74 76 75 76 78 77 80 81 82 87 89 79 74 72 73 73 72 77 75 72 70 66 62 59 56 54 52 45 35 29 21 19 17 15 20 27 34 38 41 40 40 41 35 30 33 36 37 42 43 40 38 38 38 36 34 34 36 39 37 34 27 25 24 23 31 29 25 26 23 26 25 28 29 29 31 33 36 41 44 44 47 46 46 42 36 37 37 32 34 34 37 38 42 40 41 42 41 39 37 37 38 32 32 35 40 43 45 42 48 54 57 62 61 62 65 72 78 83 92 97 101 99 92 81 70 55 43 38 34 31 33 38 48 54 55 53 51 54 50 46 41 36 31 30 32 31 31 34 37 37 34 30 27 25 18 12 12 17 26 43 62 77 83 83 80 77 67 54 47 42 39 35 34 32 29 27 25 23 25 19 19 25 25 32 32 29 30 31 32 34 33 36 29 21 20 23 23 18 11 14 21 23 21 23 25 24 27 13 0 5 33 42 37 31 31 28 27 28 31 31 30 33 33 34 48 55 52 47 37 34 34 33 28 24  88 87 86 86 83 80 77 73 72 69 67 64 61 56 52 48 48 66 90 115 136 152 160 158 143 124 108 82 59 54 57 58 58 64 66 66 63 56 53 54 52 51 54 56 59 65 72 81 85 92 94 97 100 103 105 108 111 110 111 112 115 119 119 117 116 112 108 107 103 104 109 113 119 124 131 136 138 139 135 127 116 108 98 90 83 81 82 86 93 97 108 118 124 132 138 142 146 150 151 150 148 148 147 144 141 136 135 135 131 131 133 137 142 142 146 150 152 151 150 153 153 153 156 159 161 160 158 150 143 138 134 131 132 131 129 126 119 121 120 117 121 125 129 135 136 136 136 134 131 130 128 128 129 128 127 125 125 124 122 123 125 126 125 123 123 118 117 117 114 112 111 108 105 104 104 105 109 107 108 109 110 110 112 114 116 117 121 122 119 119 116 116 117 116 116 116 121 121 120 121 120 120 119 116 116 116 117 112 111 112 116 117 115 115 117 123 128 132 132 132 136 140 145 152 160 163 166 167 162 156 146 138 132 124 122 119 116 119 123 123 121 120 120 121 119 114 108 105 105 106 106 107 103 101 105 105 109 107 102 101 97 96 96 103 106 117 136 153 159 160 157 150 138 125 118 118 115 114 108 107 111 108 107 106 108 106 109 110 110 112 110 113 113 110 112 111 111 112 109 106 108 109 107 106 102 104 111 112 106 100 104 106 109 100 82 93 107 110 106 97 98 100 102 100 102 103 102 102 104 106 118 124 121 119 111 107 106 106 102 100 98  78 77 76 77 76 77 75 73 70 68 67 66 63 57 55 55 61 83 107 130 152 169 181 182 170 153 134 111 89 81 88 94 98 100 103 103 103 94 85 83 81 78 76 75 74 74 79 84 91 97 100 103 108 112 115 117 119 120 122 125 127 130 130 129 128 126 124 122 123 127 129 133 139 145 151 156 158 162 161 156 147 139 129 121 117 113 113 114 119 124 127 133 138 143 148 152 156 157 159 159 160 161 160 162 165 167 168 170 171 173 171 170 169 165 163 162 165 166 168 170 170 171 173 175 179 181 181 182 180 179 178 177 178 179 177 174 173 173 173 172 172 175 177 179 180 180 179 177 174 173 171 167 168 168 166 164 163 163 162 164 167 167 170 171 168 167 169 169 167 165 161 157 156 154 157 159 159 158 158 157 156 157 157 158 160 161 162 162 163 162 163 164 164 163 164 166 165 165 166 167 167 166 165 165 164 163 162 163 161 162 163 164 166 166 167 171 175 176 177 180 182 185 189 192 196 200 203 200 196 191 184 177 172 169 166 163 162 163 164 164 165 162 163 162 162 161 157 155 156 154 155 155 155 157 158 159 160 160 158 159 161 159 158 157 159 168 177 184 186 187 188 186 179 172 167 166 167 164 163 163 162 160 160 158 157 158 162 163 163 164 163 163 163 162 161 159 161 161 160 160 161 161 163 162 160 167 169 166 159 155 155 157 158 156 152 155 162 161 156 154 154 154 154 157 158 158 158 157 158 160 168 170 169 168 164 164 161 157 156 152 153 
33 43 43 40 40 36 38 37 35 35 31 28 28 25 21 19 18 20 19 31 48 60 72 79 78 72 62 49 40 30 23 21 17 10 11 13 14 17 19 23 22 22 23 22 25 29 34 37 44 47 53 59 58 52 54 52 50 51 52 52 49 50 50 50 52 53 50 46 48 47 53 57 58 62 67 67 60 59 58 54 49 43 41 42 40 34 33 37 38 39 47 52 59 69 73 79 82 81 83 83 79 75 71 71 69 67 64 68 72 72 73 74 73 72 73 77 79 81 75 67 62 65 66 71 76 73 71 64 60 56 51 47 45 41 40 34 27 24 24 23 22 24 29 33 37 39 40 40 35 34 32 33 32 33 39 39 39 40 38 35 30 32 31 31 36 36 37 30 27 25 23 27 30 28 27 24 24 26 28 24 26 33 34 37 40 43 45 47 49 49 42 38 36 35 32 33 31 36 39 42 42 42 47 45 42 41 40 40 37 33 37 39 43 42 42 50 54 57 59 60 62 65 72 76 83 95 96 98 96 88 77 67 53 44 39 37 36 38 42 48 54 56 54 51 50 51 47 44 41 36 33 34 35 32 35 38 38 37 37 33 26 20 12 12 14 19 31 53 69 79 81 79 78 69 59 53 43 37 33 35 34 34 29 25 25 23 19 21 26 27 31 31 29 27 28 32 30 32 34 33 27 24 24 22 27 17 6 8 15 20 25 22 21 24 23 3 0 15 37 31 27 27 26 27 28 29 29 29 33 33 33 44 56 55 52 38 34 32 29 31 23  85 85 87 84 83 82 79 74 74 74 70 70 63 53 50 47 44 59 85 108 129 148 159 157 144 127 106 84 67 62 64 62 60 64 68 67 67 66 62 60 59 55 58 61 60 68 73 79 85 91 94 96 97 98 100 101 101 104 108 110 109 109 109 109 107 104 101 103 102 105 112 120 126 133 139 139 143 145 139 130 121 113 104 94 83 80 81 87 90 96 105 112 122 129 134 137 139 140 143 144 142 142 140 138 135 132 130 130 128 125 129 132 131 134 133 138 141 142 140 140 144 147 152 158 160 158 154 149 140 134 128 125 126 128 127 126 125 129 126 123 126 128 132 134 135 135 133 128 126 129 127 126 125 124 124 123 123 123 122 122 123 125 124 124 120 118 115 117 116 112 112 108 105 105 104 106 109 108 107 110 111 111 112 116 117 120 121 121 121 119 116 117 116 115 118 120 124 126 125 126 123 123 121 120 121 118 118 117 113 113 116 114 115 115 119 124 129 130 130 133 134 139 144 151 159 162 165 163 159 152 145 137 130 124 122 121 120 117 121 122 122 121 116 120 118 116 113 109 106 105 106 106 103 104 108 107 109 106 102 99 98 95 98 104 106 112 128 145 155 156 152 146 136 128 122 116 111 107 111 113 111 110 109 110 111 108 108 111 112 111 109 113 113 111 111 110 110 112 110 107 106 107 108 108 101 100 104 105 106 100 100 103 106 107 90 81 97 107 101 95 98 97 99 99 101 103 104 106 105 104 117 127 125 123 112 110 110 106 105 103 101  75 76 76 76 76 77 76 73 72 71 68 66 61 58 54 51 55 75 100 125 147 165 177 181 170 152 134 114 90 82 86 92 96 98 102 105 105 101 95 87 87 83 80 78 76 77 81 88 94 98 101 104 106 109 111 114 112 116 119 122 123 123 122 122 123 120 122 120 123 128 132 138 146 154 159 162 163 167 167 161 150 142 133 125 117 112 111 112 115 118 122 128 133 140 145 146 150 152 153 155 155 157 157 158 161 164 167 170 172 172 171 169 168 167 162 161 163 164 166 168 168 171 174 175 179 180 180 180 179 177 176 173 174 176 174 174 175 176 175 172 172 176 178 177 176 178 175 172 169 168 166 166 166 164 163 163 162 162 162 164 166 167 168 169 168 167 167 171 169 167 163 158 157 155 156 157 159 159 159 158 158 158 158 158 159 160 164 165 165 164 162 163 165 164 165 166 165 166 167 167 168 167 167 167 163 164 163 163 162 164 165 166 168 166 167 171 176 179 178 179 183 185 188 193 197 200 202 199 194 191 183 176 172 169 166 162 159 160 163 163 163 162 162 162 162 162 160 156 155 155 154 156 155 155 156 159 161 161 159 159 160 159 158 158 159 161 169 178 183 185 186 185 181 175 171 166 164 164 165 163 163 159 160 159 158 158 160 163 164 166 164 163 162 162 161 159 161 162 162 160 161 162 163 161 159 159 166 167 162 155 152 153 155 157 153 153 158 158 154 152 152 153 152 154 157 158 158 157 159 159 166 173 172 169 166 163 160 158 158 153 152 
27 40 41 39 41 37 36 39 36 34 31 28 28 23 22 20 17 19 20 29 47 58 68 78 78 71 62 49 37 29 26 27 23 15 9 10 9 14 13 17 23 20 22 24 26 28 31 37 41 44 50 54 51 49 46 45 44 43 46 46 47 45 42 40 46 47 48 44 45 47 53 57 64 68 74 75 71 65 60 51 46 40 38 41 37 35 34 34 40 43 44 49 57 69 76 81 83 85 80 78 72 69 66 63 62 62 62 64 69 70 71 69 68 66 64 69 71 71 68 64 58 57 62 69 73 75 69 62 55 49 39 35 33 33 33 32 31 31 30 27 26 29 33 35 35 35 37 36 34 34 33 30 27 30 31 36 40 38 36 34 32 28 29 31 32 35 31 32 31 26 23 23 26 33 33 31 26 24 25 26 28 32 34 39 44 43 43 47 50 46 40 39 38 38 38 36 35 36 39 43 44 44 48 49 48 46 43 41 39 37 40 40 41 45 46 49 54 56 56 57 63 65 70 76 85 93 94 94 90 85 75 63 54 48 42 41 43 43 45 50 53 51 54 52 52 51 51 47 41 40 38 38 40 35 35 34 37 38 34 35 30 23 19 16 16 17 27 42 59 71 77 78 74 70 64 57 46 38 33 34 37 36 32 26 28 24 22 25 26 28 32 33 27 26 27 28 26 28 31 29 26 24 24 22 26 20 5 1 8 15 24 24 21 23 33 18 0 1 19 25 18 19 23 23 22 25 22 24 28 28 28 40 58 57 50 38 32 30 29 28 24  80 82 82 83 84 83 82 76 73 74 74 68 60 56 50 46 46 57 78 102 125 145 154 155 145 124 104 89 72 66 72 68 67 66 65 66 71 71 71 67 62 63 60 60 64 70 75 80 85 90 94 97 94 94 96 97 98 99 101 101 97 95 95 97 98 99 97 98 101 106 114 126 134 142 150 152 149 149 143 131 124 115 107 98 83 75 81 86 89 94 103 112 120 127 133 136 137 136 136 136 137 137 133 131 128 128 127 127 127 124 124 123 122 121 124 126 130 133 131 130 134 142 149 153 156 154 148 143 136 128 122 118 121 126 128 130 129 132 132 128 127 129 133 132 131 128 128 127 125 125 124 121 120 119 118 121 122 120 119 121 120 122 123 119 118 117 117 116 117 115 114 110 104 106 108 109 108 111 112 112 113 115 116 117 118 121 122 124 122 119 119 120 119 122 124 124 125 127 127 126 124 124 122 123 125 124 122 119 115 115 116 113 114 116 118 124 126 127 130 133 137 139 143 151 160 161 160 158 153 148 140 132 126 124 122 121 121 119 123 123 120 119 118 119 115 115 114 110 109 106 105 106 105 105 105 108 107 105 104 103 103 100 102 105 105 110 119 133 145 149 145 139 134 129 122 114 109 106 113 114 112 111 110 115 114 109 109 111 113 114 115 112 112 110 109 109 108 111 108 106 106 105 105 108 101 95 94 99 104 101 102 102 102 109 102 82 87 97 96 92 91 91 95 96 100 102 105 104 104 104 112 129 129 123 115 107 108 106 107 102 100  72 73 74 75 76 78 75 73 72 71 70 68 65 60 53 51 53 66 93 118 143 161 173 175 169 151 130 111 90 85 85 89 94 99 102 106 108 108 104 95 92 91 85 83 84 81 84 89 94 98 102 107 109 107 109 111 111 112 115 118 119 118 118 119 119 118 120 121 123 130 137 144 151 161 168 174 174 172 171 166 154 146 136 127 116 109 108 113 114 117 122 127 132 137 143 145 145 146 147 149 151 152 154 157 158 161 165 170 173 174 172 169 168 166 165 163 165 167 166 168 169 171 174 174 176 179 179 177 176 175 171 168 171 173 174 176 177 177 176 174 174 176 177 177 174 171 170 169 166 166 164 163 161 161 161 161 161 161 161 163 165 166 166 168 168 167 166 166 170 169 167 163 159 158 157 157 158 157 157 158 157 157 158 159 160 162 163 166 166 165 163 164 163 163 166 166 165 167 168 168 169 168 167 167 165 164 164 162 163 165 165 167 166 164 167 172 176 179 178 179 182 185 188 193 197 200 200 197 193 188 183 176 171 170 168 165 160 158 160 162 163 164 161 161 161 162 160 156 158 158 155 154 155 154 156 159 159 160 160 159 158 158 159 159 159 160 162 169 178 184 182 180 180 177 174 168 164 163 162 163 164 161 161 158 158 160 161 164 165 166 165 164 161 159 158 160 163 164 162 162 162 161 160 161 158 156 160 166 164 158 152 151 153 160 155 151 152 155 151 149 149 151 152 155 157 159 158 159 160 160 167 175 173 172 167 163 161 159 158 156 153 
23 34 36 36 37 38 35 35 33 34 32 29 28 23 22 23 17 17 20 32 45 58 68 73 75 68 52 42 32 24 25 23 21 17 13 10 11 12 14 15 16 20 20 24 25 26 29 36 40 44 47 45 46 45 42 40 37 37 40 40 41 35 37 39 39 40 41 43 47 51 53 58 64 71 79 79 77 67 58 52 45 40 36 36 32 30 30 33 38 43 46 51 57 66 74 78 79 82 79 74 69 65 61 56 54 54 57 62 66 70 71 67 64 59 58 58 62 62 64 65 57 55 58 62 65 64 59 54 45 36 27 25 26 29 28 29 30 33 34 34 32 35 36 37 37 34 35 33 34 31 31 29 26 28 29 34 38 36 34 32 32 28 25 29 30 30 29 30 31 28 28 25 25 32 36 34 31 29 29 32 32 31 32 39 42 44 47 46 47 43 41 38 37 36 33 33 36 37 37 42 45 48 49 50 49 49 44 41 40 41 42 42 42 45 45 49 55 57 58 60 66 68 72 76 82 88 90 92 87 82 73 62 53 44 41 45 48 47 47 52 52 51 52 53 53 51 49 43 39 40 41 41 41 39 38 34 35 40 37 33 33 30 20 17 18 18 26 39 48 62 71 74 73 70 68 64 53 45 38 34 36 34 34 31 29 25 26 25 27 31 31 33 28 23 25 28 28 25 27 24 23 22 21 22 24 20 8 1 0 4 15 22 25 24 36 34 4 0 4 18 17 17 16 16 15 20 19 20 25 24 26 35 54 58 52 42 33 31 33 30 26  76 77 78 79 81 79 79 78 75 75 74 71 64 56 55 52 49 54 74 98 123 138 147 148 139 118 96 85 73 72 73 75 71 69 70 70 75 76 75 73 71 71 70 65 70 75 77 81 85 90 92 95 94 90 91 92 91 92 91 87 88 88 87 90 92 94 95 97 102 108 117 125 136 148 153 155 154 150 144 134 124 116 105 92 80 72 77 83 89 93 99 109 118 126 130 134 136 134 131 130 130 127 123 122 122 124 125 122 123 125 121 118 117 116 116 118 124 129 131 128 130 135 141 146 149 146 143 135 128 121 115 115 122 127 129 130 133 133 132 131 130 129 129 128 124 124 124 125 126 126 120 119 119 114 116 121 119 115 118 121 119 120 122 119 120 118 116 115 115 117 115 112 110 111 113 113 112 112 113 114 115 115 117 117 119 119 122 123 122 125 124 121 122 126 126 127 126 126 127 128 126 125 124 123 123 123 121 118 117 117 114 114 117 114 115 123 126 128 131 131 135 138 142 150 156 159 158 156 151 143 135 128 124 121 121 121 120 121 121 122 121 119 119 117 114 112 109 107 106 107 106 106 105 103 104 106 108 108 108 108 106 104 103 104 107 109 116 122 131 139 140 137 133 130 127 119 112 110 112 112 112 113 114 113 111 110 110 112 114 114 115 111 108 109 108 110 109 107 104 104 106 106 104 106 100 95 91 95 100 105 104 100 102 108 107 88 83 89 95 91 90 89 91 92 98 103 104 101 106 106 112 126 128 122 116 109 107 109 107 104 100  72 72 73 76 76 77 75 73 71 72 72 68 63 60 57 57 54 62 89 113 136 155 165 166 161 143 121 105 90 86 90 91 93 101 104 106 108 110 111 104 98 96 96 92 88 86 89 90 94 98 104 110 113 111 109 110 111 109 111 113 114 114 114 116 117 118 119 120 123 132 139 146 157 167 173 180 182 179 174 168 160 147 139 129 115 106 107 113 115 118 120 126 132 138 143 146 146 144 142 142 142 145 150 154 157 161 164 169 171 173 172 170 168 165 164 164 167 170 170 169 170 173 174 174 174 176 175 172 171 170 167 168 172 173 174 176 177 178 176 175 175 174 173 173 170 166 167 166 165 164 162 160 160 160 159 159 160 159 160 162 164 168 168 170 167 168 167 165 169 171 170 167 163 159 159 158 157 158 159 159 159 158 159 161 164 163 166 167 166 164 163 163 163 164 165 165 166 168 169 168 170 170 169 167 167 167 166 164 166 165 165 166 167 165 168 173 173 175 178 181 182 185 188 193 196 197 197 194 190 185 180 175 170 170 167 164 162 161 161 161 162 164 162 161 160 160 161 158 158 157 157 157 156 156 156 158 160 160 160 160 159 159 160 160 160 161 163 166 172 180 181 179 179 178 176 171 166 163 162 163 163 161 160 158 158 161 162 164 167 168 166 164 161 159 157 160 163 164 164 164 161 160 157 161 160 155 155 161 164 162 157 151 154 161 160 155 152 152 149 147 147 148 151 153 155 156 159 160 160 160 164 175 175 173 167 163 160 160 160 159 154 
24 33 34 34 34 33 34 31 32 34 32 31 29 26 25 23 22 21 21 31 43 55 65 69 67 58 44 34 26 22 23 22 18 13 13 15 12 12 16 15 16 20 20 20 23 27 28 30 38 39 42 45 45 42 42 38 31 32 31 28 31 30 31 36 35 33 36 41 46 52 54 59 65 71 73 75 69 64 55 48 40 35 35 28 26 25 27 31 34 39 48 53 61 68 73 77 79 78 75 71 66 60 57 52 49 49 51 59 64 69 70 67 62 58 54 52 54 57 60 59 54 53 51 52 55 55 51 42 34 26 23 23 21 20 25 30 32 41 47 40 37 38 37 40 41 37 35 34 31 29 30 28 25 32 33 36 38 36 35 32 28 25 24 28 30 29 31 33 37 35 31 28 25 27 33 33 37 34 32 31 31 32 33 32 34 41 45 44 44 44 41 39 36 34 32 31 33 35 36 45 46 48 50 50 46 48 45 42 44 45 43 41 43 44 44 50 55 53 56 61 68 72 73 73 77 83 86 89 85 80 72 61 51 45 44 46 48 49 50 54 53 53 50 53 52 50 50 44 40 39 39 39 39 40 40 38 38 39 37 36 36 37 27 19 18 19 24 32 42 51 62 72 75 70 68 66 59 52 42 36 36 36 33 32 31 27 25 25 31 32 35 34 28 22 24 26 24 22 24 20 20 21 21 21 22 20 10 2 0 1 9 17 23 24 35 39 17 0 0 7 18 13 11 12 12 13 15 18 24 27 24 26 50 58 51 42 33 30 32 31 25  76 75 78 76 77 79 76 77 77 74 74 74 68 62 60 58 56 57 74 94 117 130 137 137 130 108 85 78 71 75 73 73 73 73 74 73 78 78 79 80 75 75 77 75 75 77 77 82 83 88 88 91 92 91 88 83 86 85 83 78 79 85 87 87 87 88 93 97 102 110 119 126 135 148 154 152 152 148 143 136 123 113 101 89 76 69 74 78 85 93 99 107 116 123 128 132 131 130 127 126 124 119 116 114 115 119 120 121 121 121 120 117 114 112 114 117 119 127 131 130 129 130 135 137 136 134 133 125 118 114 113 114 120 125 129 133 138 139 135 133 131 126 122 120 117 119 123 122 120 123 119 117 121 117 117 120 117 117 117 117 120 119 118 122 120 118 118 118 115 116 117 115 114 112 114 116 116 113 115 116 114 116 116 116 119 120 121 122 122 126 125 124 125 127 128 130 129 125 128 128 128 126 127 124 122 120 119 120 117 117 114 112 116 112 115 121 125 126 132 132 133 137 141 145 151 155 155 150 147 140 134 127 123 121 121 121 121 123 124 121 120 118 116 118 113 110 108 108 106 107 105 105 107 107 106 105 106 106 108 106 105 106 107 104 105 110 113 120 123 130 135 138 135 133 130 125 117 113 112 113 113 114 113 112 110 108 109 113 116 115 116 108 106 108 108 107 108 107 105 102 102 102 102 103 101 96 89 91 98 106 105 101 102 106 109 100 84 83 91 90 88 90 90 90 94 100 100 103 108 107 110 124 129 123 117 109 109 110 107 105 105  74 73 73 76 76 75 75 74 74 73 73 70 65 61 59 57 57 64 86 109 130 145 154 155 147 132 112 97 89 89 95 95 94 97 104 109 109 111 115 112 107 102 100 99 96 95 94 95 98 99 105 111 112 113 113 109 110 110 108 108 110 108 111 114 116 116 119 120 126 133 141 148 159 169 175 179 182 181 175 168 161 149 137 126 113 106 107 112 114 117 123 128 134 139 145 147 147 145 141 139 139 141 142 147 152 158 163 168 171 173 171 169 168 167 166 165 167 172 173 173 174 174 173 173 173 173 171 170 167 165 167 169 172 174 176 178 178 178 177 174 175 175 170 169 168 165 164 163 162 162 159 158 161 160 159 159 159 159 161 164 165 166 168 169 169 169 169 167 166 170 172 169 165 162 161 158 157 159 159 160 162 161 162 163 163 165 167 168 168 165 164 165 165 164 165 164 165 165 169 169 169 169 169 168 167 168 166 168 169 167 165 166 167 167 168 171 172 174 177 180 182 184 186 190 193 195 195 192 188 184 179 172 169 166 164 164 164 162 163 162 161 160 162 161 162 162 160 157 157 157 157 159 159 159 158 160 161 163 162 160 161 162 160 160 160 160 163 165 168 174 179 179 179 181 179 175 171 166 164 164 162 162 161 160 159 160 160 163 168 168 166 163 160 159 160 161 161 162 162 161 159 157 156 156 157 153 151 154 162 164 159 153 153 159 161 160 155 152 148 147 146 147 149 151 153 157 159 159 161 163 164 174 174 173 167 162 161 162 163 161 155 
27 32 31 33 33 33 34 33 32 30 33 34 30 28 28 26 25 22 27 32 44 55 61 62 61 51 37 25 22 19 17 19 17 15 14 9 11 14 15 13 17 20 23 27 28 29 31 32 34 37 39 41 42 40 39 40 31 24 23 21 25 28 30 32 34 35 38 39 42 52 60 63 67 73 74 73 68 62 50 44 36 32 27 21 24 24 26 31 33 42 48 50 61 69 75 78 81 80 73 69 59 53 52 48 47 47 48 55 60 65 68 66 62 57 54 51 50 51 52 51 50 49 43 42 42 41 39 35 28 22 22 17 14 21 27 32 41 51 59 58 47 39 39 43 41 39 38 34 32 26 25 25 25 32 38 41 42 38 35 36 30 29 29 30 31 34 35 39 40 43 40 32 28 27 31 32 31 30 33 31 29 30 31 33 34 38 40 43 46 45 43 37 32 32 34 31 32 34 36 41 45 47 49 51 51 51 46 45 46 48 47 43 42 45 45 50 52 51 55 61 67 69 69 70 75 82 87 89 85 79 72 58 50 45 46 48 49 48 50 52 57 55 49 49 47 49 48 46 42 37 32 35 38 39 40 39 40 40 37 39 41 38 34 24 19 16 21 27 38 46 52 60 67 69 67 66 62 57 48 38 35 39 32 31 29 27 26 28 33 35 38 35 29 22 23 22 23 24 22 17 15 17 20 21 24 18 8 2 0 1 8 13 19 29 39 38 29 3 0 3 12 15 11 11 12 12 9 17 18 23 23 22 46 54 48 39 30 27 30 32 29  72 72 74 74 73 75 78 78 75 77 76 75 71 68 66 63 62 61 71 91 108 120 128 131 118 100 80 76 75 79 80 78 77 71 67 72 80 80 83 84 81 81 82 78 79 80 80 82 84 86 85 89 90 88 89 82 80 78 74 75 76 81 83 86 89 89 93 97 104 115 125 135 140 148 153 151 147 146 141 129 120 107 93 87 76 70 75 80 84 91 98 104 115 122 127 130 128 127 126 123 119 116 113 111 112 110 112 115 115 118 120 117 115 112 113 116 120 126 127 130 129 127 126 126 126 125 123 118 115 118 118 114 116 123 130 137 148 152 145 133 124 120 120 117 116 118 119 120 118 118 116 115 119 121 120 119 118 120 118 114 117 119 122 123 124 122 122 121 122 119 118 115 114 114 113 114 114 116 118 120 119 116 116 120 119 121 125 122 125 128 125 123 125 129 130 131 131 130 126 128 129 130 128 127 125 122 119 121 119 117 115 113 116 114 116 120 123 125 130 133 133 136 137 140 151 152 150 148 142 137 130 125 121 120 121 121 120 122 122 122 121 114 113 114 113 109 108 108 107 104 105 105 105 105 108 107 107 108 111 109 107 111 109 106 106 109 109 114 121 123 127 136 135 133 130 129 126 121 115 115 115 113 110 111 110 109 112 115 117 115 113 108 104 106 107 107 108 106 105 102 103 103 100 102 102 97 92 88 96 104 106 103 103 110 109 109 92 82 91 92 89 88 85 90 92 94 99 102 109 108 108 122 126 122 117 111 111 111 110 107 107  76 76 74 74 75 75 75 76 76 74 73 72 69 65 62 61 62 63 78 100 119 133 143 146 135 121 102 93 92 94 96 100 97 96 102 111 112 114 117 118 115 111 107 106 105 102 102 98 99 103 106 110 113 114 116 113 109 110 108 107 107 107 109 111 112 114 117 119 127 136 145 153 162 170 176 179 181 179 176 167 160 147 132 122 111 104 107 111 113 116 124 132 139 144 147 149 151 147 143 140 140 142 142 146 150 154 160 165 169 171 170 169 167 167 168 166 169 172 173 175 175 173 173 171 169 170 171 170 169 167 167 170 171 172 175 178 180 180 180 176 173 172 169 166 166 163 162 162 160 160 159 160 160 162 162 159 159 160 162 163 164 166 167 169 171 168 169 169 167 168 171 170 169 167 162 160 160 160 159 160 162 163 163 165 166 168 168 168 168 166 165 164 165 164 164 164 164 164 168 170 171 169 169 170 168 167 167 168 169 168 166 165 163 164 168 171 172 173 177 179 182 184 183 187 191 193 192 190 188 184 178 172 168 166 165 164 163 162 165 165 163 162 162 161 161 161 160 157 155 158 158 159 158 159 161 161 163 163 162 162 162 161 160 162 161 161 163 163 165 170 176 180 181 181 182 178 175 171 167 165 165 164 163 162 160 160 162 164 168 171 167 163 160 160 161 161 161 161 160 158 156 155 155 152 152 152 150 147 156 163 162 156 156 158 158 162 156 151 148 147 144 146 148 150 153 154 157 160 163 164 165 174 175 173 167 163 163 163 163 163 158 
28 34 33 33 33 34 34 34 31 33 33 34 34 27 30 29 27 27 32 33 41 50 54 56 54 47 35 22 20 16 15 19 15 15 12 7 11 14 13 14 15 19 25 32 37 30 30 31 36 36 37 36 37 39 38 33 33 22 16 19 20 22 29 31 34 35 36 37 40 45 53 64 68 72 72 73 69 58 47 40 29 24 20 19 25 22 26 34 35 41 43 51 60 68 76 81 83 81 74 65 53 48 47 45 43 44 50 55 57 63 69 67 62 57 55 52 48 45 43 44 41 38 33 31 30 32 33 27 22 20 18 16 14 18 26 35 45 54 61 65 64 51 43 42 44 44 38 35 33 26 19 21 28 34 37 40 45 42 37 36 33 30 31 32 36 35 34 39 42 43 40 36 30 25 30 31 29 30 31 33 33 29 29 30 36 41 43 44 43 42 43 38 30 29 30 31 29 30 34 37 46 51 52 55 54 50 50 51 50 50 48 41 41 38 39 48 52 54 57 62 63 64 64 66 76 81 84 85 85 79 73 65 55 48 44 48 50 49 50 53 57 59 55 50 45 45 42 41 40 38 36 34 38 39 40 39 39 42 43 42 41 39 36 30 23 17 20 24 33 38 41 48 57 68 67 66 65 62 55 45 40 36 31 30 29 29 27 31 36 39 41 36 31 26 24 22 24 23 23 21 16 17 17 22 20 16 10 4 3 1 7 15 21 33 39 39 33 10 0 0 6 13 10 9 10 10 10 12 13 21 24 22 42 51 45 39 33 27 30 33 31  71 72 74 74 74 76 76 78 78 78 79 76 72 72 70 67 69 70 71 85 99 109 117 119 106 92 82 79 77 78 83 83 81 75 66 69 79 83 85 85 88 87 87 87 84 81 85 86 85 85 86 87 89 89 87 84 79 73 68 72 73 76 79 83 87 87 91 96 101 110 125 137 142 149 154 154 146 143 137 126 115 103 94 86 79 74 78 81 84 89 95 102 112 120 124 126 126 124 122 120 116 113 112 113 112 108 110 110 111 115 117 114 114 115 117 117 121 124 124 125 124 122 119 115 117 121 120 119 118 120 120 117 120 125 131 138 146 149 147 140 125 117 119 117 114 114 114 117 115 108 110 116 118 118 117 120 121 120 119 120 120 121 122 125 123 122 125 123 124 121 119 117 115 115 116 115 118 118 119 119 120 117 118 122 122 123 124 125 126 127 126 123 124 128 129 129 129 128 125 127 129 131 127 125 124 119 121 122 122 118 115 114 111 110 116 119 121 126 130 132 133 133 133 141 147 149 149 148 143 134 129 124 121 119 120 120 120 121 120 122 124 117 115 111 108 106 104 104 105 102 104 106 106 108 108 109 110 110 111 110 109 110 109 107 106 105 107 110 113 118 120 128 136 135 133 133 131 127 121 117 116 114 114 114 113 112 115 116 118 119 115 111 109 108 109 109 108 107 105 101 99 100 99 98 98 96 94 92 95 102 106 104 106 109 110 108 98 81 85 92 90 84 86 89 92 95 99 100 106 108 107 119 125 121 114 112 109 108 108 109 109  78 78 77 77 75 75 77 76 76 76 75 73 73 70 70 69 68 67 75 93 108 122 130 133 128 113 98 95 97 100 103 105 105 102 101 107 114 118 121 124 122 118 114 114 115 109 107 106 105 107 108 110 114 117 118 118 111 108 106 105 105 106 107 109 110 114 117 121 126 136 148 159 167 173 177 181 181 179 175 167 155 142 131 121 111 107 107 111 114 119 127 135 142 148 150 153 155 152 147 145 144 145 145 147 150 154 159 162 165 167 167 168 167 166 166 166 169 172 173 174 174 173 172 168 168 172 174 172 172 169 168 171 171 172 174 175 179 181 182 180 174 168 168 168 166 162 162 162 160 159 158 159 161 162 162 162 161 161 162 164 166 167 168 168 168 167 167 168 169 168 168 171 170 167 165 163 160 160 161 162 163 163 164 166 168 170 169 168 168 167 167 165 163 162 163 164 164 165 167 167 170 170 170 170 170 170 171 169 168 169 168 163 163 164 167 168 171 173 178 181 183 184 184 186 190 193 191 189 188 183 177 172 168 167 165 165 163 162 164 165 165 164 160 159 159 161 161 158 156 157 157 158 158 159 160 163 164 164 165 163 163 161 160 159 159 161 162 162 164 166 173 177 179 181 182 181 180 176 171 166 167 166 165 163 164 165 167 168 171 172 168 163 161 161 162 162 162 160 158 155 154 153 152 150 149 151 149 146 153 161 163 158 159 158 158 161 159 153 147 146 145 145 147 150 151 155 157 160 162 163 166 173 174 172 169 163 164 164 163 164 161 
30 32 31 33 33 35 35 33 34 37 38 35 32 30 34 33 35 34 33 31 39 43 44 47 46 39 28 22 21 18 16 15 14 15 8 7 9 11 15 16 20 24 27 33 36 33 32 32 36 38 39 32 30 34 34 31 31 23 14 16 16 20 24 25 26 30 33 34 36 41 47 54 63 70 71 71 65 55 47 36 24 16 19 19 24 23 26 32 33 38 42 49 57 68 75 81 81 80 74 62 51 44 40 37 38 42 46 49 54 62 67 68 63 60 55 50 47 41 35 35 32 29 25 26 30 31 29 23 20 19 17 14 15 19 25 32 39 50 58 62 65 64 57 46 41 41 38 36 32 26 19 22 28 34 36 39 41 40 38 37 33 30 29 32 38 34 37 41 42 44 40 39 32 29 28 28 32 34 32 32 36 31 27 26 33 38 41 44 44 43 39 36 30 27 27 28 27 28 32 36 41 43 48 53 53 52 53 55 54 50 46 41 39 35 37 44 51 53 53 58 62 63 62 65 75 80 83 81 81 77 73 69 62 52 44 49 52 52 52 53 55 58 56 54 51 45 42 40 40 39 38 36 38 41 39 36 39 42 42 44 44 43 42 36 32 24 19 19 27 31 34 38 47 57 63 64 64 63 62 53 44 37 32 29 29 30 29 36 35 39 43 42 35 28 22 23 25 22 23 22 19 18 18 24 22 20 13 4 7 8 8 13 18 32 38 39 35 16 0 0 4 11 12 10 9 8 8 11 19 25 20 19 39 52 44 42 35 32 34 32 28  72 73 75 75 74 76 79 79 79 80 80 77 74 76 75 75 76 75 70 77 89 97 100 104 96 81 82 82 82 82 80 84 85 80 71 68 74 83 88 90 92 91 92 92 91 89 88 88 88 88 83 83 87 88 86 82 79 70 67 67 69 75 79 82 84 87 87 92 102 108 117 133 144 148 151 153 146 137 132 120 107 101 94 86 79 73 77 82 88 91 96 104 112 119 120 123 127 124 121 118 117 115 114 111 109 108 108 109 110 112 114 113 111 114 117 121 122 122 123 120 120 119 119 117 120 122 120 118 119 119 119 119 124 126 129 134 136 138 138 138 133 123 116 115 114 113 111 113 113 107 108 113 118 119 119 119 121 122 120 119 123 124 123 124 124 126 127 124 122 122 120 118 117 118 118 118 118 118 118 118 117 118 120 120 123 124 124 128 127 127 127 127 126 126 125 127 127 123 122 126 128 129 129 127 124 121 123 123 121 120 116 115 109 108 114 120 124 129 132 133 133 134 137 143 146 147 147 147 143 140 133 125 122 120 120 121 121 119 119 122 122 118 115 113 109 107 104 103 103 102 102 106 107 105 106 110 112 113 112 111 109 107 109 110 108 104 103 105 106 113 117 121 128 133 133 132 134 130 124 120 118 117 114 113 114 115 119 118 118 120 118 115 113 109 111 108 106 106 104 98 98 100 98 97 97 95 94 97 98 102 107 107 109 109 108 107 101 81 80 91 91 86 87 88 90 94 98 98 104 106 105 115 124 119 114 109 108 108 107 108 109  79 80 79 80 80 79 80 79 78 78 78 78 75 72 71 72 71 73 75 85 97 107 115 118 117 105 98 99 101 104 109 110 111 112 106 103 113 120 123 125 129 127 122 120 122 118 114 114 113 112 112 114 115 117 119 118 116 110 105 103 103 107 108 108 109 113 118 123 129 135 144 157 167 175 178 179 181 178 174 164 154 142 133 124 115 111 112 114 117 123 130 139 148 153 156 158 159 154 152 149 148 149 150 150 152 155 159 160 162 164 164 164 164 165 167 168 169 172 173 173 172 172 173 170 172 175 173 171 173 171 170 171 173 174 173 174 175 176 179 180 179 175 169 166 166 162 161 161 160 159 158 158 160 160 162 162 162 163 164 165 167 168 169 171 169 168 169 170 170 169 167 169 171 169 168 164 161 161 162 163 164 164 164 167 169 170 169 168 169 168 167 165 162 162 163 163 161 163 166 166 167 169 169 170 171 172 172 170 170 168 166 163 163 164 165 168 171 175 177 179 181 182 183 186 189 190 189 187 184 181 175 171 166 167 164 164 163 163 164 165 164 165 163 161 158 159 160 158 156 156 157 156 158 160 160 163 165 166 167 166 164 161 160 159 158 158 161 162 162 164 168 172 177 181 182 184 182 181 177 171 167 166 166 166 164 166 170 170 171 175 171 166 165 163 163 163 161 160 155 154 154 153 150 148 148 149 150 150 150 157 161 162 161 160 160 161 161 155 149 146 146 146 147 149 151 153 156 160 161 161 164 172 174 171 168 165 164 163 162 163 160 
27 28 28 31 31 36 36 37 36 37 38 40 35 33 36 36 36 34 35 36 35 35 38 37 35 29 24 21 19 17 14 13 13 13 8 7 8 8 15 21 23 27 28 32 38 38 37 35 34 36 39 35 30 30 30 30 30 24 17 12 13 19 21 23 25 31 31 32 39 42 45 46 49 64 69 66 59 50 42 30 23 20 17 18 25 28 27 34 34 38 42 49 57 67 75 81 79 75 73 62 50 41 37 33 32 33 41 47 53 60 67 68 63 57 51 46 41 35 35 34 30 26 28 29 25 24 21 20 18 13 15 13 15 21 24 25 23 31 45 54 55 60 62 59 45 35 38 33 30 29 19 19 28 32 36 41 45 43 41 41 37 34 34 36 41 40 43 46 45 45 44 43 37 31 30 28 28 31 32 28 31 27 27 31 35 35 35 39 38 38 34 32 31 28 26 26 25 27 28 30 36 39 44 48 50 54 56 54 53 50 46 40 36 36 36 41 48 51 50 56 61 62 62 65 74 83 85 81 81 80 75 70 58 49 46 51 52 53 50 51 55 57 56 56 55 51 47 46 42 38 35 35 38 38 39 36 37 40 39 46 44 41 45 42 38 32 24 19 21 27 30 31 36 47 58 63 64 66 66 62 52 44 38 30 28 31 35 41 39 39 40 45 36 26 22 21 22 23 21 25 24 22 23 23 23 18 10 5 11 12 14 13 20 29 37 40 32 17 0 0 1 9 11 9 8 9 10 12 22 22 18 20 34 50 45 41 34 28 33 32 32  72 73 77 75 76 79 81 83 80 82 81 78 79 81 83 79 77 76 73 73 79 84 88 89 84 80 79 84 87 88 87 84 87 88 79 72 71 80 84 88 94 94 95 96 96 95 89 86 86 89 86 82 82 84 84 80 79 75 66 65 67 72 77 81 84 87 86 91 99 106 113 121 137 145 147 146 140 134 127 118 107 100 96 89 81 78 80 85 89 94 102 109 114 119 121 122 122 122 119 118 118 117 112 109 111 108 109 109 108 110 113 109 107 109 112 117 123 123 122 121 121 123 123 121 122 122 121 119 119 118 117 120 123 126 122 122 125 124 126 129 131 130 123 114 111 109 110 111 113 108 107 113 118 118 120 120 122 121 120 120 123 124 124 125 125 127 131 129 125 122 123 119 117 117 116 116 115 116 117 119 119 121 122 126 125 125 124 127 129 125 128 131 128 127 125 125 125 121 121 121 122 124 124 125 125 126 125 122 123 120 115 111 108 108 114 121 126 128 133 133 132 131 136 140 146 145 143 145 142 138 132 125 122 117 118 120 120 117 116 121 121 119 116 113 113 108 106 103 102 100 101 105 106 103 105 110 113 113 112 114 112 111 114 113 108 103 101 105 108 109 114 117 120 126 131 131 136 134 134 125 117 116 114 113 112 116 120 118 119 123 124 119 114 110 109 109 108 106 104 98 98 98 101 97 96 96 94 98 100 106 105 109 111 112 112 110 103 89 80 88 89 87 85 87 89 95 96 101 105 105 104 111 122 117 116 109 107 106 106 107 106  81 81 83 83 83 82 81 81 82 81 80 79 78 77 74 74 74 75 76 80 88 94 98 102 101 97 96 101 105 107 111 115 116 118 113 108 109 117 124 128 132 132 130 126 124 125 121 118 118 116 117 118 118 118 119 119 116 114 108 102 102 107 109 109 110 112 117 123 130 135 143 153 163 172 178 177 178 177 171 162 153 143 133 127 121 117 117 120 122 128 135 143 152 158 160 162 162 158 156 153 151 152 155 155 155 156 159 161 163 163 164 162 162 163 164 167 171 173 174 175 174 175 174 174 174 173 172 171 172 172 172 173 173 174 174 172 170 172 174 175 177 179 174 168 166 162 160 160 160 159 159 160 161 161 162 163 163 164 166 166 167 170 170 171 171 169 169 169 168 168 169 168 171 172 169 167 165 163 161 163 164 165 165 168 170 169 170 170 168 168 167 165 161 162 162 162 161 161 163 164 166 166 168 170 171 172 171 172 171 168 166 163 161 162 164 168 171 175 177 178 179 181 183 184 187 188 187 185 183 181 176 170 167 166 163 162 162 163 163 164 165 165 165 164 162 160 158 156 154 154 156 156 158 160 161 161 164 165 165 166 165 164 162 161 159 159 160 161 161 164 166 167 172 178 182 184 183 183 179 175 171 167 166 166 165 168 169 170 173 175 173 171 168 165 164 162 161 158 155 153 152 152 150 148 147 148 151 154 151 155 159 163 163 163 163 162 161 155 151 148 149 147 148 149 150 152 154 160 161 161 164 171 174 171 168 165 164 162 163 161 160 
30 30 31 33 32 34 37 38 39 36 39 40 38 36 40 38 36 39 38 36 37 31 32 30 27 27 22 19 19 16 14 10 9 5 4 6 7 7 10 17 25 28 32 36 41 44 42 36 30 33 33 33 32 30 28 29 27 23 21 15 11 14 19 19 21 26 30 30 34 40 37 41 43 53 57 58 54 45 39 30 26 24 19 21 27 30 28 31 33 37 41 48 59 68 74 79 78 77 73 61 51 42 34 29 28 29 36 44 53 58 65 68 63 58 49 43 37 32 35 33 34 30 28 29 25 21 22 22 19 17 19 17 15 14 14 15 15 17 21 35 45 52 58 63 57 43 36 31 28 27 20 22 34 36 40 42 44 45 45 44 38 36 37 38 41 47 49 48 47 44 43 44 40 32 27 29 28 31 31 27 26 27 28 32 36 37 35 35 35 35 36 33 31 30 30 29 29 27 25 29 35 37 41 44 48 56 55 54 50 48 46 39 36 33 34 40 46 48 49 58 64 62 61 66 74 82 88 87 86 87 78 68 59 48 45 47 49 51 52 52 55 58 58 57 58 57 53 50 46 40 34 32 34 37 38 36 39 40 38 42 44 40 41 44 40 38 36 28 25 28 26 28 32 37 50 59 65 64 62 64 59 48 40 34 30 35 42 42 43 40 41 48 40 29 23 22 22 23 23 26 25 26 27 28 25 20 12 5 11 11 14 14 15 23 33 36 29 21 3 0 0 5 12 12 7 9 10 15 19 19 18 18 31 51 49 39 33 27 27 30 33  73 75 78 76 79 81 81 84 85 87 84 82 84 86 85 83 80 78 76 75 74 76 76 76 79 83 85 83 87 87 88 90 87 87 83 80 76 77 81 87 94 98 101 102 101 98 95 89 87 87 88 85 83 85 86 82 82 77 69 66 65 69 76 80 84 83 88 92 97 102 113 118 129 139 140 139 134 131 123 116 109 103 97 93 87 82 84 89 92 99 104 111 115 117 122 120 119 119 114 114 114 115 113 114 113 111 111 109 109 112 111 108 106 107 109 113 118 126 124 127 127 128 128 126 120 120 122 123 119 120 123 122 120 119 114 112 112 110 115 120 122 123 128 122 115 110 109 108 110 108 108 115 119 119 119 121 124 122 122 123 124 125 127 126 130 132 129 129 128 126 124 120 117 116 117 116 116 117 118 119 120 123 127 131 131 129 125 126 128 127 128 133 133 130 127 124 125 120 119 121 122 122 122 124 128 128 126 122 120 120 114 110 108 107 117 121 126 128 132 135 132 129 134 140 146 144 144 145 140 135 127 122 116 115 117 119 118 119 119 119 118 118 116 114 114 112 107 106 101 99 99 100 103 103 107 109 111 114 116 115 113 112 112 112 110 110 103 106 107 109 111 112 115 121 127 129 133 137 136 129 119 115 114 112 116 119 120 123 121 122 125 120 113 109 108 109 108 106 105 105 101 99 102 100 96 93 94 100 100 104 104 106 109 114 118 111 106 95 80 86 91 92 86 88 91 89 94 100 104 101 102 110 118 117 116 108 106 105 105 107 107  82 84 84 84 82 84 83 84 84 85 84 83 81 80 77 77 78 78 79 80 83 85 88 90 92 95 99 104 108 112 114 117 119 121 121 115 110 115 122 129 132 134 134 131 129 128 127 124 122 120 121 122 120 119 120 118 118 118 114 106 103 108 110 112 113 113 120 126 130 137 144 153 159 167 174 176 175 175 170 163 154 145 138 132 126 121 124 127 129 134 140 148 154 161 165 164 163 161 161 156 155 156 159 159 159 158 159 162 162 162 163 163 161 161 161 166 171 175 177 177 177 177 176 176 175 173 171 171 169 170 173 174 172 172 171 165 163 163 167 170 172 176 178 174 166 162 160 158 161 160 159 160 162 163 163 165 163 165 168 168 169 171 171 172 171 171 170 169 168 166 167 169 169 171 172 169 167 165 163 162 164 164 166 168 168 169 169 168 167 166 165 162 160 159 160 159 160 161 161 162 164 165 166 168 170 171 170 172 173 169 165 163 161 162 165 169 171 174 178 178 179 180 183 185 186 188 187 186 184 180 175 171 168 165 163 162 164 164 161 164 165 165 166 165 165 163 160 158 155 152 154 154 155 157 158 159 162 163 164 165 165 167 166 162 160 160 161 160 162 163 165 166 168 173 178 181 183 184 183 178 173 167 164 164 165 169 172 172 171 174 174 172 169 166 164 162 160 159 155 153 151 152 150 148 148 149 151 153 155 155 159 163 164 162 163 163 158 156 154 149 149 149 148 150 149 150 154 158 161 164 163 168 174 171 168 164 162 161 162 160 158 
33 32 33 32 33 37 38 36 37 41 44 43 43 43 43 41 39 40 39 39 39 34 33 29 25 25 19 17 18 15 14 11 5 2 2 4 2 7 8 12 23 32 34 38 40 44 42 39 34 31 33 30 31 31 29 30 29 28 26 21 16 13 19 19 23 27 28 32 31 34 33 36 44 51 52 47 51 47 41 34 34 31 23 23 26 25 26 28 32 35 37 45 55 66 72 75 88 105 106 90 72 55 40 28 26 26 33 42 50 56 60 62 63 57 50 46 38 36 34 31 35 32 32 32 31 31 26 26 26 25 23 16 12 6 4 6 8 5 7 10 26 41 50 59 60 55 41 28 24 24 22 25 34 39 41 43 45 46 47 47 43 42 41 40 44 50 50 49 47 42 41 42 41 36 30 30 28 32 30 27 28 27 30 33 34 32 36 37 35 33 33 31 28 29 30 28 27 25 28 31 33 36 38 41 48 52 54 51 48 47 43 37 31 27 31 41 43 49 53 59 64 62 60 67 75 82 90 91 88 86 78 68 60 50 45 46 51 52 54 53 52 57 63 60 60 60 57 55 48 43 40 35 34 34 35 36 36 34 35 37 39 38 39 42 43 42 40 37 30 28 27 26 28 30 42 53 62 65 65 64 62 56 50 38 33 43 50 49 47 43 41 45 41 36 25 20 25 25 27 31 27 28 26 26 25 25 20 8 7 13 18 16 12 14 21 29 29 20 5 0 0 2 10 13 9 7 9 17 18 16 20 19 28 51 51 41 33 26 26 28 30  75 76 77 80 81 79 82 84 90 91 87 86 88 91 89 89 84 83 80 78 77 76 73 72 73 78 84 87 89 86 87 87 84 84 83 83 78 73 79 87 94 98 103 102 101 99 99 95 90 89 88 87 86 84 88 86 83 81 79 74 69 71 79 82 82 84 89 93 97 102 109 115 126 135 138 138 133 130 126 119 115 108 100 96 89 87 88 93 99 105 108 114 119 120 122 129 148 157 143 130 120 115 114 116 114 114 114 110 108 111 110 108 107 107 110 113 119 127 130 135 135 134 132 132 128 126 126 124 119 121 121 116 110 108 108 108 104 103 101 108 116 124 127 128 122 113 108 105 107 106 110 117 118 119 123 123 124 124 126 123 123 127 127 127 132 133 130 126 125 122 120 119 118 116 117 118 116 115 114 116 120 124 127 128 131 131 127 126 125 128 129 131 134 134 129 124 121 120 119 120 121 119 119 124 126 126 127 123 120 120 114 109 105 109 116 120 127 129 132 135 131 129 135 139 144 147 145 143 139 134 128 123 118 118 117 118 116 119 120 116 118 118 114 116 115 113 110 106 103 102 100 99 99 101 103 103 104 109 113 114 113 115 115 115 113 112 111 108 108 110 111 109 113 117 121 125 131 138 136 132 128 121 113 113 120 126 126 128 123 122 125 121 116 110 108 108 108 107 106 104 102 101 102 101 99 99 98 97 101 105 104 102 104 111 114 112 106 98 88 87 93 96 93 90 91 90 96 97 100 104 104 111 118 118 113 107 107 106 104 108 109  83 84 85 86 84 85 85 87 87 87 89 88 86 84 82 82 82 82 83 83 84 84 85 86 87 93 99 104 111 115 117 119 122 122 123 124 119 114 120 126 130 135 138 136 134 132 133 130 125 124 123 124 123 122 121 122 123 121 118 112 107 112 113 116 118 121 126 129 134 138 143 152 159 166 170 173 173 173 172 166 157 150 144 138 130 127 131 132 138 141 145 152 158 164 168 170 175 178 177 172 166 163 163 161 161 162 163 163 164 163 163 163 162 162 163 166 171 177 180 180 181 180 178 176 173 173 172 171 172 173 171 172 168 167 166 163 161 159 159 164 169 172 176 177 172 165 159 158 159 159 158 162 164 165 167 166 166 168 168 171 170 169 170 173 173 173 171 169 167 166 167 167 166 167 170 171 169 166 163 163 163 165 168 167 168 169 168 168 166 164 162 160 159 159 160 160 159 159 160 160 160 164 166 167 170 170 171 171 171 168 164 161 160 161 165 169 169 174 178 179 179 179 182 185 186 188 186 185 184 180 174 170 167 165 164 164 164 163 161 163 165 166 166 165 165 164 161 159 156 151 151 152 153 153 156 158 160 162 163 165 165 167 166 163 161 160 162 162 164 165 166 165 166 169 173 178 182 182 182 181 176 169 165 165 170 173 174 175 172 174 174 173 169 165 162 162 159 157 155 154 153 152 151 150 150 150 152 152 155 158 160 161 162 163 164 163 157 157 155 151 151 151 149 150 149 151 155 158 160 161 161 166 173 171 167 164 162 159 159 159 156 
32 27 36 36 32 34 38 39 40 42 48 46 45 47 45 45 45 42 39 38 41 36 33 31 25 27 21 14 14 10 12 8 1 0 1 1 3 4 5 7 16 30 33 38 38 41 44 41 40 32 34 36 36 36 34 33 33 27 25 25 20 14 18 19 23 28 31 34 34 31 32 34 40 46 47 49 54 52 44 42 39 35 32 28 31 30 26 29 31 34 40 45 52 61 67 75 89 109 111 89 78 76 72 59 46 34 33 37 43 52 59 60 64 61 53 50 40 36 36 34 35 37 39 40 39 36 35 34 33 28 21 13 6 2 0 0 0 0 0 0 9 24 42 56 60 60 52 35 22 23 23 26 33 42 44 45 46 47 47 49 50 47 44 42 42 49 50 48 49 45 40 42 42 36 33 30 28 27 27 27 28 30 31 33 33 33 36 37 34 33 31 29 26 27 30 31 28 25 26 28 32 36 37 42 47 50 51 50 49 43 39 32 26 27 34 39 44 50 55 61 65 63 62 72 81 87 91 88 85 83 78 67 59 50 47 48 51 56 55 54 54 56 61 62 58 59 59 56 53 48 42 37 35 35 35 32 31 30 31 33 32 37 40 40 40 41 42 44 37 29 27 24 25 29 34 43 54 61 65 65 65 62 57 47 39 46 52 52 53 46 38 39 40 39 31 23 23 27 31 31 29 29 27 28 29 26 23 13 10 9 14 20 14 8 12 21 23 19 11 1 0 1 7 12 14 10 11 17 18 15 20 20 28 49 51 45 37 31 29 32 33  76 78 78 81 81 82 85 90 94 95 93 92 93 94 95 92 88 86 81 84 81 77 76 74 68 69 79 86 87 88 88 84 82 81 84 86 83 79 78 87 95 97 101 103 103 102 101 102 94 92 96 92 89 91 92 92 90 88 86 81 72 75 80 83 85 90 93 94 99 102 104 114 125 129 135 140 137 133 132 126 121 112 105 101 95 94 94 99 103 108 113 118 122 121 122 129 158 176 159 147 144 141 133 120 119 118 114 116 114 110 108 109 111 115 119 121 124 130 135 139 141 139 137 136 134 129 128 127 125 118 113 109 104 103 103 99 100 97 94 98 105 118 125 127 125 118 109 106 106 107 111 118 123 124 128 127 125 125 127 127 125 125 124 124 130 133 130 125 123 121 121 120 116 116 117 118 114 114 113 117 120 123 127 130 128 127 128 126 124 123 124 127 129 131 129 125 123 120 118 119 117 116 119 123 124 125 125 123 121 117 111 106 102 110 118 122 126 128 134 137 133 130 133 139 143 145 143 139 139 135 129 124 122 119 117 117 119 122 120 116 117 120 117 115 115 114 113 109 106 104 101 100 104 102 100 100 100 105 105 108 112 112 112 114 111 111 114 113 109 110 111 112 113 113 115 121 129 133 137 136 132 127 119 119 122 129 130 130 127 122 123 124 117 108 105 105 107 107 106 105 107 103 101 104 102 101 99 98 96 100 106 101 99 104 108 110 106 102 92 84 91 92 92 93 90 91 98 97 99 105 103 104 119 120 114 108 107 106 105 108 108  86 86 86 88 88 88 89 89 90 91 94 92 90 89 88 87 87 86 85 85 87 87 86 87 87 90 95 101 108 115 118 121 122 124 124 127 125 121 119 125 131 136 139 141 139 136 136 135 133 130 129 129 131 129 126 127 128 127 124 118 111 114 118 120 122 126 129 130 135 140 144 151 160 165 170 172 173 174 173 168 161 155 149 142 134 131 133 139 144 146 149 155 159 165 169 173 181 183 185 189 187 182 177 171 166 163 166 165 165 165 165 165 166 168 170 173 176 180 181 182 181 181 179 179 175 174 174 174 173 171 167 166 163 164 164 162 161 156 154 159 165 170 174 177 176 170 162 157 158 158 160 164 164 166 168 167 167 169 171 172 173 173 173 173 172 173 170 167 168 166 165 167 167 167 168 172 171 169 163 161 162 165 167 168 168 168 166 166 165 163 160 159 159 157 158 158 159 159 159 159 158 163 166 167 170 170 169 169 168 165 162 160 159 161 164 167 169 172 178 179 177 178 181 183 185 186 184 182 183 181 175 170 165 163 164 163 163 162 161 164 165 166 166 164 165 164 161 159 157 153 151 152 152 152 154 154 156 159 161 163 164 165 165 166 165 164 162 163 164 166 164 165 164 164 169 175 180 181 182 181 179 175 171 168 172 176 178 178 176 173 174 174 170 166 163 160 161 156 155 153 152 153 151 152 151 151 151 152 153 157 160 161 161 163 164 162 157 157 156 154 153 152 152 151 149 151 154 157 159 159 160 163 172 170 167 163 160 158 157 156 154 
34 26 33 37 37 38 41 41 43 45 49 47 45 44 42 42 45 44 43 40 40 39 35 35 27 27 24 18 13 7 8 5 2 1 0 0 0 1 2 6 9 24 34 35 39 38 42 42 41 36 34 39 42 41 41 38 35 33 31 28 24 17 17 21 25 28 32 32 31 32 36 35 38 40 43 49 52 52 47 47 45 42 38 34 34 34 28 29 32 35 43 46 51 57 66 75 79 83 78 61 48 51 59 68 71 66 57 48 45 50 60 63 61 59 53 48 40 38 39 37 37 41 45 48 48 45 43 40 34 29 27 19 13 9 3 0 0 0 1 5 15 23 34 53 59 62 56 47 32 19 22 28 36 41 46 50 49 53 53 51 51 48 46 44 41 42 46 45 45 41 37 39 41 38 36 29 32 29 24 28 29 33 32 37 39 38 36 33 33 33 29 25 24 28 29 31 31 28 26 27 30 31 38 43 45 47 51 50 47 42 33 27 23 28 36 41 47 51 55 60 65 64 64 74 79 85 87 85 82 80 76 67 60 51 47 47 50 54 55 54 55 60 64 64 62 62 63 55 55 49 44 41 37 32 34 33 31 29 28 28 27 29 32 36 37 44 44 45 46 33 28 23 19 24 29 33 42 52 62 65 66 67 63 54 49 49 52 57 57 50 39 39 38 40 35 25 24 29 32 32 31 31 31 34 35 28 24 16 10 6 5 14 15 5 6 11 15 17 12 3 0 0 6 13 13 15 16 14 13 11 18 22 27 47 51 46 36 28 30 35 31  76 80 80 81 84 87 88 93 95 99 97 96 94 94 94 91 89 85 81 83 83 81 79 74 69 70 75 76 80 83 86 85 80 77 81 85 88 86 80 83 93 99 101 104 105 103 99 101 100 96 99 101 101 100 99 98 95 92 90 87 80 80 85 88 89 90 95 97 98 103 109 114 121 126 131 139 141 139 136 130 123 115 108 103 101 99 98 104 109 115 116 120 123 124 125 124 126 131 126 128 138 145 145 138 135 128 121 118 115 116 116 117 119 122 126 128 129 135 138 141 142 142 145 142 136 134 130 126 123 117 112 108 105 105 105 101 100 98 99 103 102 110 121 125 126 123 115 109 106 109 113 117 121 124 126 126 127 128 128 129 126 126 125 125 124 125 126 123 119 119 118 119 117 116 116 119 116 114 115 118 121 124 127 130 130 129 127 125 122 120 125 124 128 129 130 128 125 121 120 118 115 117 121 121 123 125 125 121 118 115 108 104 104 112 119 123 126 127 131 134 132 129 135 141 142 144 141 137 138 133 128 123 118 120 117 119 120 118 117 118 119 121 120 116 117 117 114 111 108 106 102 100 102 104 103 101 100 105 102 104 110 109 108 113 116 114 115 117 114 112 109 109 111 111 111 115 121 130 135 135 133 130 124 121 124 130 132 134 131 123 120 122 120 110 102 102 103 107 107 109 108 104 103 105 105 104 101 100 96 95 102 103 98 99 102 105 105 103 95 82 84 92 91 95 94 93 97 94 96 101 101 102 116 119 114 108 107 106 107 107 102  89 89 89 89 91 90 91 91 94 94 94 94 92 91 90 89 89 88 88 88 90 90 90 91 90 89 93 99 105 112 117 123 124 126 127 126 130 128 122 125 132 138 139 141 141 141 140 139 139 135 135 135 136 136 134 133 132 130 128 126 118 117 121 124 127 129 132 135 136 140 144 149 158 164 169 173 174 176 174 168 164 157 150 144 141 139 140 143 147 151 155 159 164 169 172 174 174 172 176 184 189 191 190 186 180 175 171 169 167 167 169 171 173 174 175 176 178 179 181 182 183 182 181 180 177 175 175 172 169 167 165 165 165 164 162 163 160 155 155 157 161 167 174 177 178 174 166 159 158 157 162 163 164 168 171 170 170 171 174 174 174 175 173 172 172 172 168 168 167 165 164 166 165 165 166 170 171 169 165 161 162 165 167 166 168 167 165 164 164 163 159 156 157 158 157 158 158 158 159 160 161 163 166 168 170 169 169 168 166 165 161 158 158 162 165 167 168 172 177 178 178 177 180 181 184 184 183 181 180 180 176 172 168 164 163 163 165 164 163 165 166 167 167 167 165 164 160 158 157 154 153 151 151 151 152 153 154 156 158 160 162 163 164 164 166 165 164 164 163 164 163 164 163 163 165 169 176 180 181 182 181 180 176 173 174 178 180 181 180 173 173 174 172 167 162 157 160 157 154 155 153 153 153 152 151 152 152 153 154 153 157 160 160 162 162 159 157 157 157 156 154 154 152 151 149 151 155 158 160 160 158 162 171 170 167 163 159 159 157 154 151 
30 29 30 32 33 40 43 44 45 49 50 50 45 47 44 42 45 45 43 40 41 50 52 47 39 33 26 19 15 10 7 5 2 2 1 0 0 0 1 5 11 16 31 37 37 40 40 41 41 40 37 36 43 44 41 40 41 43 41 33 30 23 21 22 25 27 30 32 29 31 34 33 34 39 44 47 52 52 51 52 50 49 44 39 40 40 37 36 39 38 42 48 52 55 64 70 72 76 74 68 56 45 40 39 44 54 63 72 70 65 62 60 57 55 53 43 38 38 36 36 38 44 48 50 52 51 44 38 35 30 30 26 22 14 9 7 5 6 12 18 24 32 34 42 52 61 61 55 45 25 23 34 39 45 46 48 49 54 54 55 53 48 47 45 43 40 40 41 41 40 36 34 37 37 37 35 35 33 28 32 32 32 33 38 45 43 40 36 37 34 33 30 26 27 29 30 33 32 31 31 30 32 39 44 46 47 51 49 47 42 34 28 20 25 38 44 49 53 55 60 66 65 66 70 76 82 84 82 82 77 74 69 61 51 45 47 50 55 56 54 55 59 65 68 67 66 66 62 57 48 45 42 39 35 34 33 32 28 27 26 24 26 27 30 36 44 42 42 44 38 29 22 18 20 24 26 32 42 55 66 68 67 68 64 59 56 57 61 58 50 40 38 42 42 36 26 26 28 31 34 33 37 36 33 33 26 26 20 8 6 7 9 14 8 2 6 9 11 12 6 0 0 6 13 11 15 18 16 13 16 19 18 25 47 52 45 35 27 30 33 30  72 77 80 82 85 91 91 94 95 99 98 95 96 92 89 89 90 85 82 84 89 94 92 86 81 75 69 69 79 81 81 85 86 80 79 84 87 88 84 85 89 98 102 104 105 105 103 103 105 103 99 104 109 105 106 108 105 101 99 95 88 82 87 91 93 92 95 98 99 103 108 112 116 125 130 137 140 140 139 133 125 118 114 109 110 110 112 115 118 124 124 126 128 130 133 129 125 127 125 125 129 131 135 135 136 140 139 131 124 124 126 128 127 130 129 129 134 135 135 139 142 141 142 144 140 134 125 121 120 119 116 111 109 109 111 105 103 103 105 105 106 108 115 125 129 127 121 114 107 109 113 119 124 124 124 126 128 130 131 129 127 128 127 126 125 124 121 119 119 116 113 115 114 116 115 114 118 118 119 119 121 123 126 128 130 130 126 125 124 123 123 124 128 130 132 132 127 121 117 117 116 117 120 122 122 124 123 123 119 114 108 104 106 114 119 122 125 127 129 129 128 129 132 137 140 141 138 138 136 132 130 125 119 117 118 120 119 116 118 120 121 122 123 122 121 121 117 114 109 107 105 102 102 105 102 102 100 102 104 105 107 107 110 114 119 117 113 116 116 111 109 108 108 108 105 110 113 122 132 134 134 133 129 123 125 131 134 136 132 122 117 120 118 109 102 105 103 104 107 108 109 107 106 105 104 105 101 100 94 95 100 102 101 99 100 102 102 102 99 88 84 96 96 93 95 96 100 96 96 99 100 101 114 118 114 105 102 103 105 103 98  88 88 90 91 93 91 93 94 96 96 95 95 93 91 90 90 89 88 90 93 98 102 102 101 97 96 96 99 106 112 115 121 127 128 130 130 131 133 131 129 132 139 140 142 143 144 145 145 143 140 138 140 143 141 142 142 141 138 136 133 128 123 124 129 132 134 137 140 140 141 147 151 156 162 167 173 175 176 173 169 165 159 152 150 149 149 150 153 156 160 163 167 171 174 177 178 176 176 175 175 178 182 186 187 190 189 184 181 178 174 174 176 178 178 179 179 178 180 180 182 182 182 180 180 179 175 173 170 168 169 167 166 169 168 165 163 160 158 158 159 159 162 169 177 178 176 172 165 161 160 163 165 167 169 171 172 172 175 177 176 173 173 172 171 170 169 167 167 166 163 162 162 162 163 164 167 172 170 167 163 162 164 166 167 168 167 165 164 164 163 159 156 157 157 157 158 157 158 159 160 163 165 166 168 169 169 169 168 166 164 158 157 160 164 167 168 170 171 175 176 178 176 179 182 184 184 182 180 177 180 176 172 170 167 165 164 163 164 163 164 166 167 168 166 165 165 163 159 156 154 151 150 150 150 150 153 154 154 155 156 157 158 161 162 164 165 164 164 163 162 162 162 163 163 163 163 169 175 179 181 182 183 180 178 177 179 183 183 181 172 172 175 172 168 160 155 157 157 155 156 154 154 155 155 153 153 152 154 155 152 154 158 158 159 161 158 156 156 158 154 152 154 152 151 152 154 155 159 159 158 156 160 172 171 167 162 160 157 156 153 148 
27 26 27 30 31 34 38 42 46 48 50 47 45 45 45 39 41 44 44 49 55 60 57 53 51 43 33 25 19 16 12 5 0 2 1 0 0 0 1 4 7 10 18 32 32 35 38 37 39 38 38 40 40 42 42 44 44 44 42 37 35 32 29 26 27 30 33 36 32 30 31 32 36 39 42 47 54 56 55 54 56 55 49 46 46 45 43 42 45 44 42 48 51 57 63 67 70 73 72 72 69 61 53 42 34 28 32 45 60 73 77 74 64 56 49 41 37 31 29 34 38 42 47 51 52 51 46 43 39 33 32 30 22 17 16 13 11 15 22 28 36 41 43 41 48 62 64 58 53 43 28 36 44 47 46 46 52 58 58 57 52 46 46 46 45 41 40 41 38 35 33 32 34 35 41 40 36 37 34 34 36 35 36 39 44 45 42 43 43 41 41 38 32 30 34 36 37 40 35 33 33 34 40 47 47 47 49 47 43 40 29 20 20 26 39 48 50 53 57 62 67 65 61 68 76 80 85 82 81 77 69 66 60 50 47 50 52 57 57 52 56 59 66 70 69 67 67 68 60 50 43 42 41 38 32 32 32 27 26 25 27 26 24 25 33 40 43 42 43 42 33 23 17 15 18 22 28 34 43 58 65 65 71 71 66 67 68 66 63 53 38 34 45 46 39 29 24 25 28 32 33 36 36 34 32 28 28 21 6 7 7 12 18 11 2 4 7 10 12 10 0 0 3 10 8 15 23 22 20 17 15 13 21 46 51 46 35 31 32 32 29  68 73 78 80 85 89 90 94 98 100 98 97 96 93 93 90 91 88 89 96 105 106 105 102 96 84 76 76 83 83 83 83 88 88 85 85 88 89 91 89 89 92 102 103 104 107 108 109 106 106 106 107 109 109 111 112 112 106 106 103 100 95 92 93 97 99 102 103 103 103 105 112 117 123 132 140 142 141 139 136 131 126 122 117 120 120 121 123 126 128 130 131 134 136 135 130 129 130 128 129 130 132 134 134 136 137 140 140 138 137 136 133 133 131 130 130 128 129 133 137 137 138 139 140 137 128 121 121 118 118 120 114 116 115 113 109 108 106 106 108 109 112 113 120 129 132 127 119 113 111 114 121 123 125 125 128 130 132 133 130 126 127 128 128 127 126 124 116 114 114 110 113 113 117 116 112 117 118 120 119 120 122 125 126 126 128 127 127 126 126 125 128 128 129 134 131 130 125 119 119 117 118 120 120 123 124 122 121 118 111 105 104 106 113 121 123 121 126 128 127 127 127 129 136 139 140 139 135 135 131 128 125 121 116 118 120 121 118 119 120 125 126 126 124 122 120 120 116 110 108 106 104 102 104 102 100 101 99 103 105 103 105 107 111 115 115 114 114 116 113 109 107 104 106 105 106 104 111 125 131 133 135 135 130 130 136 140 138 132 121 116 122 120 111 103 104 103 100 105 109 110 106 106 105 105 105 103 99 94 95 99 100 102 99 100 100 99 100 102 94 85 92 96 95 96 103 104 99 98 100 96 98 115 119 117 105 101 103 102 100 99  88 90 88 90 94 93 93 95 95 95 96 94 93 92 91 91 91 92 97 103 109 114 115 112 108 105 100 104 112 118 117 120 128 134 134 134 135 138 139 135 134 137 142 143 143 147 148 147 147 145 143 144 150 149 149 148 146 146 143 140 138 134 132 135 137 139 142 144 144 145 148 151 155 162 168 174 178 177 175 172 168 165 160 158 158 160 161 163 164 167 170 172 174 177 179 179 179 178 176 176 175 177 181 184 189 191 191 191 188 185 181 180 179 178 179 179 178 178 179 180 179 179 180 180 178 174 171 169 170 169 168 170 170 170 167 164 163 161 161 162 162 163 165 173 178 178 175 170 167 162 163 167 169 171 171 173 174 176 177 175 173 173 173 171 169 167 167 166 164 162 161 160 162 162 162 164 169 170 168 167 162 162 164 166 168 167 166 165 164 163 160 160 159 158 160 159 159 160 160 161 164 166 166 167 167 168 167 167 164 161 157 157 160 164 167 170 172 172 174 174 175 173 176 181 185 184 181 180 179 178 176 173 169 167 165 164 162 163 163 163 166 168 169 168 167 166 164 161 156 155 150 150 151 150 150 151 152 154 154 155 157 156 157 159 162 165 164 166 165 162 161 161 162 162 159 159 161 169 175 179 182 184 183 182 183 185 186 183 180 173 173 175 173 169 161 156 155 158 157 156 155 156 156 156 154 154 153 155 156 154 154 157 160 160 160 159 157 156 156 155 153 155 153 151 153 159 158 158 158 157 155 160 171 171 168 162 158 157 154 151 149 
30 24 23 28 34 33 37 42 45 42 45 44 45 44 43 39 39 43 51 56 62 64 64 58 54 47 35 27 25 22 20 13 3 0 0 0 0 0 0 1 3 9 13 24 31 31 33 36 41 40 37 39 43 45 45 46 45 46 43 43 37 36 38 36 39 41 43 42 40 38 35 35 38 39 41 49 52 51 53 53 54 54 49 47 46 46 45 46 44 42 42 46 51 55 61 63 67 70 71 72 72 69 62 54 48 40 33 26 27 36 56 73 82 73 55 41 30 23 27 32 32 39 43 45 48 48 46 44 39 37 34 31 25 22 17 17 21 22 28 36 46 50 54 51 46 54 61 57 55 52 43 37 42 49 47 50 56 58 59 56 49 46 46 45 45 40 41 38 34 34 33 30 33 36 41 40 36 38 39 35 36 38 40 43 48 49 48 46 46 44 39 39 35 35 35 41 42 40 41 39 37 40 42 49 47 46 45 44 39 34 28 18 21 29 39 46 53 54 57 59 59 58 58 64 73 79 85 84 82 76 68 65 63 53 48 48 52 54 53 54 57 62 67 67 68 69 68 68 63 54 44 42 41 38 37 31 29 28 24 25 27 25 28 28 32 42 46 45 43 42 36 26 17 19 21 21 26 29 33 48 59 66 73 77 77 78 78 71 62 52 37 32 42 45 43 33 23 22 22 27 32 32 35 37 32 28 26 21 9 6 5 10 19 16 3 0 5 12 12 12 5 0 0 6 10 19 25 23 20 15 16 17 26 50 54 50 39 31 32 32 30  67 70 77 81 84 85 89 95 94 96 95 96 91 91 93 89 90 94 99 109 116 116 113 110 105 94 89 91 90 93 90 84 85 92 90 84 86 87 89 89 90 91 97 104 106 106 108 112 108 108 107 110 113 115 114 114 117 113 111 110 108 106 104 105 110 111 109 108 110 106 106 114 119 124 134 141 143 144 140 137 129 126 122 123 128 126 127 129 132 134 134 134 137 137 132 128 129 130 130 129 130 136 141 142 145 145 143 137 134 136 139 140 138 133 128 127 125 124 128 132 133 133 135 136 135 129 123 121 122 121 120 119 118 116 115 113 113 113 113 114 116 118 118 119 125 130 131 126 121 116 115 118 123 125 126 129 130 132 132 130 128 129 128 129 124 123 120 116 115 114 110 113 114 114 116 114 116 118 118 118 120 122 126 127 127 130 129 126 126 125 124 126 126 128 131 131 130 128 125 123 120 120 122 121 122 123 119 116 113 109 103 104 107 112 121 123 123 123 124 124 124 125 128 133 137 141 141 139 136 131 128 126 123 119 119 119 120 122 121 122 125 126 126 122 122 120 119 118 113 106 104 106 104 103 103 101 98 95 101 104 103 107 107 108 113 117 115 114 115 114 108 105 100 103 105 101 101 104 114 124 130 134 138 137 140 146 144 137 131 121 118 123 120 115 107 104 103 103 105 106 109 109 108 104 104 105 104 100 95 93 96 103 102 97 98 100 100 95 98 98 85 90 99 95 102 105 103 102 100 100 98 103 118 121 119 109 100 103 102 98 101  90 90 89 90 92 93 94 94 96 98 97 95 94 92 92 92 95 101 108 117 122 124 124 121 116 111 109 111 117 125 126 123 127 136 138 137 139 140 141 140 137 137 139 144 145 146 149 150 150 149 149 150 153 155 151 151 151 150 148 145 144 143 142 143 144 144 147 149 149 150 151 153 158 163 170 176 179 181 180 177 175 171 166 166 167 167 169 171 172 172 173 176 178 178 178 178 178 178 177 177 178 179 183 186 187 189 191 189 189 190 189 189 186 182 177 175 175 174 175 176 177 178 178 178 176 175 172 171 169 170 170 171 171 170 168 166 164 163 163 163 167 167 168 171 175 178 176 175 170 165 162 165 168 170 172 174 174 175 174 175 172 172 173 171 169 168 168 166 162 161 160 159 160 160 160 160 164 167 169 170 166 164 165 167 168 167 167 166 165 163 160 161 160 159 159 161 162 162 163 163 167 167 167 167 169 168 166 165 161 159 157 155 160 166 168 170 172 172 173 173 173 174 175 178 182 182 180 180 180 178 176 174 170 167 167 166 165 163 164 165 166 167 169 170 169 167 166 163 158 154 151 150 150 149 150 151 152 154 153 155 157 156 156 158 163 166 163 164 163 163 161 159 162 161 157 158 156 160 169 176 180 183 186 189 191 190 188 183 179 173 171 176 175 169 161 155 154 157 157 158 158 156 157 157 155 154 154 155 155 155 155 156 158 159 160 159 158 156 156 156 154 154 154 153 157 161 161 159 156 155 155 160 172 174 169 164 156 155 153 150 149 
33 20 22 26 29 33 35 35 43 44 46 45 41 40 42 42 42 48 56 61 66 64 66 64 53 49 40 33 31 32 30 26 13 3 2 1 0 0 0 0 1 4 12 16 26 31 35 37 38 41 37 39 41 43 43 44 46 47 46 44 42 41 41 44 49 52 51 51 51 50 47 41 37 39 41 44 45 48 49 50 50 51 48 46 46 49 48 47 46 44 44 45 45 48 54 58 64 70 72 74 71 67 64 58 52 49 44 40 33 25 27 35 52 70 74 64 40 22 18 21 31 38 42 44 43 44 45 44 42 39 37 33 28 24 22 23 25 30 36 41 48 52 55 56 49 46 54 56 56 55 52 43 38 43 45 51 54 55 55 54 50 47 45 42 40 37 40 40 37 34 31 29 33 34 39 40 38 37 38 38 40 41 43 50 50 52 54 49 44 41 38 37 35 33 33 34 37 37 43 45 43 45 46 51 49 47 49 48 42 32 28 19 21 33 42 48 54 53 54 56 56 53 58 63 66 74 81 84 82 78 72 64 63 56 49 49 50 54 53 52 55 60 63 67 69 71 70 69 66 59 49 41 37 39 38 29 28 28 21 24 26 28 29 30 33 43 48 48 45 46 41 33 25 25 21 21 23 24 24 36 53 65 75 83 87 90 84 76 61 48 35 30 43 50 48 36 25 22 23 23 30 33 34 35 32 26 27 26 12 5 5 10 17 18 6 1 6 12 14 16 9 0 0 4 19 25 24 23 19 15 16 23 33 52 57 52 44 33 31 33 34  64 69 75 78 84 84 86 92 96 98 97 93 91 89 89 88 94 102 109 118 121 123 121 116 110 100 94 98 100 103 102 93 85 89 90 87 86 86 88 90 91 90 93 100 104 103 105 108 109 110 111 113 117 116 116 117 121 120 116 114 112 112 110 114 115 117 118 119 118 116 115 118 122 127 134 140 140 140 139 135 130 126 125 126 130 131 131 133 133 137 140 137 139 137 133 132 131 132 133 133 137 141 146 146 149 149 147 144 138 131 129 133 138 140 137 126 117 114 117 123 128 129 130 132 136 133 128 127 126 124 123 119 118 119 120 116 117 119 118 117 119 122 123 124 123 128 131 128 127 121 117 117 121 124 127 128 129 130 128 127 127 126 124 123 121 121 120 116 112 111 109 111 113 114 116 115 114 116 118 120 123 121 126 129 130 132 130 126 123 123 121 122 125 126 126 128 129 127 128 126 122 123 125 125 125 125 121 114 111 106 102 101 106 116 121 122 122 123 124 122 121 125 128 130 134 136 141 140 137 135 131 127 125 122 121 121 119 121 121 122 123 122 124 124 125 124 123 124 118 113 107 103 101 101 100 99 96 97 99 101 104 109 107 109 115 120 121 118 116 116 111 105 103 103 104 101 99 97 104 117 130 137 143 148 155 153 147 138 129 119 116 122 124 120 109 101 99 102 104 108 109 111 111 106 106 106 104 100 95 91 94 100 99 96 100 104 101 98 98 99 90 90 95 97 103 104 106 104 101 104 107 111 124 126 121 113 102 102 101 101 103  89 89 89 90 92 92 96 96 96 97 97 96 96 94 92 95 103 112 119 128 131 134 132 128 124 119 118 120 125 131 136 132 128 132 140 141 141 142 143 143 140 139 140 143 145 146 148 152 151 151 152 154 155 158 156 154 154 154 152 150 149 147 147 150 152 153 154 155 156 156 157 157 162 167 173 177 180 181 180 179 176 173 171 171 172 172 175 175 177 177 176 178 180 180 178 178 178 179 180 182 184 185 187 188 189 189 188 187 187 186 188 190 191 190 185 177 171 168 167 169 174 177 177 176 177 175 171 170 171 171 172 171 170 170 168 169 168 166 164 165 168 169 171 171 171 175 177 175 173 169 164 163 167 171 173 173 174 174 172 172 170 172 173 169 168 168 166 165 162 160 159 158 157 158 160 160 161 167 169 171 170 166 165 168 169 169 169 166 162 162 161 160 160 159 159 160 162 163 165 166 167 168 169 170 169 168 166 162 159 158 155 156 161 163 167 169 171 172 172 170 171 173 175 177 179 182 181 179 179 176 175 174 172 169 167 166 165 164 163 163 164 167 169 171 169 167 167 165 161 156 152 150 150 149 147 148 150 150 150 154 157 156 157 159 164 166 166 162 161 162 160 160 162 163 160 157 151 151 161 170 178 184 188 195 196 193 189 182 177 172 169 175 174 169 162 157 154 153 154 158 160 158 159 158 158 158 156 154 153 155 154 155 158 159 160 160 157 157 156 157 156 155 156 158 161 163 162 160 155 155 156 158 171 173 169 162 156 154 151 150 151 
37 14 19 24 27 31 32 35 42 46 46 44 40 38 37 37 42 49 55 66 69 65 65 66 57 55 50 45 40 37 35 31 22 11 1 0 0 0 0 0 0 2 9 16 19 30 34 29 31 36 37 40 40 43 46 45 45 46 46 45 46 43 44 51 53 57 56 55 54 56 53 49 43 42 39 40 45 48 50 52 50 49 51 52 52 49 51 51 49 47 45 43 42 45 47 51 58 64 68 71 70 66 67 59 54 52 46 44 43 43 40 25 18 26 48 70 70 51 27 19 26 34 39 40 41 44 43 44 43 41 40 37 31 28 28 31 32 37 41 44 49 53 58 61 56 49 46 50 53 55 56 52 43 37 44 49 52 52 50 49 46 44 43 42 39 36 42 41 38 32 34 33 34 36 37 42 41 38 35 41 45 45 48 51 52 52 53 48 45 40 37 36 35 33 34 34 35 38 40 42 42 44 49 54 53 51 52 49 43 37 27 21 25 35 44 50 53 50 52 54 53 53 58 67 66 71 76 77 80 77 72 67 62 56 49 48 51 54 53 52 54 58 63 68 69 71 72 73 67 59 50 42 35 36 34 32 30 26 24 23 26 30 29 29 34 43 47 50 51 49 48 44 36 26 20 19 19 19 22 27 43 62 80 92 97 101 94 80 64 48 35 32 44 50 48 39 24 22 25 24 27 31 31 31 33 30 30 27 15 5 7 10 15 18 8 4 8 13 19 21 18 2 0 5 24 27 26 26 25 23 21 24 29 51 58 53 48 37 32 33 36  65 67 72 77 82 83 87 91 93 94 93 91 92 90 90 92 100 108 119 125 128 129 128 123 118 111 106 110 114 111 111 106 92 88 88 93 91 87 88 90 91 92 95 97 101 101 101 105 108 109 112 117 117 118 121 120 120 122 120 116 115 115 116 117 120 122 121 124 125 127 126 123 126 129 132 138 140 140 137 133 130 124 124 125 127 130 130 133 134 137 138 138 138 138 135 135 138 138 139 137 140 142 143 145 147 147 147 147 146 145 134 122 121 128 136 138 128 112 107 113 124 130 131 134 134 133 129 129 128 125 124 121 122 122 123 121 120 120 117 119 122 124 125 124 125 124 125 124 127 125 120 116 117 120 123 125 125 126 123 122 125 123 124 122 120 121 120 117 112 111 108 108 110 111 115 116 114 115 120 121 123 123 124 125 126 129 129 124 121 118 119 119 119 122 122 124 124 126 127 125 126 126 127 127 125 127 122 116 113 107 103 102 109 117 120 124 124 122 124 123 120 123 129 129 132 134 136 138 139 138 133 129 125 123 122 120 122 120 119 119 120 124 128 125 124 126 126 121 120 116 111 104 102 100 99 95 95 96 96 100 104 109 107 106 114 119 122 122 120 119 116 111 109 104 106 104 96 94 99 111 127 143 156 162 165 160 149 136 126 117 115 124 127 123 110 101 101 101 104 106 106 109 110 108 107 106 107 97 92 95 97 99 99 98 104 107 103 102 100 97 94 88 94 103 106 107 109 109 109 108 112 116 125 130 122 114 106 104 101 101 103  87 87 89 92 93 92 95 94 95 96 95 99 98 95 95 101 111 119 129 135 141 141 140 136 132 128 127 130 136 139 144 143 135 130 139 143 143 144 145 145 145 142 141 144 145 146 148 150 151 152 154 156 157 161 162 159 158 157 154 152 152 151 153 156 157 160 159 160 161 162 165 164 166 170 173 177 181 181 181 180 176 174 172 173 175 175 177 178 178 180 180 180 179 179 179 181 182 183 184 186 186 185 186 188 189 188 187 184 186 186 182 181 182 186 190 188 178 168 161 165 172 175 175 177 176 174 174 172 172 173 174 173 171 172 172 171 171 168 167 168 169 171 172 172 171 171 175 175 174 172 170 166 165 169 172 173 172 172 170 170 169 170 169 168 167 166 164 163 163 160 158 158 156 155 157 159 159 164 169 171 173 170 167 167 167 168 166 163 161 161 160 160 161 159 158 159 161 164 165 166 167 168 171 172 170 168 166 161 159 156 155 156 160 163 168 168 171 170 170 168 167 170 174 176 177 179 180 179 179 177 176 174 171 169 168 166 164 163 162 162 164 165 168 168 169 166 167 166 162 158 154 150 151 150 147 147 149 149 150 152 154 156 157 159 160 165 170 166 165 164 164 165 164 164 162 158 153 149 153 162 175 186 195 200 201 198 191 182 175 167 166 174 174 170 163 156 152 152 154 156 160 160 160 160 160 161 158 156 154 153 154 155 157 158 161 162 160 156 154 155 158 156 157 161 162 164 162 160 157 152 153 158 170 173 170 163 156 153 150 151 152 
39 17 21 25 27 28 31 34 41 37 40 43 38 37 36 40 46 49 55 63 66 66 64 66 61 59 51 46 45 42 38 34 30 18 8 1 1 1 0 0 0 2 4 13 16 20 24 25 28 31 37 41 41 42 44 47 44 44 46 45 47 46 48 51 56 59 63 63 60 60 54 53 51 45 43 45 47 49 52 52 55 56 56 57 58 54 54 52 52 49 46 44 43 42 47 49 52 58 62 67 68 66 63 60 57 54 48 46 48 49 48 39 27 17 13 26 50 66 64 49 32 30 38 38 40 42 42 42 40 39 40 39 35 33 32 33 36 39 41 44 53 58 63 65 60 55 47 45 48 50 56 58 50 39 41 45 47 45 43 45 42 44 43 41 38 38 43 40 37 36 35 33 34 38 39 40 39 41 38 43 47 48 53 48 48 50 51 49 47 40 34 34 35 31 32 34 35 36 37 40 44 45 47 52 55 53 53 49 45 39 29 21 30 36 45 52 50 50 50 49 46 47 54 63 67 68 69 71 76 74 69 64 63 58 50 49 51 54 53 51 52 55 62 67 69 71 75 75 71 61 51 42 35 32 30 32 29 28 28 26 26 27 27 29 31 38 45 50 55 50 48 47 39 30 22 20 18 15 20 24 37 60 79 93 101 105 99 86 69 48 34 31 45 51 50 39 25 21 24 24 23 28 28 30 33 32 30 29 17 7 6 10 15 18 12 7 11 16 19 21 22 7 0 5 26 29 29 30 30 28 22 17 22 46 55 56 49 39 37 36 35  62 67 68 76 80 81 87 91 88 89 91 89 89 88 90 97 106 115 124 131 135 135 133 128 126 121 114 117 122 117 115 116 107 91 86 91 92 90 93 95 93 94 93 95 99 102 102 103 106 111 113 115 115 119 122 120 121 123 121 119 118 120 117 121 123 122 123 125 126 129 129 128 131 132 135 138 141 140 137 134 128 123 122 124 127 131 132 133 136 138 138 138 137 138 137 137 140 139 136 135 137 139 138 140 145 146 144 146 148 145 138 128 117 115 119 128 136 133 121 114 122 131 133 134 132 133 127 126 125 124 126 124 125 127 125 122 122 120 119 120 124 125 126 127 126 124 122 122 123 124 124 119 115 118 121 124 124 122 123 120 122 122 120 123 123 121 119 117 113 112 110 111 112 114 116 116 117 117 119 119 122 125 122 124 124 124 123 122 118 113 114 115 114 118 119 120 121 124 125 122 124 126 126 128 126 124 121 116 113 107 102 105 110 115 119 124 123 123 123 119 119 123 128 130 129 132 135 138 137 138 133 132 127 124 120 120 120 117 117 119 119 124 130 125 125 128 127 126 125 116 109 104 101 100 99 96 95 97 98 101 100 104 105 103 107 115 119 122 124 122 119 118 112 108 106 102 99 97 96 108 127 145 161 169 170 164 154 139 123 113 113 124 128 122 111 103 102 102 101 102 105 108 108 108 109 108 108 99 93 96 96 96 98 101 106 110 110 105 104 101 99 91 96 107 107 109 109 110 110 108 110 112 124 126 119 113 107 104 102 102 106  86 86 89 90 90 92 93 93 96 97 98 99 99 97 99 108 117 127 137 145 148 149 148 143 140 136 135 140 144 148 150 153 147 136 136 141 145 147 149 149 148 145 144 145 145 146 148 149 151 152 155 157 160 160 164 165 164 160 156 155 153 152 156 160 161 163 163 163 164 166 168 169 171 172 175 178 182 183 184 182 178 176 174 175 176 177 178 179 179 179 181 180 179 178 181 184 185 185 185 185 184 183 184 185 185 187 186 186 186 186 182 178 174 175 181 186 187 182 172 168 170 174 177 177 178 175 176 174 174 173 173 174 174 172 172 173 172 169 168 169 171 171 172 174 173 171 171 174 175 174 173 169 166 167 170 171 172 169 168 169 168 168 166 165 165 165 163 164 162 160 159 158 157 156 156 158 158 160 167 171 173 173 169 167 167 166 165 162 161 161 160 159 160 160 159 160 162 164 166 168 169 170 172 171 171 167 165 161 158 156 154 157 161 164 167 169 170 169 169 167 166 169 175 176 176 176 178 179 179 178 177 176 171 169 168 165 163 162 161 162 163 166 168 169 169 169 170 168 163 158 155 152 154 152 150 149 149 151 150 152 153 155 157 158 161 163 167 167 167 167 168 168 168 164 162 158 155 151 152 162 176 189 199 202 203 201 194 183 173 163 163 171 173 171 163 155 153 153 153 155 159 159 159 161 160 158 157 155 153 152 153 155 157 158 163 164 162 157 155 156 158 158 159 162 164 162 160 160 157 152 152 157 169 173 171 163 157 154 151 150 151 
38 18 19 20 22 26 28 28 33 34 34 36 39 37 34 39 46 50 53 60 65 66 64 62 58 57 51 49 49 46 41 35 32 23 19 8 0 2 3 1 0 1 3 6 12 14 18 24 28 31 33 36 41 41 39 42 44 44 44 45 46 50 52 54 59 61 65 64 60 59 57 55 52 49 50 51 50 48 50 53 57 58 59 60 58 58 58 56 55 54 52 49 46 42 47 46 50 58 61 64 68 70 64 61 58 56 51 48 49 51 45 36 31 26 17 7 10 31 52 66 66 52 43 41 40 41 42 42 39 37 39 35 35 35 32 28 31 36 41 46 53 60 62 65 63 57 52 43 39 48 52 55 56 47 39 41 45 41 38 42 40 42 41 37 38 37 40 41 38 35 36 36 34 38 41 39 40 42 38 41 48 48 52 50 46 47 51 50 47 41 36 34 33 30 30 30 33 33 36 43 47 49 51 52 54 54 52 47 46 39 31 26 32 39 46 50 52 49 48 48 42 43 50 58 63 64 67 69 71 74 69 62 60 58 54 49 50 52 53 51 47 51 59 66 71 73 77 76 72 66 55 41 32 28 25 27 26 27 31 29 26 26 23 29 32 36 38 44 51 51 48 47 42 33 29 23 18 15 18 27 37 56 71 89 100 99 96 87 73 50 34 31 44 54 50 37 26 22 21 21 24 26 27 27 31 31 32 31 20 14 10 10 11 15 12 7 13 18 18 23 22 14 0 1 19 28 28 28 26 22 18 12 17 39 52 54 43 37 37 38 37  59 64 66 74 77 82 82 85 86 87 89 89 89 90 93 101 110 119 127 134 138 139 134 130 126 120 119 120 123 122 120 119 114 103 91 88 93 93 92 96 94 94 96 95 97 99 100 100 105 109 112 115 116 119 118 120 121 123 123 120 122 122 121 123 123 121 124 124 128 128 128 128 131 135 139 139 141 141 137 133 129 125 124 122 123 126 129 132 133 137 141 142 138 137 137 137 138 136 134 133 133 135 135 135 141 143 147 147 143 138 129 123 118 113 110 113 122 128 136 136 132 132 132 134 134 132 127 126 126 125 124 124 127 125 123 123 121 121 120 120 123 124 127 131 128 123 123 119 120 123 123 122 118 118 120 122 120 118 118 120 120 121 120 120 121 123 121 120 118 114 113 112 113 116 114 114 115 114 117 119 121 124 123 120 122 121 120 119 116 113 112 112 111 111 115 117 119 119 121 123 125 126 127 128 126 123 122 119 114 108 103 109 113 116 121 124 122 120 118 117 118 121 125 131 130 131 134 137 139 137 133 132 130 124 118 118 115 116 117 118 118 121 128 126 128 131 132 129 125 116 110 106 102 100 98 101 101 102 103 101 101 100 104 105 110 115 117 120 123 117 117 120 115 112 108 104 103 101 104 112 125 141 159 169 171 164 155 141 122 110 110 122 126 123 110 103 101 102 102 103 104 105 107 108 108 109 107 103 97 97 98 97 97 100 106 113 109 102 101 101 103 98 96 107 108 106 109 110 107 109 108 109 118 120 120 111 106 103 102 104 103  86 86 90 90 90 92 93 96 96 97 98 99 99 100 105 114 124 134 145 152 155 158 156 149 144 139 139 143 148 153 155 157 156 146 139 142 146 148 149 150 150 148 147 144 145 146 146 148 150 152 155 156 158 159 162 165 164 161 159 157 156 157 159 161 163 165 165 165 166 167 169 169 171 175 178 179 181 184 184 182 180 177 175 175 177 176 175 176 177 179 180 180 181 179 181 181 181 181 181 182 180 179 181 180 181 184 186 186 184 180 179 175 172 169 168 173 181 186 185 181 178 177 177 179 179 176 176 172 172 173 173 174 173 173 171 172 172 171 169 168 170 172 172 173 174 172 171 171 172 173 173 172 169 167 167 169 170 169 167 168 167 165 164 164 165 166 164 164 162 161 160 158 158 157 156 157 158 159 164 171 174 175 170 168 167 166 165 163 161 160 160 158 159 158 160 160 162 162 165 168 170 173 174 172 170 168 165 162 159 156 153 158 162 164 166 169 169 170 168 166 166 170 173 175 175 175 176 177 178 178 177 175 175 171 167 164 164 163 160 160 162 166 169 172 170 170 170 169 167 163 159 155 153 153 153 152 153 154 153 154 155 156 158 160 163 163 165 168 169 170 172 173 171 168 163 160 157 154 155 164 177 188 197 204 203 199 194 184 172 162 161 171 175 171 164 155 154 153 155 156 156 159 160 161 161 160 159 155 153 153 152 154 157 158 163 165 163 159 158 158 160 161 161 162 164 163 162 158 154 152 152 156 169 171 169 162 157 155 153 151 152 
36 15 15 16 19 23 26 26 28 31 30 31 32 32 32 36 40 50 54 55 61 65 60 54 52 50 50 52 49 45 40 34 32 28 25 22 11 2 7 6 1 0 0 3 6 10 15 18 23 27 32 31 35 38 36 39 44 44 45 44 45 48 52 55 60 63 63 62 61 60 58 56 51 47 48 48 50 50 52 53 56 59 61 62 63 61 60 58 58 57 55 53 53 51 50 50 55 62 65 66 66 66 64 62 62 60 53 51 48 47 42 34 29 29 23 11 5 9 18 33 50 64 68 58 46 41 41 40 37 35 35 33 34 34 35 30 30 33 40 47 50 56 60 61 63 60 54 46 37 41 45 53 58 54 45 38 41 41 38 40 40 40 40 36 38 41 42 42 40 39 39 39 38 39 41 40 38 38 37 40 45 48 51 52 48 47 50 52 52 45 38 35 32 32 29 30 32 33 37 45 50 52 58 58 58 56 50 44 41 39 29 24 33 43 44 47 52 52 48 45 39 38 47 55 61 64 64 68 69 70 70 66 59 57 56 51 48 50 50 49 46 50 56 63 72 74 74 77 75 66 55 46 36 30 25 25 24 24 28 26 24 22 20 22 28 34 36 39 43 44 43 43 39 36 32 30 27 20 22 29 34 46 63 81 91 96 89 81 70 54 40 35 46 54 49 39 25 19 20 22 21 22 20 24 27 30 31 28 19 15 15 9 10 16 15 7 9 19 21 22 21 21 2 0 12 25 22 22 22 19 14 3 13 39 50 49 44 38 36 39 40  60 62 69 71 75 80 81 84 85 85 86 87 86 87 92 101 113 122 127 133 137 133 127 127 123 118 121 122 123 122 121 118 116 111 105 95 92 96 99 94 94 94 95 94 96 98 101 101 104 106 107 109 113 115 116 120 121 121 122 122 123 121 120 125 124 122 122 123 122 124 125 124 126 132 135 138 139 141 137 133 131 126 123 119 118 119 121 126 131 136 141 143 145 142 140 142 141 139 137 133 132 133 136 137 141 142 144 142 137 133 126 121 117 112 107 107 110 116 121 129 136 139 137 136 132 129 130 127 123 123 120 120 121 123 121 120 118 118 119 118 119 124 126 128 127 125 123 114 114 120 122 123 124 119 117 120 118 118 119 118 114 119 122 120 125 123 122 121 121 116 114 113 115 115 113 111 113 112 117 119 122 124 122 117 119 118 120 121 116 111 109 107 109 107 111 114 117 118 121 125 128 129 131 129 125 122 120 117 113 107 102 107 111 116 119 123 124 122 119 115 113 118 127 128 130 127 129 134 137 136 134 133 130 126 123 119 115 115 114 115 115 120 125 129 130 128 130 131 125 117 112 108 105 101 100 97 99 102 104 105 104 99 101 105 110 112 114 118 120 116 116 117 120 116 112 108 107 108 111 115 125 138 150 161 166 161 150 138 125 114 112 121 127 122 111 104 103 103 103 104 103 101 104 108 108 105 104 102 98 96 94 98 99 98 102 110 110 103 99 100 101 96 90 103 107 106 110 111 103 104 101 104 115 116 117 109 105 105 105 103 102  88 88 90 92 92 92 94 95 95 96 98 98 99 103 111 121 131 141 150 157 162 163 156 150 146 142 140 146 152 156 157 156 157 153 146 142 146 148 150 151 151 151 149 147 146 145 145 146 148 149 151 154 157 160 161 164 163 162 162 159 158 160 163 163 164 166 167 167 168 166 167 168 171 174 177 181 182 182 183 182 179 176 173 172 172 173 172 173 175 177 177 180 182 182 181 181 180 180 181 181 179 179 179 181 182 182 183 182 179 176 176 173 168 166 163 163 168 174 181 187 188 186 182 179 178 176 174 171 172 173 173 171 172 172 171 171 170 170 169 167 169 171 171 170 172 171 169 167 168 170 172 173 171 168 167 169 168 167 168 168 166 164 163 163 163 165 165 163 162 161 160 159 159 157 156 156 158 159 161 168 174 174 172 167 165 164 165 163 161 159 157 157 157 159 159 161 162 164 167 168 170 175 175 171 170 167 164 162 158 154 152 156 162 165 167 169 167 170 168 164 165 168 170 173 174 173 174 176 177 178 176 175 174 172 167 163 164 163 160 158 161 166 170 170 171 172 171 171 169 165 162 158 155 152 153 154 155 157 156 155 155 155 157 162 164 165 167 169 171 173 173 173 173 170 167 164 160 161 162 167 175 183 192 199 200 197 191 182 173 165 160 170 174 171 164 157 154 155 157 156 155 159 160 160 159 160 160 158 158 155 153 154 154 158 161 166 163 159 159 159 161 159 157 163 165 163 162 156 154 152 152 158 168 170 167 160 156 155 153 152 153 
35 12 16 18 19 20 23 21 20 26 24 24 25 25 29 34 40 49 51 52 58 57 47 45 47 43 45 50 48 43 41 38 36 33 30 28 26 11 6 8 9 2 0 0 2 7 13 14 22 24 28 28 30 33 34 36 40 42 41 44 49 48 50 56 59 61 63 65 64 62 58 56 51 45 46 46 46 50 53 54 60 63 64 66 72 69 67 66 64 62 61 61 59 56 54 56 58 61 67 69 68 67 66 64 64 58 53 53 48 49 50 42 36 35 25 13 14 20 20 18 17 30 54 66 64 51 43 41 38 35 35 34 34 33 35 37 34 32 37 44 52 55 56 58 60 58 54 50 38 35 45 54 56 54 53 41 38 38 33 35 41 37 39 39 39 42 43 44 42 39 35 34 34 38 35 35 36 34 37 39 42 48 52 54 50 46 48 53 56 49 40 33 32 32 33 34 34 39 43 49 53 55 61 62 59 58 53 46 44 40 31 31 38 43 46 48 52 54 51 47 40 37 45 53 58 65 65 66 69 69 70 65 59 57 56 53 49 48 50 47 45 48 55 61 69 75 74 73 73 67 58 48 40 34 27 24 18 17 19 21 16 17 18 17 22 28 33 33 36 40 39 41 41 40 35 33 31 27 27 29 34 42 53 69 80 87 82 76 67 61 52 45 51 55 52 40 24 18 23 23 23 25 22 25 27 27 30 29 24 22 21 12 9 16 15 8 6 16 22 19 21 22 4 0 5 23 22 16 18 13 12 10 13 39 48 45 42 36 39 39 36  61 64 65 70 74 76 79 81 81 81 82 83 86 86 93 101 113 123 127 130 130 123 118 118 118 118 120 121 123 124 122 122 117 116 113 107 98 97 102 101 94 94 94 94 95 96 99 103 103 104 105 108 110 112 114 118 118 119 120 123 122 123 122 122 124 124 124 121 118 120 118 118 120 124 130 134 138 139 135 134 133 127 120 118 116 115 115 121 129 135 141 146 148 147 145 142 142 142 141 137 135 135 135 138 140 138 136 134 135 133 126 122 121 115 107 109 111 114 116 116 123 134 138 139 134 128 128 125 121 124 122 121 121 121 121 121 119 117 117 118 117 121 122 124 125 125 121 115 114 117 118 121 124 121 116 121 118 119 119 116 113 118 120 123 123 123 126 125 122 120 113 113 114 114 111 110 112 113 117 119 123 123 125 117 116 116 122 128 122 110 104 104 108 110 112 114 117 122 126 127 129 134 135 131 128 123 119 115 113 108 104 108 113 117 119 122 124 123 122 118 113 117 124 128 129 126 124 130 133 135 134 129 128 127 122 120 117 113 112 112 112 117 122 126 129 128 129 129 123 117 113 109 109 103 101 97 100 103 103 104 103 100 100 104 110 114 113 115 118 117 117 118 117 117 114 113 113 112 112 118 123 131 139 149 152 147 140 137 130 120 117 122 128 121 112 105 102 103 104 104 104 99 101 105 105 103 104 104 105 104 95 96 99 94 99 104 107 105 99 100 104 93 82 97 106 101 104 105 102 101 99 103 115 116 110 106 105 109 105 101 102  90 89 91 92 93 94 94 95 96 97 100 99 101 107 116 127 137 147 156 164 165 159 153 149 147 143 142 148 151 155 157 157 155 154 153 147 145 147 150 152 151 151 151 148 147 147 147 146 147 148 150 152 155 158 159 161 163 164 165 163 162 162 164 165 166 167 166 166 166 166 166 164 167 172 174 176 178 179 181 181 178 175 172 169 168 169 170 171 172 174 177 181 183 185 183 183 183 183 184 184 182 180 179 180 179 178 176 176 177 175 173 172 172 169 163 163 163 167 170 175 182 186 188 186 182 178 176 174 173 173 174 173 172 171 171 171 171 170 169 169 168 170 170 170 171 168 168 166 164 169 170 171 172 172 169 168 168 166 168 167 166 164 164 163 164 166 165 164 162 163 161 161 160 158 156 156 157 159 161 166 172 176 175 168 163 162 163 163 163 158 155 157 157 159 161 161 164 167 170 171 173 176 176 174 172 166 163 160 158 155 153 157 163 166 167 170 168 167 167 164 164 167 171 173 174 176 174 174 177 176 176 176 174 172 168 163 163 163 161 159 159 163 168 170 170 170 169 169 167 165 161 158 157 156 153 153 154 158 158 157 156 157 157 161 165 168 170 170 172 174 175 173 173 171 171 168 164 165 166 168 172 178 187 192 194 191 186 182 176 170 164 169 173 171 164 157 156 155 158 158 156 157 158 159 159 160 158 158 159 157 156 156 156 158 162 166 165 160 159 160 162 158 154 160 164 162 159 157 155 154 153 158 168 169 165 158 155 155 153 152 153 
36 14 16 16 18 20 23 20 17 21 20 20 20 20 29 34 40 46 47 50 52 43 37 39 42 42 44 44 45 44 40 38 34 35 34 33 35 24 10 4 5 7 3 1 3 4 9 9 12 22 25 24 28 32 33 34 35 35 35 40 47 49 50 56 58 56 61 67 64 63 59 54 49 46 46 48 49 51 52 58 67 70 69 73 76 75 75 72 70 69 69 65 65 65 60 59 56 62 68 67 69 70 68 64 61 57 52 53 56 64 68 63 58 44 28 20 21 23 30 32 26 17 22 34 54 68 64 52 40 34 36 36 37 37 39 38 35 36 40 45 52 50 48 54 59 59 54 46 40 36 36 50 51 49 52 45 36 34 32 30 36 33 36 41 41 40 42 44 42 38 37 33 29 32 31 33 34 36 37 39 42 48 53 58 53 46 49 55 56 52 42 34 35 34 34 40 42 43 47 51 51 54 62 63 61 58 54 52 50 44 35 36 39 43 49 50 47 48 49 45 41 39 44 51 58 66 68 66 64 66 68 63 58 54 54 53 49 51 50 44 42 49 58 61 65 70 72 72 70 67 62 50 39 32 30 27 18 15 18 17 15 14 11 11 17 24 27 32 33 34 37 42 46 43 39 33 30 28 27 31 33 37 45 53 64 72 72 71 67 66 62 54 56 59 48 37 23 20 22 24 22 23 22 20 25 30 31 31 31 31 29 23 13 19 19 10 6 11 19 23 26 28 10 0 0 18 24 13 9 9 9 16 26 41 42 39 32 27 38 38 32  60 62 64 68 71 71 74 78 76 78 80 82 88 90 99 108 115 119 126 127 123 118 115 116 118 117 120 121 122 124 121 119 120 118 115 115 107 99 97 100 99 98 100 99 97 98 98 100 101 102 104 108 110 111 116 116 115 114 118 124 123 125 123 121 119 120 122 119 116 112 112 109 112 118 122 128 133 135 134 135 132 127 122 121 118 114 113 118 125 135 141 145 147 147 145 142 142 143 141 138 136 132 132 134 139 136 133 134 138 139 136 132 126 119 113 113 114 118 118 119 120 121 123 132 139 135 130 126 123 125 125 126 122 122 121 122 120 120 119 119 117 117 122 123 125 124 120 118 115 112 113 119 123 124 119 116 116 116 116 118 114 117 120 121 121 124 125 121 120 119 115 112 112 111 112 111 113 116 116 115 123 126 125 118 111 114 122 125 127 117 107 106 109 113 117 120 123 126 130 131 132 134 135 132 129 125 122 119 115 110 109 112 116 119 118 120 121 123 117 116 114 116 120 125 128 127 125 129 133 134 133 128 123 122 122 120 118 114 114 112 116 121 124 124 124 125 126 124 121 118 117 112 110 107 103 101 98 99 102 100 102 101 98 105 111 111 112 113 115 116 122 123 116 115 116 116 116 115 116 116 119 123 127 132 136 137 133 135 134 129 124 126 128 122 110 102 101 104 104 102 101 101 99 101 103 103 105 110 115 112 105 101 104 97 99 104 105 105 101 103 107 97 82 89 104 102 97 96 99 96 101 105 115 117 111 105 102 104 103 98 100  91 91 93 94 96 96 97 98 99 99 101 102 103 111 122 131 142 151 158 165 164 157 153 148 146 145 145 148 150 154 155 154 150 151 152 149 147 146 147 150 151 151 154 151 151 149 149 147 146 148 150 152 155 156 157 159 160 161 164 165 166 166 166 166 165 166 168 167 165 166 164 162 163 166 167 171 175 178 180 180 179 175 172 171 169 168 167 169 171 174 178 181 184 186 184 184 184 185 186 184 182 180 177 176 178 176 174 177 181 180 179 178 176 171 167 167 166 166 168 168 171 178 184 189 188 183 179 176 173 174 174 172 172 172 171 172 170 169 169 167 167 167 167 168 168 169 169 165 164 168 170 172 172 173 172 167 167 166 165 167 166 164 165 164 164 166 166 165 164 162 162 161 159 160 157 156 157 158 163 163 170 177 178 171 164 161 163 162 163 161 158 157 158 160 163 166 167 168 171 173 173 176 177 175 172 168 163 161 160 158 157 161 165 167 168 168 168 166 166 166 167 168 170 173 176 176 174 173 174 176 176 176 174 172 171 166 162 161 160 158 159 163 166 167 168 169 169 168 166 162 156 156 157 156 154 153 155 158 159 159 158 157 160 162 165 168 170 172 172 173 174 175 174 170 168 169 168 168 167 167 169 174 178 182 186 186 184 181 179 175 170 172 172 170 165 156 154 155 155 156 155 156 154 157 159 158 157 158 159 159 159 160 159 157 162 164 166 163 160 162 163 158 152 157 163 160 156 156 154 154 153 158 169 167 166 159 154 156 155 153 155 
35 15 16 15 15 19 21 24 21 20 19 19 19 23 28 33 37 42 47 46 42 33 34 36 39 41 42 43 42 37 34 36 37 40 41 40 36 35 20 8 3 3 1 2 6 9 10 8 9 18 25 27 27 30 33 35 34 33 36 40 46 49 53 57 56 57 58 61 59 62 65 59 54 50 49 52 52 52 55 60 68 70 73 76 79 80 81 79 75 74 68 67 69 70 70 68 65 69 74 72 72 70 69 70 64 59 53 59 69 70 68 68 70 58 40 33 31 32 34 33 33 32 30 23 25 41 60 67 61 46 38 39 42 43 43 41 41 42 42 45 45 45 46 52 58 60 59 50 46 38 35 42 48 48 47 48 40 33 34 35 34 37 41 41 40 40 39 41 42 40 39 36 32 31 33 32 33 37 37 38 42 47 55 59 55 49 47 52 56 53 42 37 35 36 40 46 50 49 49 52 51 54 62 62 60 59 56 52 50 43 35 36 42 46 52 51 45 43 41 35 35 40 48 52 58 65 70 69 63 63 65 64 57 55 53 53 53 52 52 43 40 49 59 65 65 68 67 68 68 66 60 51 42 35 32 28 23 19 20 20 19 17 13 8 11 18 24 28 32 37 39 38 46 45 42 38 34 30 25 27 30 34 40 41 45 52 61 66 66 66 65 59 62 61 48 35 21 18 19 21 22 22 19 18 21 27 29 30 37 41 35 29 17 19 22 12 9 11 18 29 32 34 19 0 0 13 22 16 12 8 6 15 33 45 41 33 23 19 34 38 37  62 67 69 69 71 76 76 77 79 82 79 83 83 88 100 109 115 120 126 128 121 116 116 117 121 123 121 119 120 118 119 119 121 119 117 114 114 108 100 99 99 101 103 104 102 101 98 98 102 105 105 107 112 113 116 114 113 115 117 121 123 124 125 125 122 118 115 113 113 112 109 105 107 112 116 120 127 131 133 137 134 129 128 124 121 119 118 120 125 133 139 144 145 148 148 144 142 141 140 139 135 133 135 136 135 131 133 141 143 142 141 140 133 125 122 120 121 119 118 120 124 126 123 122 126 132 137 133 127 125 125 128 126 126 123 122 123 122 118 116 116 115 121 125 125 123 122 121 117 113 113 119 122 124 122 118 116 115 115 118 119 118 119 120 121 123 124 121 119 118 115 113 112 109 109 111 112 114 116 116 120 126 126 120 110 111 116 122 124 118 114 111 111 115 120 126 130 128 132 130 133 134 133 132 129 124 122 119 116 111 109 113 117 119 120 120 120 118 112 110 116 119 120 124 128 129 128 130 130 133 134 128 123 120 123 119 116 113 111 113 123 134 135 129 123 122 124 124 123 118 115 111 109 109 106 104 101 98 101 105 107 104 100 101 105 112 116 116 117 119 118 122 120 115 114 114 114 113 114 114 114 114 113 113 121 127 130 131 134 130 127 130 129 120 111 100 99 101 100 101 98 97 99 100 100 103 105 112 121 116 109 102 105 103 103 107 106 107 104 107 109 102 84 85 104 105 99 93 91 89 97 107 117 117 111 102 101 103 105 103 107  92 93 96 98 99 100 101 101 102 101 105 106 108 117 127 135 146 153 160 166 164 158 154 152 151 149 149 150 149 150 150 150 147 147 147 148 150 148 147 147 150 152 153 155 156 153 151 151 149 149 149 151 153 157 157 158 159 160 162 165 166 167 166 166 166 166 167 166 166 164 161 159 159 162 165 168 173 176 178 180 179 177 175 173 171 169 168 169 172 177 179 182 185 185 186 186 185 186 184 180 178 177 177 178 178 176 177 182 183 182 183 181 179 176 173 171 170 167 169 169 169 175 179 183 186 186 185 181 175 173 173 172 174 173 173 172 171 169 168 167 165 165 165 167 167 169 169 167 165 167 168 170 172 174 174 170 166 165 164 164 165 164 165 166 164 166 165 166 165 163 161 161 159 158 157 158 158 158 161 163 169 175 178 173 163 158 161 162 163 165 163 160 159 159 164 169 170 171 173 174 175 175 177 175 172 168 164 164 162 159 161 163 167 169 168 168 168 166 165 167 169 168 171 174 176 176 173 171 171 175 176 175 172 171 169 167 165 161 157 155 158 164 168 169 167 168 168 166 164 161 156 153 154 155 154 155 155 156 158 160 161 160 163 165 165 168 169 169 169 170 171 174 172 171 170 168 168 167 167 167 167 167 169 170 174 179 180 179 180 179 176 179 178 172 165 157 153 154 156 156 155 154 153 153 155 157 157 159 159 162 164 162 160 161 165 168 166 165 166 165 166 161 152 155 160 158 155 157 155 153 152 162 171 167 165 157 153 157 155 155 160 
41 14 15 15 19 22 22 24 21 19 17 23 23 22 26 32 38 43 47 46 42 30 29 30 32 33 38 37 32 28 29 29 33 42 46 42 39 40 37 21 8 4 0 0 4 6 9 15 18 17 24 26 27 25 31 33 35 39 40 43 50 55 54 57 57 61 62 61 62 63 67 67 59 55 53 52 53 51 53 61 66 68 71 76 79 80 82 82 82 78 71 70 71 71 75 75 72 71 75 75 75 75 72 69 63 56 52 65 74 70 70 72 73 73 57 42 41 41 38 32 31 34 41 41 31 26 30 45 68 69 55 45 41 44 47 44 42 43 41 39 41 43 43 48 56 59 61 55 49 45 38 35 39 45 50 52 47 40 36 37 36 37 42 42 41 38 40 44 44 40 36 33 35 32 32 31 35 35 34 37 39 43 54 57 57 54 49 45 48 48 42 42 37 39 47 51 56 58 60 56 53 55 58 60 61 59 57 54 51 42 37 42 49 48 52 53 46 42 38 31 37 41 49 53 58 62 70 71 65 63 61 60 59 57 52 50 49 50 50 43 43 47 53 61 64 63 63 64 64 61 57 51 45 39 36 31 31 26 24 25 24 22 17 12 11 14 20 26 31 40 42 35 40 45 39 35 35 34 28 27 29 33 36 38 40 42 49 59 63 65 65 61 66 65 49 36 24 17 17 16 21 22 20 21 22 25 30 29 32 44 42 34 28 22 23 15 12 17 26 34 36 32 22 2 0 8 24 23 13 10 14 18 37 50 38 24 15 13 26 39 45  68 71 70 71 73 78 80 83 79 83 84 83 83 88 97 108 114 118 125 126 119 117 115 118 120 120 118 113 116 114 114 116 119 122 122 118 119 118 110 105 99 98 99 105 106 109 107 107 104 104 104 105 108 111 115 113 115 119 119 123 127 126 127 126 125 122 118 114 113 111 108 107 104 104 114 117 119 126 131 134 133 131 131 130 127 123 123 127 131 135 139 141 144 148 147 144 143 140 139 138 139 138 141 138 134 133 140 144 144 142 142 144 144 135 130 129 126 123 122 123 127 132 134 131 126 121 126 136 136 129 125 126 129 128 124 124 124 122 118 117 114 112 117 122 122 123 120 120 120 116 114 117 120 124 124 119 117 115 118 119 119 120 121 122 120 121 124 120 119 117 113 112 112 112 109 112 111 111 115 117 117 124 129 122 113 110 107 112 115 116 117 118 116 118 124 131 133 136 136 134 133 133 134 132 129 123 122 120 114 108 112 118 120 121 123 119 117 115 113 114 115 119 119 123 126 128 130 129 130 130 131 128 126 120 120 117 115 113 109 112 127 139 144 138 129 122 121 122 120 117 112 108 108 109 107 104 103 102 106 108 107 108 105 102 106 114 117 120 120 119 117 119 119 115 114 110 108 108 107 108 109 107 106 108 111 115 123 130 133 134 134 137 135 121 110 99 99 100 98 98 99 97 98 99 98 102 102 104 117 119 114 107 103 105 104 108 112 115 110 109 110 105 86 85 101 107 101 91 89 89 95 107 117 116 109 103 99 101 105 110 112  97 98 99 101 101 103 105 105 107 106 108 112 114 121 130 139 148 154 161 167 163 159 157 155 156 154 153 151 148 147 148 147 147 148 147 148 148 150 149 150 152 153 154 155 156 156 156 155 153 152 151 152 152 155 157 157 160 162 163 166 166 168 167 167 167 167 167 165 165 162 161 158 156 159 162 165 169 172 177 179 178 179 177 175 173 172 172 175 177 177 180 182 184 185 186 186 186 184 183 180 179 180 179 178 177 177 180 183 183 183 182 181 185 182 177 174 172 171 171 170 170 173 178 181 181 184 187 188 184 178 174 173 174 175 173 171 170 170 167 167 166 165 166 167 168 169 168 166 165 165 166 167 172 174 173 173 168 166 165 164 163 165 165 165 164 167 164 166 165 162 161 159 158 157 157 159 159 159 161 163 168 175 178 176 164 158 156 159 164 167 168 164 161 161 166 170 173 174 175 175 175 176 175 175 171 170 168 165 162 161 162 165 168 168 168 169 167 165 162 165 167 169 172 172 174 175 174 171 171 172 175 176 173 170 168 167 166 162 158 156 158 163 170 174 170 164 164 163 161 159 157 154 154 153 153 153 153 154 158 162 164 165 166 168 168 168 166 165 166 169 169 172 172 171 168 166 166 166 165 163 162 160 160 161 164 172 177 181 180 180 182 184 180 173 164 156 154 152 153 154 154 154 153 152 152 155 155 157 162 165 167 164 160 162 164 168 168 167 167 167 166 163 156 154 159 158 156 157 156 155 153 165 172 167 161 155 153 156 159 162 164 
46 14 15 19 22 21 22 22 20 24 23 19 20 21 27 33 39 43 47 48 43 30 29 30 26 27 29 23 21 26 28 27 30 37 44 44 44 40 37 29 15 8 2 0 0 0 6 13 20 24 23 27 28 25 28 30 37 43 46 50 54 55 57 55 61 66 67 66 66 67 69 69 63 55 53 53 52 53 57 60 61 64 69 76 78 79 82 81 84 78 74 73 74 75 76 78 75 74 75 79 78 77 70 63 60 54 56 68 73 76 79 79 77 80 66 47 46 46 39 33 33 36 42 47 45 43 36 28 34 52 66 63 51 46 47 43 41 41 37 34 34 39 41 44 54 57 58 55 51 50 44 37 35 44 58 58 51 46 40 40 40 39 40 41 43 41 40 42 40 39 37 32 34 33 31 28 34 33 32 37 39 42 53 60 60 57 47 43 44 44 43 42 43 45 51 56 60 61 62 60 56 57 56 55 59 59 54 53 50 43 42 46 49 50 52 50 48 43 35 28 36 44 52 56 61 61 65 69 66 62 58 56 56 58 56 52 46 46 47 44 41 42 44 52 60 60 62 60 56 56 50 48 43 36 33 36 36 32 34 29 24 22 20 14 12 15 22 30 34 45 49 42 37 36 37 32 29 29 24 25 28 34 35 36 38 40 43 50 60 66 64 63 70 70 54 34 19 14 15 14 15 18 23 24 23 28 31 33 22 27 39 37 31 24 23 20 11 17 35 37 34 31 27 7 0 4 23 25 11 12 16 22 45 51 41 20 1 5 19 37 40  70 72 72 74 75 80 81 82 83 83 85 84 84 90 96 106 113 119 124 124 118 118 117 117 117 116 116 116 117 114 111 110 116 120 121 120 120 118 113 110 104 101 101 100 103 108 110 112 111 107 109 107 105 108 111 113 118 123 123 127 131 128 128 130 128 126 121 117 115 111 106 103 102 101 104 109 115 121 124 127 127 129 131 131 130 128 129 134 133 135 137 140 144 147 145 143 142 141 142 141 141 139 139 138 134 134 138 141 144 145 146 150 151 140 136 134 129 123 123 123 126 130 136 137 134 130 126 125 133 137 134 129 126 129 127 124 123 119 115 114 112 115 117 118 119 121 122 119 119 120 115 113 121 139 143 126 119 119 121 117 118 118 119 120 120 119 121 119 117 115 112 113 111 112 108 111 110 110 114 116 116 121 128 125 118 108 105 105 109 113 116 121 121 124 130 137 139 142 141 139 135 132 133 132 130 124 122 121 115 111 114 118 121 121 120 120 117 112 110 113 116 118 122 123 125 125 128 130 127 129 130 129 130 126 120 117 114 115 111 108 120 136 141 141 136 127 120 116 115 115 112 106 103 104 106 107 105 106 108 108 108 110 107 104 108 116 121 126 130 127 121 116 113 111 109 107 104 101 101 98 102 104 106 108 106 109 116 124 132 135 137 142 140 124 108 97 97 99 96 97 98 101 102 100 100 102 101 97 105 117 116 114 108 106 105 110 115 119 116 110 109 107 89 82 96 103 99 91 90 92 93 111 119 116 105 96 97 101 107 111 112  100 102 104 105 108 108 110 112 112 112 113 115 117 123 132 142 148 156 163 167 165 160 159 158 159 156 154 151 148 146 145 145 146 146 148 149 148 150 153 153 154 154 155 155 156 157 158 158 157 156 155 155 154 153 157 158 159 163 166 167 167 170 170 170 169 169 168 167 166 163 160 158 156 156 159 164 166 170 174 176 176 177 177 176 176 176 176 178 180 181 180 182 186 188 187 184 183 182 180 182 181 182 181 178 177 178 181 182 183 184 184 184 188 186 180 177 176 173 171 170 172 175 178 180 181 181 182 186 187 187 182 178 175 174 173 171 170 168 165 164 165 163 164 166 168 168 168 168 166 166 166 167 171 172 173 174 170 167 166 164 164 164 165 164 164 164 164 165 164 163 161 158 156 155 156 157 159 160 161 162 164 172 178 178 169 160 157 156 161 166 168 169 170 170 171 173 175 176 178 177 175 175 174 173 171 171 167 164 163 161 163 167 168 170 170 167 165 164 162 164 167 171 172 173 174 174 173 171 171 171 174 176 176 174 172 168 165 163 161 156 156 163 170 174 175 169 162 161 159 157 154 153 152 150 150 151 152 156 160 162 165 166 167 169 169 167 165 163 162 165 168 170 168 167 165 163 163 161 160 158 155 156 155 155 158 164 171 178 180 181 183 188 185 174 164 155 153 152 151 153 152 152 153 152 152 152 153 155 161 167 168 167 162 162 164 168 170 170 167 166 164 164 158 155 158 158 157 155 156 154 154 167 173 167 159 153 153 157 163 164 166 
41 16 16 17 22 21 21 24 26 27 26 21 16 19 28 32 35 40 45 44 44 32 28 30 25 22 20 17 17 24 28 28 27 33 35 37 42 41 37 28 20 12 8 2 1 0 1 9 16 24 25 27 29 31 28 26 37 45 48 57 60 62 61 59 63 67 68 67 69 74 78 75 67 60 55 51 49 48 52 54 52 58 64 68 76 82 81 84 84 80 78 77 74 75 77 78 77 81 80 78 79 76 70 64 56 50 54 65 71 78 82 83 84 85 69 55 52 49 42 35 36 44 50 50 49 48 49 45 31 26 31 50 62 61 52 45 45 41 34 31 29 29 34 39 47 53 54 56 54 50 51 44 41 45 53 51 39 42 44 41 42 42 40 41 44 43 40 42 43 41 39 37 35 33 32 29 32 34 34 36 41 46 51 60 66 61 51 48 50 49 47 49 46 48 50 56 66 62 58 59 58 57 58 54 57 61 58 52 50 50 49 47 46 52 51 49 45 41 35 31 37 45 54 58 58 61 65 66 62 61 56 50 54 56 57 58 54 49 47 45 42 37 31 37 46 53 57 58 53 50 45 43 44 38 34 36 38 37 33 32 30 25 21 19 18 22 28 35 45 54 56 55 46 29 23 24 24 21 21 24 28 27 29 33 33 35 36 39 50 59 63 65 70 69 57 35 15 13 13 13 15 22 24 23 24 28 29 30 21 15 30 35 35 29 26 22 13 16 31 41 39 32 26 8 0 1 18 25 11 11 16 24 50 52 40 28 7 5 18 28 33  71 77 78 79 82 85 86 84 85 82 86 85 85 92 98 104 113 120 124 125 118 117 118 118 118 116 116 118 119 117 117 113 114 114 115 115 116 115 114 112 108 107 103 101 102 105 107 111 114 112 111 112 112 109 109 113 118 120 124 131 132 131 130 131 128 125 122 120 120 118 113 105 101 100 99 100 103 109 115 119 122 126 130 134 136 135 137 137 137 138 139 143 146 146 145 140 137 141 142 142 143 142 139 134 129 128 135 139 141 147 151 153 153 144 137 135 129 125 122 124 128 130 134 136 136 136 136 128 124 128 132 134 135 132 130 126 123 118 114 111 108 110 112 115 117 122 122 118 122 122 117 118 123 141 147 128 120 121 120 119 119 118 118 119 119 118 120 120 119 118 115 112 109 109 108 109 112 112 115 116 114 117 126 130 120 110 106 106 108 112 118 122 126 130 134 141 143 139 140 138 135 132 128 129 129 128 125 121 119 117 117 120 120 122 121 120 116 112 111 113 114 120 123 122 123 124 124 125 124 122 127 129 129 129 126 122 115 114 113 110 106 113 125 131 132 131 122 111 109 111 110 108 107 103 104 107 108 110 110 112 111 110 109 108 112 119 124 132 139 142 137 124 109 107 104 102 100 98 100 97 97 102 102 102 105 107 111 116 126 134 136 142 140 125 108 96 96 97 93 93 95 100 99 99 101 100 98 96 98 111 116 117 112 107 107 110 116 120 119 112 108 106 91 81 90 102 100 92 88 90 96 116 121 114 105 98 99 102 105 110 109  104 106 109 109 111 115 115 115 118 119 120 120 122 127 135 143 150 159 165 168 166 162 161 161 161 159 157 154 152 150 147 144 143 146 148 149 149 151 154 154 153 154 156 156 156 158 160 158 160 158 158 158 155 154 155 158 161 164 167 169 170 171 171 171 172 171 170 169 167 166 162 157 155 154 156 159 160 164 167 171 173 174 175 177 179 180 181 181 183 183 183 184 186 186 185 183 181 181 181 181 182 182 179 177 177 177 181 182 185 185 187 189 191 186 181 179 176 175 170 170 172 176 178 179 181 180 180 182 180 183 187 185 180 177 172 172 169 166 164 163 163 162 163 165 165 165 166 167 166 166 169 169 169 171 171 171 170 168 165 164 165 164 167 165 164 165 165 166 165 163 161 159 158 157 157 159 159 160 161 162 162 169 177 179 175 165 158 158 158 162 166 170 176 176 174 174 176 177 177 176 175 173 174 173 172 170 166 165 162 162 165 168 170 171 170 168 167 164 161 163 167 172 172 172 173 173 170 170 171 172 173 175 177 178 175 172 169 163 161 157 153 158 165 172 176 174 167 161 157 155 154 152 150 151 153 156 157 160 164 163 165 167 167 167 169 168 165 162 159 162 169 169 166 164 164 163 161 157 155 153 152 152 154 156 155 156 163 172 179 183 183 188 187 176 165 159 153 151 151 152 151 151 152 152 151 152 151 153 158 166 169 171 166 162 163 168 172 173 170 166 164 163 159 154 156 157 157 155 155 153 154 169 171 165 156 152 156 159 161 163 163 
35 16 19 21 24 25 23 25 26 28 29 25 18 20 26 33 38 41 45 47 47 35 31 29 23 20 14 13 15 20 23 29 30 31 24 25 31 36 34 30 24 15 13 6 3 2 0 3 10 20 29 26 27 32 31 29 37 48 53 60 68 70 69 64 66 68 69 69 72 78 84 82 77 71 64 55 51 49 47 48 51 55 60 64 71 76 80 81 80 81 82 78 72 72 76 77 80 85 83 80 78 73 67 61 52 51 53 63 76 84 85 87 89 85 70 61 56 49 39 36 38 43 54 56 54 53 52 53 45 33 18 17 36 58 66 59 50 43 37 31 27 27 32 36 39 45 49 54 52 50 52 47 46 45 41 33 19 18 35 39 38 38 39 38 36 39 40 40 42 39 40 37 35 33 34 32 34 35 35 37 40 45 46 58 64 64 60 53 52 55 52 48 48 48 51 51 58 60 57 58 55 53 50 51 55 60 64 59 54 54 56 55 53 55 52 51 45 42 37 30 36 42 51 58 59 61 61 61 55 55 53 51 54 53 56 59 57 53 50 49 47 39 28 23 28 37 45 52 49 44 42 42 42 42 38 37 39 38 34 34 33 32 29 29 27 25 28 37 47 57 62 65 57 42 21 9 15 19 22 26 25 24 28 29 30 30 32 35 40 50 61 64 66 64 56 42 27 18 13 10 12 21 24 24 25 27 26 30 22 7 17 29 34 36 32 27 15 13 25 39 42 33 25 8 0 0 12 27 19 15 14 27 47 48 39 35 30 9 12 19 21  76 81 81 83 85 86 86 86 87 88 87 86 88 92 99 107 117 123 126 128 125 121 121 120 118 116 117 116 118 120 117 116 115 108 109 112 113 113 113 112 110 109 107 104 103 103 107 109 112 113 109 110 113 112 112 114 120 123 125 129 133 134 130 130 130 128 125 123 126 125 125 121 116 110 103 100 99 100 104 110 115 120 127 135 137 138 138 139 139 142 144 141 142 141 140 139 141 142 142 142 141 138 135 130 129 128 134 141 143 148 154 155 151 145 140 135 128 123 121 123 128 135 138 139 139 138 137 135 131 128 124 128 136 138 133 127 121 116 112 110 107 106 112 115 115 119 120 119 118 120 122 125 124 129 128 118 115 119 118 118 117 117 117 117 120 120 118 118 117 118 115 112 109 110 110 111 113 114 113 113 114 113 126 129 124 117 112 110 112 113 117 121 124 131 134 141 140 136 138 134 131 127 125 130 133 134 129 124 119 119 121 121 121 122 122 119 114 112 108 112 115 119 122 122 122 120 119 118 118 118 124 128 131 131 132 126 122 118 114 114 106 98 103 112 119 124 124 115 109 105 107 107 110 109 108 109 111 114 114 114 115 114 112 113 116 117 126 138 145 148 150 144 125 106 98 101 100 100 100 98 96 97 96 100 102 103 107 109 118 130 134 137 137 125 113 103 97 94 93 92 95 98 97 98 99 100 99 96 95 105 115 118 115 108 110 109 111 118 118 114 107 100 95 82 85 101 100 94 91 89 100 122 122 113 108 108 102 103 104 102 101  108 110 112 112 113 118 120 120 122 123 124 124 125 129 137 144 151 158 165 168 167 162 162 162 163 162 163 160 155 154 150 148 148 147 148 148 148 150 152 152 152 155 156 157 159 159 159 161 162 161 159 159 156 156 154 157 163 166 167 171 172 173 172 173 174 172 171 171 169 168 167 163 158 156 158 159 157 158 161 164 168 171 174 180 183 186 184 184 184 185 185 183 183 182 180 180 181 181 182 182 183 181 179 177 177 176 180 182 184 186 191 192 192 185 181 179 177 174 170 170 173 177 179 178 180 179 178 178 177 178 181 184 187 186 178 173 169 166 165 165 163 163 163 165 165 165 165 166 166 168 171 170 170 169 170 171 169 167 164 162 163 165 167 166 165 166 166 166 166 164 163 161 159 160 160 160 162 162 163 162 162 167 175 180 179 170 161 160 160 160 165 171 176 178 177 174 174 174 173 172 171 169 169 169 170 170 168 166 162 164 168 170 173 171 170 169 167 163 161 162 166 172 174 172 174 171 169 167 168 172 173 175 176 177 178 177 173 169 166 159 154 151 155 164 171 173 173 167 159 155 153 152 152 155 158 160 160 163 165 165 166 168 169 169 171 168 164 163 163 166 171 171 169 164 163 162 158 156 155 151 152 151 151 155 157 155 156 164 173 179 184 188 185 177 169 162 155 151 150 149 150 150 151 151 151 150 150 153 154 163 169 170 169 164 164 167 171 172 169 167 164 162 157 153 155 157 158 154 152 151 158 172 171 163 158 158 158 159 161 163 160 
24 17 18 22 24 26 26 26 25 29 29 26 24 22 27 33 38 43 47 45 46 41 33 28 23 20 13 16 14 18 19 24 24 22 19 23 27 31 30 29 25 20 14 9 7 2 1 0 2 12 23 26 26 30 29 31 41 47 56 68 76 77 76 70 67 71 73 75 76 80 84 86 83 76 65 55 48 50 49 47 51 55 59 66 68 69 74 77 76 77 78 76 73 72 78 81 82 84 84 81 76 74 64 56 54 54 51 53 67 81 87 89 83 74 65 58 55 48 40 35 37 42 50 54 52 56 58 55 48 43 36 28 22 26 47 64 63 49 36 32 28 29 33 36 39 42 46 49 51 53 54 50 47 46 41 28 16 6 14 30 32 32 34 34 33 35 33 35 35 38 38 34 32 33 32 29 33 35 36 35 37 38 39 50 58 64 64 55 51 55 52 49 48 45 44 45 47 51 55 50 46 45 46 48 51 56 61 66 63 59 62 61 61 59 56 51 46 44 37 33 37 43 50 59 62 61 61 58 55 50 48 49 53 53 51 54 56 52 52 52 49 44 32 18 12 17 26 36 41 43 43 42 41 41 39 37 35 37 35 36 38 38 38 34 30 33 32 35 43 58 69 68 62 53 36 16 11 12 14 17 19 26 33 28 26 31 31 32 31 38 53 61 65 63 57 48 38 28 14 6 9 16 19 22 29 32 30 29 20 7 6 25 36 43 41 36 18 11 19 35 36 32 22 10 1 0 11 30 24 13 15 34 46 46 44 39 38 23 8 9 8  79 83 84 85 88 89 89 91 92 95 91 89 91 94 99 110 118 124 126 128 129 124 124 122 122 123 122 118 117 118 115 113 109 105 109 109 110 111 112 113 111 109 110 107 106 104 105 106 109 111 113 111 110 111 111 115 119 125 130 133 136 133 131 129 130 129 129 126 128 134 134 137 134 128 118 107 106 105 103 105 109 117 127 133 137 139 142 140 140 142 141 140 137 137 138 137 138 138 138 140 139 135 131 128 130 130 130 137 144 152 154 151 145 142 137 132 128 124 119 116 123 132 137 139 143 142 139 139 136 135 129 126 127 134 136 133 122 116 110 107 109 110 115 116 117 116 118 118 120 122 123 126 125 123 116 113 111 113 114 111 114 116 116 115 118 118 115 114 116 116 116 116 113 112 112 113 112 113 111 111 112 112 120 127 128 123 113 111 115 115 118 122 123 127 131 134 138 136 133 128 124 123 125 127 132 135 133 128 121 121 126 128 126 126 121 120 117 113 109 110 117 120 126 124 122 121 118 116 113 114 119 126 129 130 133 130 126 123 118 115 108 101 92 95 106 114 117 118 114 107 107 111 111 110 110 112 110 112 116 118 118 118 118 116 120 119 128 141 150 156 155 152 143 122 103 101 101 97 98 98 97 100 97 98 98 99 102 106 109 120 131 134 134 129 120 112 103 93 87 89 94 99 98 97 99 98 97 94 91 94 110 119 120 113 110 109 109 112 113 111 106 98 94 83 85 97 101 98 91 88 105 122 121 116 114 115 111 105 100 96 95  112 114 114 119 119 120 121 123 126 126 127 128 129 133 140 146 152 159 164 168 168 164 163 163 164 164 165 163 159 155 154 153 151 149 149 149 149 150 153 154 154 157 159 160 160 161 159 160 162 162 162 160 159 158 158 158 162 167 169 172 174 174 175 176 176 175 174 174 171 170 171 169 164 162 163 164 164 160 160 161 165 172 178 183 184 187 186 185 186 184 182 181 178 176 177 179 180 182 183 182 181 179 178 178 177 177 177 181 185 190 192 189 187 183 180 177 174 173 170 167 169 173 176 178 181 182 181 180 177 176 177 180 185 188 189 180 173 166 164 164 163 162 165 166 166 166 167 168 168 171 172 171 169 169 168 170 170 168 166 163 160 161 164 165 165 166 165 165 166 165 165 163 160 161 163 163 162 162 163 164 162 163 170 178 179 173 164 163 162 162 164 169 173 177 178 174 172 171 169 167 166 163 164 166 166 169 171 171 167 168 172 174 174 171 170 169 165 164 162 163 166 171 173 174 172 169 168 166 165 167 170 174 176 174 178 177 176 173 171 167 160 154 149 152 162 167 170 170 164 158 156 158 159 160 161 161 162 165 167 169 171 172 173 170 173 173 166 164 167 169 172 171 170 166 162 160 159 157 154 152 152 152 151 153 155 155 155 158 166 174 180 186 185 180 173 167 160 153 148 148 150 149 150 151 151 149 150 152 152 159 170 170 170 167 165 166 170 170 168 167 162 160 158 156 154 157 158 153 151 151 164 173 172 168 163 163 161 157 160 160 156 
7 18 21 21 21 27 28 26 27 31 27 24 24 23 28 34 36 44 45 45 49 42 34 28 24 22 21 19 14 13 16 15 14 16 17 19 21 26 29 27 26 25 18 17 14 5 4 3 2 9 14 23 27 30 31 35 45 49 60 71 82 87 85 79 69 72 74 74 73 74 80 82 76 66 57 51 43 42 40 43 51 56 58 62 66 67 69 71 70 72 72 73 73 73 75 80 81 80 79 76 73 67 63 56 53 50 49 51 56 64 71 78 80 73 66 58 53 53 41 40 52 59 66 66 63 61 61 56 57 55 50 46 39 25 21 32 55 64 53 37 28 26 32 35 39 43 47 49 52 53 54 53 50 45 42 36 22 6 0 14 26 29 30 29 30 32 30 32 31 32 34 33 33 31 31 29 32 31 32 33 34 36 34 38 50 59 65 56 46 50 54 52 51 45 38 40 40 41 46 43 40 38 41 45 49 52 58 62 60 62 68 65 64 64 61 59 53 45 38 36 38 42 48 56 59 61 60 58 54 52 49 43 43 49 51 50 52 52 52 51 48 45 38 27 17 9 13 25 32 37 40 40 42 43 41 39 36 38 40 41 45 41 41 40 40 42 40 40 39 50 70 69 59 53 48 37 22 14 10 12 18 27 35 34 30 29 28 29 30 31 37 50 59 60 55 51 47 40 26 12 7 13 19 23 29 32 29 23 15 5 0 21 41 46 52 43 22 13 16 28 33 31 28 19 2 0 8 26 25 16 17 37 46 47 43 38 39 35 19 5 1  83 87 86 88 90 90 92 94 94 96 96 93 93 97 103 110 119 124 128 130 128 126 123 122 125 126 123 118 116 114 110 106 107 107 110 112 110 111 110 111 113 111 113 110 107 107 105 106 109 110 113 114 112 111 114 115 119 126 130 134 137 134 134 132 130 129 131 132 130 136 137 138 135 133 127 118 116 113 112 111 114 120 127 133 135 137 142 142 140 139 139 138 135 135 135 134 132 134 134 134 134 133 132 130 125 125 129 132 135 141 148 153 150 145 139 136 132 118 117 135 140 145 146 145 140 138 133 135 134 132 133 130 125 125 128 135 133 122 110 109 111 112 114 116 119 121 120 119 124 123 122 126 123 120 118 116 106 106 111 110 110 112 111 113 116 115 114 114 116 116 115 114 112 112 112 110 111 112 110 111 111 110 111 122 126 124 116 113 115 116 118 124 123 122 126 128 131 131 128 124 121 117 121 126 129 133 134 130 127 126 127 130 133 131 127 126 122 116 113 116 117 120 125 125 123 120 118 115 113 112 116 119 126 130 129 129 128 125 121 118 115 108 99 93 93 101 112 118 118 114 112 114 118 116 117 116 113 118 121 122 124 124 123 123 125 123 130 141 148 161 161 152 147 140 121 107 102 97 95 98 104 108 106 100 95 97 99 104 103 112 124 130 134 133 126 123 114 101 90 90 93 98 99 99 99 98 95 93 91 89 104 118 121 119 115 109 105 103 108 107 103 99 97 88 84 95 100 97 91 91 109 120 123 120 114 117 117 110 101 94 90  117 119 121 122 124 126 125 128 130 131 131 131 132 136 143 149 153 159 162 166 168 164 164 163 163 165 166 164 162 157 155 154 151 152 153 154 155 153 154 154 154 157 158 161 164 161 161 160 161 161 163 161 158 158 160 160 162 166 172 174 177 178 177 176 177 175 175 174 171 170 170 168 168 167 169 168 168 168 168 169 171 174 177 182 184 185 185 185 185 184 181 179 174 173 177 179 180 181 180 179 178 179 178 176 177 177 177 178 180 184 189 195 195 190 185 184 181 167 166 179 184 186 184 186 180 178 174 174 176 176 173 176 179 181 188 191 185 174 166 164 163 163 165 165 167 167 167 168 169 171 172 171 167 166 165 166 167 167 167 164 159 159 162 164 164 164 164 164 165 166 165 164 163 162 163 162 161 162 163 163 160 161 165 174 179 176 168 165 164 164 164 167 170 173 177 175 172 169 166 163 162 160 161 161 164 169 170 171 174 174 174 175 175 175 173 171 167 164 163 164 166 169 172 175 172 170 168 168 166 165 166 171 174 174 175 177 177 174 173 170 166 159 152 148 152 160 167 171 169 166 165 166 168 169 168 168 169 171 173 174 176 176 174 173 175 175 171 168 169 173 173 170 170 171 167 163 162 160 160 156 154 154 153 152 154 156 156 156 160 166 174 181 184 182 176 173 166 156 149 148 149 148 150 151 149 150 149 149 152 155 166 171 172 171 169 167 168 169 167 165 163 161 159 157 156 158 158 155 152 154 169 175 173 169 164 165 162 157 156 155 152 
0 17 21 24 22 24 27 29 29 31 28 25 26 27 33 37 38 42 44 45 47 42 36 32 27 26 27 23 18 11 13 14 12 14 15 17 22 24 30 33 29 24 21 18 12 9 9 4 1 3 10 20 25 25 29 38 46 53 64 76 87 93 92 86 76 75 74 72 73 70 71 70 66 56 47 39 36 36 35 38 40 48 50 51 55 61 62 59 61 64 64 68 74 74 73 77 78 75 71 70 67 63 59 52 48 50 52 52 59 75 86 81 52 46 59 68 55 33 34 97 103 104 112 127 57 10 16 14 22 20 48 97 81 65 42 23 20 43 61 52 36 28 26 32 39 42 40 45 47 49 52 49 48 43 42 38 34 22 5 1 12 22 24 25 29 32 31 30 31 32 35 36 34 34 32 30 31 28 27 30 28 29 27 29 42 55 64 61 49 51 52 53 52 49 41 35 36 35 39 38 33 32 32 36 44 48 53 56 56 60 70 72 68 67 66 65 59 48 39 37 42 46 51 59 60 63 64 60 56 51 49 45 42 44 46 48 48 50 49 51 50 47 45 38 33 28 22 22 27 26 32 36 37 41 41 40 38 38 39 42 44 42 42 46 46 44 45 42 42 44 56 69 61 57 55 47 40 26 15 15 17 27 34 37 40 30 25 30 30 29 28 38 51 55 60 59 58 53 42 27 13 16 25 28 30 29 24 23 17 5 0 11 35 49 57 51 30 14 12 22 26 26 29 25 7 0 4 24 29 21 25 38 43 44 42 42 40 38 34 12 0  86 88 91 94 93 95 95 95 98 98 98 97 96 101 109 113 118 121 127 128 127 124 122 121 122 126 123 118 115 112 109 104 108 109 112 116 114 115 114 113 113 111 113 112 109 110 106 104 103 108 112 114 112 113 116 117 119 125 129 135 138 136 137 134 132 132 133 134 131 131 131 129 124 120 121 122 122 122 119 120 122 124 129 132 133 134 137 136 136 136 134 133 132 130 129 131 131 126 128 129 131 127 126 130 129 135 129 131 148 160 146 98 90 97 107 97 60 76 182 207 205 202 206 104 33 38 37 44 39 86 168 159 142 128 127 126 133 135 124 112 111 112 114 119 119 121 122 121 124 123 123 125 122 119 114 114 108 100 105 109 110 108 108 112 116 113 114 116 115 117 116 113 114 112 110 109 109 108 107 107 109 109 110 120 128 128 121 115 117 118 123 126 124 123 121 126 122 124 124 120 116 113 115 123 126 129 130 128 133 136 135 132 136 136 136 132 125 120 117 120 121 122 128 126 125 123 120 116 114 115 116 117 121 123 125 124 125 125 123 121 119 114 111 104 102 103 110 116 116 115 115 118 122 123 121 120 120 122 124 125 128 128 129 129 129 128 129 143 151 157 165 156 148 144 134 123 108 102 100 101 108 115 115 109 96 98 100 104 103 103 113 126 132 137 133 131 127 113 99 93 95 96 97 98 98 97 94 92 93 87 95 114 123 123 118 112 105 102 106 101 101 103 103 98 87 94 101 98 92 98 113 118 119 117 115 116 116 112 102 93 88  123 125 126 126 128 131 130 131 134 134 135 135 135 138 144 150 155 158 162 165 166 163 163 163 163 164 166 163 160 159 156 153 153 155 156 157 159 156 154 155 157 157 157 161 164 161 162 163 163 162 162 162 160 159 161 164 165 167 172 177 179 181 179 179 179 177 175 174 171 167 167 166 165 167 171 173 173 175 176 176 176 177 178 180 182 183 182 182 181 180 177 175 174 174 178 178 178 178 178 178 177 177 177 178 180 183 177 174 189 202 189 142 127 130 140 132 93 110 214 238 239 235 236 133 53 56 54 58 56 113 205 199 185 180 183 189 190 187 177 166 165 167 168 168 170 170 167 169 170 170 170 170 167 162 161 162 164 163 166 168 163 159 160 162 162 163 165 165 166 166 164 163 162 162 161 160 160 162 161 161 161 160 161 170 178 180 172 164 162 162 165 166 168 169 172 173 171 167 163 161 160 159 158 160 163 167 169 172 177 179 180 178 177 177 177 174 169 164 162 164 167 170 173 174 173 172 169 168 166 166 167 168 169 171 173 175 175 174 174 172 169 165 160 157 158 160 167 173 174 173 173 173 173 174 174 172 173 173 175 177 178 179 178 179 180 178 178 175 173 176 177 174 171 173 172 169 167 163 162 160 161 159 158 157 156 155 156 156 157 160 168 176 182 186 182 177 173 162 155 148 147 150 151 151 150 150 149 149 152 153 162 171 174 176 173 168 167 165 164 163 163 162 160 158 158 160 159 158 156 161 171 175 173 168 163 163 162 159 154 151 150 
0 20 23 26 27 27 27 31 29 26 33 32 25 30 33 37 43 42 45 44 46 42 34 34 33 31 29 24 19 17 13 10 12 12 12 18 25 27 32 37 36 32 29 24 17 9 6 6 2 0 5 13 22 27 29 38 49 59 68 79 91 96 96 89 83 80 77 77 72 68 64 59 56 47 40 33 30 34 40 40 34 33 33 35 41 48 55 54 53 55 58 66 69 71 71 75 75 73 72 68 62 62 59 56 46 43 33 46 107 115 122 46 1 20 59 58 20 0 60 105 92 94 99 115 32 14 23 3 3 0 59 99 98 83 42 60 33 11 21 48 58 45 24 25 29 33 39 42 42 45 46 46 50 47 41 35 32 33 24 6 2 7 17 23 26 28 31 29 31 33 35 39 37 36 36 33 30 28 27 28 26 24 25 27 38 53 63 62 52 48 45 46 48 51 48 38 31 27 27 29 28 28 29 33 36 41 46 48 53 61 70 75 74 72 66 64 61 52 44 42 47 53 57 62 66 65 62 62 57 56 52 49 51 48 49 50 44 46 50 51 55 50 45 41 41 39 35 36 35 31 30 28 31 34 35 36 35 34 34 40 40 39 40 42 44 46 47 45 42 45 49 55 59 60 55 49 45 36 21 17 16 23 30 34 40 38 29 30 32 30 27 32 46 51 62 65 62 59 52 42 28 24 25 31 32 31 27 22 21 8 0 3 26 48 58 57 33 14 11 15 23 26 24 24 12 0 4 29 41 34 40 43 40 43 42 44 44 42 34 20 4  91 93 95 97 99 98 100 99 99 102 98 99 103 105 110 116 119 124 126 128 127 120 120 123 122 123 123 116 113 112 110 106 109 114 117 120 119 120 118 117 116 116 113 111 108 105 104 105 105 106 107 111 113 114 116 119 121 127 129 134 139 138 139 136 134 134 135 134 132 130 124 121 114 109 106 109 118 127 127 124 124 123 124 127 130 135 134 130 128 129 128 130 130 128 126 128 127 126 127 128 131 135 133 125 115 93 91 175 202 207 86 4 23 55 58 24 2 113 216 208 207 206 205 57 9 25 5 4 2 101 186 184 145 70 98 114 121 128 136 132 121 112 112 113 116 120 122 120 121 122 122 123 121 116 107 108 109 106 103 105 107 105 106 110 114 114 113 116 116 116 117 115 114 111 110 107 105 108 108 105 107 108 109 119 128 130 124 116 119 118 122 127 130 128 122 120 116 115 118 114 109 111 113 116 120 123 125 127 133 141 145 143 141 138 138 136 128 123 124 127 129 134 135 135 129 125 122 119 118 118 120 124 124 126 124 121 121 126 128 129 127 123 120 115 116 117 118 120 122 119 118 121 123 124 121 120 117 117 120 123 124 125 129 131 133 132 129 141 154 154 157 157 149 143 140 133 117 103 105 106 110 120 120 117 108 99 98 105 103 101 110 122 129 139 138 133 131 122 111 102 96 94 98 97 97 96 95 95 92 85 89 110 122 124 123 113 105 100 101 102 101 101 102 101 90 96 105 107 103 110 117 116 117 114 113 115 115 107 101 96 89  126 130 131 131 133 134 134 135 138 137 138 140 139 141 147 150 155 158 160 163 164 163 162 160 161 164 165 162 161 160 156 155 156 159 160 162 162 160 158 157 157 158 159 160 161 162 163 162 163 162 162 164 163 161 162 165 167 168 174 178 181 182 180 180 181 179 175 174 170 166 161 159 159 160 163 168 170 175 178 179 178 178 179 180 182 183 182 179 177 175 174 174 173 175 177 176 177 177 175 176 178 183 182 171 154 127 128 208 233 245 121 19 30 62 67 37 10 130 248 239 239 234 233 71 8 23 3 9 5 115 224 223 180 100 132 167 185 189 189 187 175 166 164 166 167 170 168 170 167 167 167 166 163 159 157 157 160 162 166 170 169 162 160 161 162 163 165 165 165 165 163 162 162 162 160 161 160 159 158 160 160 159 160 166 177 180 176 164 158 161 164 166 167 167 168 171 169 165 162 159 159 157 156 158 163 167 169 172 176 181 183 184 180 179 176 175 170 163 162 164 167 171 174 176 175 174 173 171 170 170 171 170 171 170 169 171 174 176 178 178 175 172 169 167 167 169 171 176 178 177 174 175 177 177 175 172 171 170 171 174 176 177 180 182 184 181 179 178 177 175 176 177 174 171 172 171 170 167 163 161 164 165 165 163 160 157 157 156 158 157 163 172 180 187 186 183 178 172 164 154 149 149 151 151 150 150 151 150 151 152 158 168 175 177 175 169 166 162 160 162 162 160 160 158 159 162 162 162 161 169 173 174 172 166 163 162 161 156 151 149 150 
0 24 27 29 31 33 31 31 31 31 34 35 29 32 34 38 43 45 44 45 45 42 37 38 36 34 31 27 21 20 13 10 10 9 11 17 21 25 29 33 34 35 37 32 23 14 8 3 0 1 2 7 18 27 27 37 50 62 72 82 94 102 102 97 90 86 81 77 69 64 59 53 53 46 41 40 32 32 33 38 31 23 21 23 28 34 44 49 53 56 57 59 62 65 66 68 73 74 66 71 67 68 46 28 20 11 3 96 121 107 97 11 10 19 53 28 9 3 77 97 89 83 81 78 28 16 18 17 12 19 86 84 87 79 27 56 38 46 51 55 54 69 66 56 62 52 43 47 48 44 45 47 46 42 36 29 23 27 34 24 14 4 3 15 24 27 28 29 30 30 31 35 37 37 37 34 31 27 26 26 26 26 25 31 38 53 64 63 53 45 43 42 45 48 45 40 34 26 20 14 17 26 29 31 31 32 33 39 50 58 67 74 74 77 72 65 62 55 46 44 50 56 59 62 64 61 60 61 57 56 56 52 51 56 56 52 48 46 46 46 52 52 49 49 47 45 48 52 52 43 35 31 29 26 29 30 29 30 32 35 34 32 35 38 41 46 45 44 43 43 48 48 45 51 56 53 46 40 32 23 19 15 24 33 38 42 35 29 32 32 29 29 40 47 59 66 67 64 59 54 46 37 32 33 32 33 27 21 22 16 1 0 19 45 56 57 36 15 9 17 28 28 26 25 13 0 4 32 44 43 49 46 39 42 43 45 42 36 32 26 12  94 99 98 99 100 100 104 104 101 103 103 107 107 105 109 115 120 122 125 125 125 121 119 122 123 121 121 117 115 111 109 109 111 114 119 124 124 122 121 118 116 120 117 113 112 107 104 103 105 105 107 109 114 115 115 118 122 128 128 135 140 139 138 136 135 135 134 134 134 132 123 118 113 111 106 101 106 115 122 123 119 118 120 121 126 131 131 129 125 123 125 128 127 126 125 129 129 124 129 131 121 95 62 40 29 14 144 212 203 180 32 19 24 54 33 17 16 145 211 211 209 207 204 161 185 189 168 95 58 169 180 184 150 37 50 50 107 129 128 120 134 148 146 145 132 118 122 124 123 125 126 121 113 105 102 98 100 108 109 109 106 105 107 109 111 112 116 116 116 117 114 115 114 114 112 107 103 104 105 103 105 107 112 118 128 134 128 117 117 119 123 124 127 126 125 120 115 109 107 109 112 111 112 111 113 114 117 126 136 144 148 149 148 142 141 139 131 125 127 133 137 139 140 137 132 128 124 121 121 123 125 129 130 131 128 124 125 124 128 130 129 127 126 124 124 127 129 129 128 126 120 118 120 121 118 116 113 114 115 117 119 120 123 127 132 135 130 136 153 158 156 153 149 141 137 133 124 110 105 106 105 116 121 122 118 103 99 103 104 102 104 118 126 133 138 137 135 131 122 112 101 96 99 101 100 95 94 96 94 86 86 100 117 126 123 114 103 98 103 104 102 99 97 97 90 97 113 113 112 120 121 114 110 112 116 113 110 105 103 98 91  132 133 134 135 137 138 139 139 139 142 142 141 142 144 148 151 156 158 158 161 161 160 159 158 162 164 164 161 161 160 157 157 159 161 163 165 166 165 161 160 159 159 160 160 160 161 162 160 161 161 160 161 163 163 163 166 168 170 174 178 181 182 183 181 181 177 175 172 169 166 161 157 156 157 161 164 167 170 174 177 177 176 177 177 178 180 182 177 174 172 172 173 173 175 176 177 178 174 178 179 163 131 92 61 40 26 168 243 236 218 52 22 30 62 40 22 20 169 242 239 237 233 215 125 114 114 95 59 57 189 215 221 181 52 64 71 147 173 174 166 177 191 187 187 177 166 170 171 172 172 170 161 156 156 152 150 154 159 164 170 170 167 161 160 161 162 163 164 164 164 164 162 163 162 161 159 159 158 157 158 158 158 158 163 175 180 179 167 159 160 163 164 164 166 165 169 168 163 160 158 158 158 157 157 158 162 167 170 175 181 186 187 186 183 179 175 169 164 162 164 168 172 175 177 176 175 175 175 175 174 175 174 174 171 170 169 168 172 177 178 178 176 175 175 174 174 177 181 181 179 176 176 177 176 174 168 165 165 166 169 173 175 176 179 182 182 181 179 180 179 177 176 175 171 169 170 170 169 165 163 162 167 168 166 164 161 157 158 158 157 161 170 179 187 188 183 181 179 173 162 154 151 152 152 152 151 151 151 152 153 154 165 174 178 176 171 166 162 160 162 160 158 159 159 158 164 167 168 168 175 174 172 170 165 161 158 156 152 150 149 148 
1 25 30 30 30 34 33 32 34 33 34 35 34 35 34 37 42 43 45 46 45 41 39 38 40 37 32 30 27 24 22 13 5 8 9 15 18 22 29 31 34 37 37 36 27 22 14 3 0 0 1 5 12 23 29 33 46 61 74 84 96 113 122 115 108 104 98 90 82 73 63 57 54 49 49 47 41 35 30 33 32 25 17 13 14 18 27 37 46 52 54 53 57 59 65 68 71 68 80 66 58 48 9 6 17 2 48 122 104 108 96 10 8 23 42 15 4 13 93 90 82 72 43 9 2 2 1 1 7 69 90 81 88 60 21 38 68 114 105 55 28 92 100 100 114 111 27 28 32 36 48 47 63 60 39 29 19 21 31 34 29 19 5 4 17 26 28 28 27 30 31 35 39 38 38 35 31 29 29 26 25 28 29 32 34 52 65 64 56 41 38 37 40 41 42 41 38 32 23 9 8 19 28 28 28 29 30 37 44 52 60 67 72 73 75 69 61 56 52 47 50 55 59 62 65 64 62 61 58 57 56 54 53 55 56 52 49 44 44 42 44 49 51 54 50 48 53 57 59 56 47 40 33 27 25 21 20 24 25 23 24 26 28 34 37 42 46 48 50 50 46 46 43 37 44 55 51 41 37 28 17 10 12 27 35 39 37 28 25 29 31 28 35 42 53 59 65 67 66 65 62 49 38 33 34 32 28 18 21 40 17 2 16 43 58 56 40 16 7 17 29 35 34 40 30 2 1 27 44 52 51 46 39 39 43 47 43 38 34 28 17  94 98 100 99 103 103 103 105 104 107 107 109 108 108 111 115 119 119 121 123 119 117 118 119 121 120 120 117 116 114 110 110 114 120 122 126 125 123 122 121 119 118 120 118 116 111 105 104 103 104 107 105 109 117 116 120 123 128 131 135 152 163 157 152 148 145 143 142 136 129 122 119 118 117 116 110 105 107 110 114 116 114 114 113 115 120 126 126 124 122 123 125 123 125 126 127 123 144 124 76 49 8 7 24 11 69 199 199 202 172 29 16 27 43 21 12 30 176 210 213 214 222 248 255 253 253 255 241 201 193 181 185 122 30 41 66 105 96 54 57 176 204 206 211 186 56 48 62 71 88 98 124 124 106 100 96 94 100 106 111 112 108 107 109 111 111 112 113 112 114 115 114 115 115 112 107 104 104 105 105 105 106 111 114 127 136 132 120 115 118 120 120 122 124 126 127 121 112 104 104 113 115 112 111 108 107 112 122 131 139 146 149 150 149 145 138 133 130 128 133 137 140 141 140 138 131 127 124 122 123 126 129 131 131 130 127 125 125 123 125 129 132 132 130 130 130 134 134 134 129 123 116 116 119 115 111 106 107 108 112 114 116 119 123 128 133 135 136 148 159 159 155 144 134 131 128 122 117 111 106 103 108 121 125 121 111 102 103 105 103 105 119 124 127 132 137 138 136 132 124 113 103 100 102 98 95 92 100 121 100 88 97 112 123 120 113 104 100 101 104 103 103 106 105 92 92 111 115 120 126 119 109 107 112 113 109 110 109 104 98 93  138 138 139 141 140 142 142 142 144 145 145 146 146 146 147 151 155 156 158 159 157 156 156 157 160 161 161 162 159 158 158 158 160 163 166 168 170 167 164 163 161 160 160 161 162 162 162 162 161 160 158 161 162 164 164 166 169 172 174 178 186 189 190 191 190 187 183 177 173 168 161 157 157 160 164 164 165 166 168 170 172 171 171 172 171 173 173 174 174 172 171 173 173 173 176 177 172 192 169 110 67 15 14 29 14 82 231 232 235 213 43 19 33 50 26 16 35 205 240 240 239 218 181 161 149 152 162 153 184 219 213 221 148 38 48 72 115 107 69 73 201 232 232 234 212 80 67 80 97 120 130 156 165 151 151 148 149 156 159 166 172 172 166 162 162 163 162 162 162 163 164 163 163 162 161 159 158 157 155 156 157 157 156 160 171 180 181 170 158 157 160 161 161 163 165 168 168 165 161 157 157 157 156 154 155 158 161 165 171 178 186 188 187 185 180 175 169 165 163 165 169 174 176 178 179 177 177 177 176 177 178 177 176 172 169 169 168 168 172 177 179 181 180 181 181 180 181 184 184 181 178 178 179 175 171 167 162 161 162 165 169 172 174 176 179 182 182 180 183 183 181 176 174 173 170 168 165 166 165 163 162 165 170 169 168 165 160 157 156 158 161 171 177 182 185 185 184 181 179 173 164 157 154 152 154 152 152 154 157 154 155 163 173 177 175 169 162 159 159 160 159 161 164 163 158 163 169 170 175 177 172 169 167 167 161 156 155 153 151 149 148 
5 28 30 31 30 34 33 34 36 36 37 36 36 38 38 37 40 42 42 44 45 39 40 40 41 38 33 33 33 35 38 26 10 10 11 11 17 27 30 33 41 41 40 40 33 30 22 8 1 1 2 3 8 19 29 33 43 59 72 83 97 118 127 112 105 101 100 104 106 100 94 82 72 59 51 47 37 29 27 21 24 29 26 21 17 14 13 25 35 44 47 51 55 59 66 65 70 100 91 8 14 15 6 16 12 6 96 120 108 111 105 16 6 30 42 6 2 29 100 85 78 67 32 1 0 5 13 2 15 72 79 74 86 54 19 28 65 97 76 12 41 97 78 84 93 100 16 7 10 13 24 15 75 113 87 51 44 26 20 32 36 32 15 0 0 8 20 25 28 30 32 37 40 39 36 35 32 31 28 27 27 27 32 33 33 48 66 66 58 38 32 31 34 37 42 43 45 41 30 17 12 13 21 26 29 27 28 33 39 43 52 60 65 65 64 63 58 54 51 48 52 57 63 68 71 71 68 65 61 60 58 56 54 51 52 51 49 47 47 43 44 44 44 47 51 52 56 58 60 59 56 47 36 30 25 17 9 13 14 12 14 19 24 32 40 46 48 54 55 53 50 44 45 37 32 43 51 46 42 36 24 10 2 19 34 38 35 25 17 20 23 27 38 39 42 51 58 68 70 71 67 62 52 39 36 31 25 22 23 49 28 8 20 38 55 58 41 13 7 23 36 42 46 49 40 6 0 21 46 54 49 41 33 31 40 47 46 46 39 32 21  98 100 101 102 106 106 105 107 108 109 110 110 111 112 115 116 117 119 122 119 116 115 117 122 122 119 120 120 123 127 122 113 115 121 125 127 129 127 124 122 122 117 118 119 118 113 107 105 102 105 106 104 108 116 118 117 122 128 131 137 158 176 163 153 153 156 157 157 157 149 137 127 125 119 119 116 111 105 103 106 114 117 113 109 107 109 116 118 120 122 122 121 124 129 126 134 179 172 29 55 126 158 108 24 16 146 208 201 203 179 36 12 35 45 13 7 52 196 210 212 215 231 180 84 51 78 146 170 198 184 179 180 108 27 33 60 84 69 14 81 204 202 205 204 188 44 18 9 17 28 23 122 183 146 87 92 99 94 102 111 117 110 101 99 103 108 114 114 114 116 118 115 113 112 111 108 106 103 105 106 106 110 115 114 126 137 138 125 116 116 118 119 121 125 128 130 127 117 109 107 107 112 112 111 106 106 114 119 121 132 139 141 146 146 143 138 133 129 130 132 137 144 145 143 140 135 129 126 126 124 126 129 128 128 128 128 125 126 124 126 126 128 128 130 132 129 131 132 132 130 125 119 119 119 115 106 102 101 101 102 105 111 117 122 129 132 137 137 141 157 160 157 147 130 125 124 122 118 115 107 101 102 113 122 122 117 106 100 102 101 106 120 124 122 123 131 137 139 138 133 125 114 106 100 97 97 95 105 144 119 94 100 111 122 122 115 102 98 102 106 112 112 116 112 93 91 107 118 125 127 115 105 104 108 112 115 117 113 107 100 96  141 142 144 144 144 146 145 145 147 147 147 148 148 149 149 150 152 155 157 157 155 154 155 157 158 160 159 160 158 156 159 159 161 165 169 171 173 170 166 162 160 160 161 162 163 163 162 161 161 160 159 160 161 164 166 166 170 171 174 177 186 190 191 194 195 197 196 193 190 185 176 168 165 165 166 166 166 167 167 167 169 170 168 165 163 165 167 170 171 173 173 174 172 177 178 181 213 205 48 32 72 86 65 26 19 165 240 233 235 216 47 14 41 53 18 11 61 225 239 238 234 209 115 38 22 44 83 122 200 212 211 213 128 32 40 67 95 79 20 92 232 228 229 229 210 44 11 14 23 33 30 141 216 178 120 128 146 153 158 161 170 170 167 162 158 160 165 165 164 164 162 161 160 162 160 159 156 155 153 155 156 157 157 159 168 179 181 172 159 156 157 159 160 163 166 167 167 166 164 162 158 157 155 154 155 158 158 161 167 173 181 185 187 186 182 175 170 165 164 165 169 173 177 180 182 182 179 178 178 178 178 178 177 174 172 171 170 171 174 176 177 179 182 181 182 184 184 185 184 181 179 178 179 178 172 166 159 156 156 159 161 164 170 172 177 180 184 182 182 185 182 179 174 170 168 166 167 167 167 165 162 162 167 169 169 169 163 160 156 155 163 171 175 178 180 183 187 184 183 181 174 166 160 157 155 156 154 156 167 161 158 162 169 175 174 170 165 159 160 164 165 166 169 165 160 159 165 171 178 176 170 165 163 166 162 161 160 157 153 150 149 
10 33 36 34 35 35 34 36 38 36 36 38 37 39 38 39 43 43 42 45 43 38 40 43 42 43 37 35 38 39 41 32 17 8 8 12 16 23 26 34 39 43 41 38 39 31 26 17 7 3 3 5 5 13 23 34 40 54 67 80 89 102 105 95 86 76 73 75 79 84 88 96 101 95 83 68 45 28 22 20 16 21 26 31 30 25 20 17 25 33 37 42 50 63 58 68 106 106 61 15 16 7 4 14 4 11 102 113 109 115 94 7 9 31 34 11 0 35 95 84 76 73 48 1 2 18 32 5 4 64 80 78 84 42 21 32 78 85 43 1 38 89 77 78 67 40 9 5 9 5 8 12 79 91 101 55 54 39 55 60 57 46 44 39 35 53 45 26 33 38 38 41 42 45 35 33 34 34 35 33 32 33 35 39 40 50 67 73 64 44 35 37 37 39 41 44 49 48 36 30 22 16 14 25 33 29 25 28 36 38 44 51 54 55 55 55 51 48 46 48 53 57 64 71 74 73 73 71 66 64 64 57 55 55 56 52 48 46 45 43 43 42 41 39 44 52 55 59 61 60 56 54 47 32 23 20 11 2 5 14 23 28 35 41 50 58 60 61 65 61 56 52 50 44 36 33 41 46 45 46 35 25 10 13 31 34 34 26 13 12 13 25 39 37 37 39 49 64 70 73 73 70 63 50 40 35 25 21 17 23 20 16 26 32 49 55 42 20 18 34 43 43 44 47 44 12 0 16 45 51 42 33 28 31 44 49 46 44 38 34 29  102 105 105 105 107 110 107 110 112 110 111 113 114 110 115 117 117 119 121 117 116 116 118 121 121 118 118 120 128 136 132 121 120 125 128 130 132 128 126 124 123 119 120 122 120 114 111 107 103 101 104 105 106 111 116 117 120 124 128 132 140 144 139 133 133 135 134 138 145 150 151 147 142 134 127 118 110 105 108 107 109 114 114 114 113 109 109 113 115 119 121 121 134 119 131 201 221 167 153 252 254 255 172 15 29 170 201 199 204 165 23 17 35 38 18 6 74 203 209 210 215 181 19 0 21 30 4 20 156 182 175 175 89 25 36 71 75 44 5 83 205 203 210 216 228 208 196 137 39 9 27 153 177 165 70 56 75 107 109 108 109 126 133 138 146 123 98 99 105 108 115 118 118 109 106 107 106 104 106 105 109 112 115 117 124 138 139 130 119 118 122 122 123 124 125 127 128 123 118 113 109 107 110 110 109 109 110 115 121 125 132 133 136 137 136 134 132 128 126 130 136 143 147 141 139 136 132 129 127 125 129 129 129 129 129 130 126 125 125 124 123 123 122 122 127 127 128 128 128 130 127 123 119 118 116 109 103 101 104 106 107 113 121 125 132 137 138 144 144 153 163 160 151 136 125 125 125 121 121 113 104 100 103 117 121 120 110 98 98 102 107 120 124 118 112 118 130 138 139 139 134 125 114 106 103 100 98 98 122 119 100 103 107 118 122 115 101 102 114 114 113 111 115 112 94 90 105 118 124 119 109 103 104 110 117 118 117 113 110 105 102  143 144 145 146 147 147 147 148 148 149 150 149 150 151 150 151 153 156 155 155 155 154 155 157 158 158 158 158 157 156 158 162 165 168 171 174 174 172 167 163 160 160 161 160 162 162 161 161 161 160 160 160 160 163 167 165 168 171 174 176 180 182 183 184 183 185 186 189 192 194 190 187 182 180 176 171 168 167 168 167 167 168 167 165 163 164 165 166 168 170 172 174 184 168 174 231 246 186 101 148 161 162 106 17 33 195 235 229 235 197 34 20 38 46 22 7 87 237 238 237 235 176 17 6 24 35 8 20 170 212 210 208 109 30 41 77 85 55 9 96 232 228 232 225 197 136 115 75 24 15 31 170 208 196 89 67 103 148 150 154 157 175 185 187 187 166 143 143 147 149 158 163 161 158 155 157 157 155 155 154 155 158 159 158 166 178 181 176 162 157 160 160 161 161 163 166 167 166 165 164 162 159 157 156 155 154 156 160 164 168 175 180 183 183 181 177 173 168 165 166 170 175 179 184 184 182 180 180 179 179 179 179 178 175 175 174 173 173 175 175 175 176 176 176 176 181 181 181 180 178 176 173 173 175 172 167 161 156 156 160 163 166 171 175 177 180 183 185 184 188 187 181 177 173 169 171 172 170 169 168 163 160 162 168 171 171 165 158 157 156 161 172 175 174 174 178 184 187 185 185 182 176 168 161 158 158 156 158 169 166 162 163 167 174 174 172 167 164 165 166 166 167 168 166 160 159 164 174 178 173 167 162 161 164 164 162 163 160 157 154 153 
21 35 36 36 35 35 37 36 36 38 37 38 38 39 39 41 45 48 46 43 42 41 42 42 42 45 42 40 39 39 41 34 17 8 9 15 20 23 29 36 41 42 41 41 41 35 33 27 17 8 4 4 3 4 11 21 30 42 59 68 80 89 91 93 92 82 72 61 53 50 49 58 71 84 97 99 92 67 38 23 14 12 13 19 30 36 35 31 28 30 33 36 45 37 30 103 95 82 50 11 5 3 8 2 2 16 107 107 105 113 81 3 17 72 40 7 0 70 93 90 86 103 59 0 11 16 28 7 8 69 84 75 88 50 18 47 77 57 18 2 63 87 75 61 18 0 1 0 3 13 12 43 89 80 93 43 30 83 126 110 85 26 81 111 102 118 114 24 20 24 36 37 25 46 91 79 57 41 38 37 35 35 41 43 37 45 63 73 68 57 47 42 43 43 46 49 49 49 47 41 31 21 15 18 30 33 27 29 33 37 41 43 46 47 46 45 43 44 43 43 48 55 63 72 77 76 76 74 71 68 63 56 55 54 52 47 43 44 41 42 43 41 41 41 45 50 54 57 56 57 54 52 49 42 34 24 10 0 1 10 23 35 44 50 55 65 68 66 67 69 63 56 47 41 37 35 36 41 45 43 42 38 30 19 24 35 32 28 18 7 6 18 33 34 33 31 39 55 67 70 74 77 74 64 51 37 26 23 16 11 7 18 31 34 48 57 44 24 22 31 41 43 48 49 40 15 0 14 40 40 26 19 21 30 42 49 49 45 38 34 30  105 108 110 109 110 112 114 114 115 115 114 112 114 113 115 119 120 119 118 118 118 119 119 118 116 119 119 121 126 134 132 123 124 129 132 134 132 128 127 124 122 121 120 121 118 116 114 109 106 102 103 104 103 105 112 116 116 120 124 128 129 131 135 136 135 134 131 129 131 132 135 136 138 144 147 146 130 118 113 107 106 102 105 119 122 119 121 117 115 115 120 123 91 67 190 214 207 240 247 131 78 80 21 9 36 175 196 194 199 143 12 21 69 43 15 7 124 202 206 209 217 131 1 20 21 33 14 22 147 182 172 169 89 21 46 69 50 21 11 131 209 205 214 236 254 255 254 255 216 86 100 181 169 164 66 34 87 118 103 84 39 145 206 202 210 178 39 22 33 50 52 45 88 157 144 118 108 108 105 106 110 115 118 114 120 134 139 132 127 124 118 119 121 125 130 126 126 128 127 119 110 108 108 109 109 108 107 112 120 123 125 126 127 127 129 130 130 128 126 125 131 136 140 139 136 135 135 132 130 128 127 127 128 127 126 127 122 121 120 119 120 118 118 118 121 126 127 124 125 126 124 121 117 116 115 110 102 101 105 111 117 121 126 133 138 141 142 144 147 148 159 158 148 141 130 125 126 124 124 121 114 107 102 110 119 119 115 103 95 98 105 119 121 115 106 109 121 133 138 141 139 136 125 115 105 102 99 96 107 115 106 108 110 118 126 118 105 106 110 112 111 115 118 107 98 88 105 116 115 106 99 97 103 109 115 115 114 113 111 108 103  146 147 148 148 148 149 150 150 150 151 152 151 152 154 152 151 154 154 156 156 154 155 156 157 158 157 157 158 157 157 158 162 167 172 173 173 172 170 168 164 160 159 159 160 162 163 162 161 160 160 161 161 160 161 164 165 166 170 173 176 177 178 178 178 176 174 172 173 176 181 183 186 189 191 192 188 183 174 167 165 164 163 163 165 166 166 166 166 167 169 178 182 138 95 214 242 231 214 161 71 40 48 19 13 40 202 231 225 233 178 24 26 75 54 21 11 147 241 235 234 238 138 3 20 21 34 14 25 166 211 204 200 108 29 51 78 59 26 13 145 232 230 229 202 169 174 171 163 129 61 105 202 200 193 85 42 92 129 115 99 57 166 233 227 234 201 57 38 49 66 75 70 112 192 183 160 157 161 156 157 157 157 159 156 160 173 180 175 166 157 155 156 159 168 171 167 165 165 165 166 166 162 157 157 155 153 155 159 161 164 169 173 177 178 178 178 177 175 172 171 172 175 179 182 184 182 181 182 181 179 178 178 178 177 174 173 171 170 171 171 171 171 171 172 171 173 172 174 176 174 172 170 168 169 170 169 164 161 163 165 169 172 176 179 181 184 186 187 187 187 189 183 178 175 170 171 175 174 173 171 168 163 159 166 171 172 169 161 158 157 162 172 174 172 168 169 177 184 187 188 188 184 174 166 160 158 156 158 164 168 168 167 168 175 175 171 170 166 166 167 165 166 164 160 159 157 164 173 171 166 161 159 160 164 165 163 164 162 159 156 154 
24 35 35 36 34 37 37 37 38 40 37 37 40 40 40 41 45 46 50 46 44 46 46 43 41 44 44 42 38 39 36 30 21 10 10 14 18 28 34 37 41 44 44 45 44 46 42 35 25 12 6 3 2 0 1 8 19 24 43 56 64 72 78 84 85 81 74 66 62 51 43 37 31 32 49 71 87 97 87 65 37 19 16 13 23 39 41 38 37 38 42 37 16 0 68 111 86 77 14 0 3 3 7 8 1 16 108 110 105 110 82 7 19 68 39 0 5 84 96 94 108 121 31 0 8 25 17 0 16 87 79 72 89 55 21 62 81 59 7 27 92 81 69 47 23 4 0 0 1 0 32 81 81 75 77 27 25 90 103 96 60 4 71 93 85 91 109 39 10 12 16 17 26 32 99 105 99 57 47 44 49 49 49 47 67 78 90 107 112 32 23 27 30 32 34 35 67 68 59 46 37 26 20 16 23 31 30 30 37 40 44 45 49 47 46 46 45 44 45 43 44 51 61 72 78 78 75 72 68 65 57 52 50 46 44 43 42 41 40 41 47 46 47 50 50 51 55 58 55 48 47 46 42 43 41 33 15 1 0 2 14 26 38 47 54 59 64 64 65 63 59 54 46 37 31 28 29 35 43 48 50 47 43 36 29 36 34 27 23 11 3 10 27 32 34 30 28 41 55 68 76 78 78 71 60 45 29 23 20 14 2 8 33 37 44 55 48 28 24 29 40 43 42 86 60 13 0 6 28 35 21 9 18 26 36 45 48 46 40 35 30  110 112 112 110 114 113 114 116 116 117 117 117 118 117 118 119 122 123 120 120 122 122 120 120 120 122 121 117 120 127 124 121 125 131 136 135 132 132 129 124 123 123 122 124 122 122 120 113 111 106 103 104 101 101 104 111 111 115 117 120 124 125 128 130 134 134 135 140 141 136 130 122 117 121 132 147 150 146 132 117 110 104 102 113 125 128 128 125 125 122 102 52 3 113 224 207 222 237 86 1 5 9 17 11 36 175 199 197 196 145 20 23 63 41 8 13 148 202 203 212 219 71 0 15 29 21 2 37 163 170 165 166 89 22 60 74 54 8 61 194 202 208 212 236 252 203 184 238 255 223 187 180 174 153 48 29 88 92 86 57 15 142 202 198 201 202 101 70 47 18 20 27 60 174 179 155 87 98 108 107 113 112 116 143 157 172 187 172 57 41 45 48 56 65 78 133 139 128 126 125 116 108 107 108 109 107 107 113 114 118 123 133 133 134 134 134 132 129 126 126 130 136 138 140 137 137 135 130 129 126 124 124 126 127 124 121 118 116 118 120 121 119 119 117 118 124 123 118 114 114 116 116 116 114 115 107 101 98 103 110 116 122 126 129 134 136 140 140 139 138 143 149 143 139 132 125 123 125 126 127 124 119 113 110 118 119 118 110 98 95 102 118 120 113 104 100 111 124 135 140 142 141 134 123 110 99 97 98 100 104 104 115 117 121 125 121 109 109 110 112 108 111 169 132 94 85 101 111 112 99 89 95 102 107 110 113 114 114 111 107 103  149 149 150 151 150 151 152 152 151 152 152 153 154 156 156 155 156 157 156 157 156 156 157 158 158 157 156 158 157 157 159 162 168 173 175 176 173 169 166 164 160 158 161 162 161 160 161 162 160 161 161 161 159 160 162 165 165 167 170 172 176 177 177 176 175 173 173 172 171 172 172 174 178 182 189 194 195 193 184 170 165 162 162 163 167 169 168 166 169 176 151 88 21 128 249 235 229 169 44 7 11 15 21 14 40 202 231 227 233 179 26 27 74 51 12 17 175 238 233 234 238 81 0 16 30 24 3 41 186 206 197 193 107 26 66 85 64 12 66 215 226 230 223 209 171 112 92 132 160 182 198 206 201 178 60 38 93 102 95 67 20 156 228 224 225 222 94 42 28 20 28 33 69 204 214 186 116 137 157 153 154 152 154 176 191 205 218 198 83 59 61 63 71 87 107 162 176 166 164 168 166 162 159 158 155 152 154 159 160 162 167 177 180 185 185 185 184 180 176 176 177 179 181 182 182 181 180 181 179 177 177 176 175 173 173 170 169 169 168 167 168 168 167 169 167 167 168 167 167 167 167 166 166 166 166 165 163 162 166 168 173 174 176 178 181 184 185 184 184 185 184 181 174 171 171 173 174 176 177 176 175 171 164 164 171 172 171 165 158 158 164 173 173 168 163 162 169 178 185 188 190 189 185 176 165 159 159 157 161 168 168 172 170 173 175 171 169 166 164 164 163 161 174 164 157 156 163 167 164 159 156 158 160 162 165 166 164 160 158 157 155 
22 36 37 38 37 38 40 40 41 40 38 36 39 41 44 45 46 49 49 46 45 47 48 44 42 42 43 43 40 37 33 27 25 20 14 11 13 23 32 37 40 43 45 45 47 44 42 38 29 18 6 1 2 1 0 1 7 15 27 43 49 56 62 66 66 65 60 58 58 52 45 38 30 23 18 24 41 68 87 91 81 65 45 28 23 33 46 47 50 49 31 26 5 11 94 93 78 67 30 0 4 2 5 9 2 12 104 111 105 109 82 5 13 70 29 0 18 102 100 99 119 121 16 0 6 7 3 0 29 92 77 72 89 55 19 65 84 43 2 59 86 69 63 53 48 5 0 2 0 5 48 81 75 73 77 26 33 87 88 72 22 19 93 87 87 81 58 18 2 7 14 15 3 36 90 85 96 70 49 104 108 99 52 22 93 109 100 106 108 30 16 11 8 10 22 17 57 107 92 76 47 32 20 13 12 24 32 34 40 51 64 66 39 43 39 41 42 47 51 47 38 39 52 63 71 74 74 72 66 61 57 51 48 45 41 42 43 42 42 44 48 49 52 52 50 50 54 59 58 50 44 38 33 32 29 30 20 6 0 0 4 16 31 38 48 51 56 58 58 53 51 46 43 35 25 23 23 26 35 47 52 52 48 45 40 37 41 32 25 18 3 9 25 32 31 27 25 30 41 58 72 77 77 73 67 52 34 24 28 30 5 0 24 34 39 53 49 26 17 24 33 37 34 43 38 8 0 3 22 33 22 11 14 18 29 35 41 44 41 36 29  113 113 111 115 117 115 118 120 119 116 116 119 121 123 121 123 124 121 121 122 123 124 121 119 120 119 120 119 117 116 117 120 124 129 133 133 133 130 127 126 124 124 124 124 123 123 122 116 110 104 100 101 101 98 100 107 110 109 109 112 118 117 120 124 124 130 133 136 138 136 130 126 116 111 112 116 131 141 144 140 130 122 113 110 121 133 131 136 127 71 37 12 24 165 214 206 227 135 5 19 15 16 18 12 29 167 198 198 196 147 17 18 66 35 5 31 175 203 207 217 209 40 5 13 12 8 0 53 168 164 160 160 84 23 64 76 44 6 116 197 193 200 212 196 81 24 11 64 163 198 190 180 174 154 50 36 82 81 65 23 49 188 201 207 214 226 239 244 224 152 56 12 83 175 167 169 91 61 121 110 102 61 46 167 206 201 207 195 62 37 26 13 7 21 20 100 181 163 136 111 121 112 105 106 111 115 110 114 126 139 131 100 106 99 105 113 124 137 135 124 124 131 138 138 138 135 134 130 128 125 125 123 123 123 121 121 118 116 119 121 120 118 118 118 119 120 118 117 112 108 105 101 100 102 108 104 100 95 95 106 112 119 122 123 125 126 129 130 129 126 127 130 133 132 132 133 125 120 125 126 127 126 124 117 116 119 119 116 104 94 102 116 118 112 105 102 104 110 124 137 143 143 140 133 115 102 96 102 105 99 101 116 119 118 132 133 116 106 106 107 101 100 136 129 91 85 98 109 107 95 87 93 96 102 103 109 114 112 109 105 101  151 150 152 153 152 152 151 152 153 154 154 156 156 156 156 157 156 158 157 157 157 157 157 157 157 157 158 157 158 157 159 162 166 169 175 177 174 171 168 164 160 160 162 161 161 162 161 163 162 162 161 161 159 158 160 161 163 165 168 169 171 173 173 173 172 171 172 172 170 170 168 169 170 170 173 179 187 192 191 186 178 169 165 163 166 171 171 175 167 108 56 21 28 187 243 232 230 116 8 22 16 18 20 14 33 195 231 227 233 181 25 22 74 42 6 35 202 233 233 237 226 46 6 14 14 10 0 61 195 199 192 184 103 29 67 87 53 9 129 225 219 221 221 189 55 10 2 29 112 178 205 206 200 176 60 43 88 90 76 32 53 205 224 229 231 218 179 154 137 91 45 18 94 203 203 201 109 75 138 125 117 81 67 189 234 232 235 217 69 29 19 13 12 26 25 113 215 199 169 149 167 166 162 161 160 161 159 159 167 177 167 135 141 141 149 159 172 186 189 177 176 180 182 182 185 183 181 179 178 176 175 174 174 174 172 168 168 168 166 165 166 166 166 165 163 163 162 161 160 158 158 157 158 162 165 162 160 159 162 167 172 174 175 173 174 178 178 178 177 178 176 174 171 169 170 173 174 173 177 178 177 176 173 167 170 173 172 170 162 159 164 172 171 167 161 157 160 169 179 185 189 191 191 182 173 165 158 160 164 165 168 172 170 168 167 166 163 164 163 161 159 156 166 163 153 156 161 163 161 154 152 154 158 160 162 164 163 162 158 155 154 
23 38 39 40 41 41 41 40 39 40 39 41 41 44 49 47 46 47 45 45 47 47 46 44 44 44 44 44 43 41 38 32 28 25 23 20 21 22 26 35 44 46 43 44 48 44 43 41 33 24 8 0 0 0 0 0 6 13 18 30 37 44 50 53 53 54 52 49 45 41 35 28 29 33 31 29 30 36 49 63 73 81 79 64 43 28 32 55 52 14 28 21 2 35 104 82 64 66 21 0 4 4 3 3 1 8 106 116 107 106 103 17 7 61 26 0 14 106 107 101 125 106 1 4 5 2 5 0 47 92 77 71 87 72 29 72 68 24 0 60 80 71 65 96 39 0 2 3 3 0 42 91 72 71 73 28 43 90 74 35 0 61 95 84 83 47 1 0 0 0 1 32 55 77 87 84 85 65 42 114 110 97 49 6 68 99 84 83 83 62 24 3 9 12 15 9 30 93 87 100 77 47 58 58 53 46 31 67 103 98 102 115 42 5 12 9 11 16 24 39 70 53 42 45 56 62 66 64 61 58 54 48 45 43 40 39 38 40 42 46 47 47 51 52 51 58 56 53 52 50 44 36 29 23 17 13 13 10 1 0 0 5 12 22 34 40 44 45 46 43 43 41 34 27 21 18 20 23 29 36 45 54 51 45 45 39 46 42 33 26 13 15 27 29 28 22 23 28 32 45 61 72 76 77 75 63 53 47 47 46 19 0 13 34 43 53 47 20 7 17 24 24 25 12 0 1 0 0 17 30 27 12 7 13 23 26 32 36 34 32 29  114 115 117 121 120 116 117 119 120 118 118 119 122 123 124 123 123 123 122 122 123 123 121 121 120 119 120 119 118 118 118 119 122 125 125 130 132 129 127 125 125 124 127 125 123 123 122 120 114 107 102 100 98 97 97 103 109 109 108 111 112 115 118 120 122 126 129 130 129 127 123 119 116 117 117 116 119 123 128 133 138 138 129 120 115 121 138 120 42 34 29 10 57 199 206 204 212 68 6 15 12 12 12 13 20 160 201 197 191 169 38 12 60 34 5 29 174 209 209 222 182 17 10 11 7 10 0 79 168 169 162 146 95 39 66 61 29 6 131 194 187 186 210 85 0 9 12 7 0 104 196 179 173 144 46 44 86 67 34 11 125 203 201 209 223 244 254 255 254 255 227 150 167 181 169 171 104 49 111 101 87 44 16 141 202 198 206 207 215 220 200 178 121 70 13 66 186 178 174 108 89 112 104 100 91 75 130 184 190 199 193 73 12 16 32 35 29 44 86 145 135 125 126 132 131 131 131 131 126 123 122 122 120 122 119 118 118 118 120 118 118 119 119 116 119 118 114 110 110 106 97 94 94 92 94 95 95 95 92 94 103 110 115 118 117 117 116 117 119 119 117 113 119 126 130 136 132 120 114 122 130 129 126 124 119 121 125 121 112 100 107 117 116 111 104 103 101 103 113 127 139 144 146 142 126 115 110 114 117 109 102 109 116 130 143 140 117 97 97 96 92 92 88 82 91 88 91 102 98 96 90 87 91 96 100 101 106 106 104 101 98  152 151 151 151 152 155 155 155 155 155 156 156 157 156 157 159 158 158 160 158 157 158 157 157 157 157 158 157 156 156 157 159 160 164 170 171 170 169 169 164 161 163 162 162 163 162 161 163 163 161 160 159 159 158 158 158 160 161 162 165 166 168 169 170 169 168 167 167 167 167 166 167 169 169 170 170 173 178 182 187 189 183 176 169 166 166 175 157 65 44 38 15 67 227 236 229 225 75 9 17 14 14 15 15 22 185 232 226 226 208 51 15 66 39 7 33 197 234 230 241 197 21 10 12 8 11 0 91 196 197 190 173 116 42 72 72 32 7 151 227 217 213 225 89 0 12 12 11 0 107 215 204 197 168 57 46 94 81 45 12 132 224 224 230 221 190 171 171 172 170 167 142 184 210 204 199 120 55 118 110 97 54 21 161 232 227 232 229 206 161 123 104 69 48 12 76 216 212 205 134 120 153 147 141 128 108 165 217 220 228 216 88 20 24 30 32 39 68 124 185 183 175 179 185 184 183 181 179 177 177 174 173 173 171 169 167 166 166 164 162 162 163 161 161 161 161 159 158 158 154 153 151 151 153 155 159 156 155 157 160 165 170 173 171 169 169 170 170 170 168 168 167 165 164 166 169 170 169 172 177 178 178 179 174 173 179 177 173 167 160 165 171 171 168 161 156 155 159 169 179 186 189 191 189 182 175 168 170 172 168 166 168 168 164 159 159 158 160 159 157 154 151 151 151 154 155 158 161 158 152 151 152 153 156 157 159 161 161 159 153 153 
26 38 39 40 41 40 41 42 41 38 37 41 42 45 47 48 46 44 45 47 48 46 46 44 42 42 43 44 41 42 42 39 37 32 29 29 25 25 26 30 38 44 44 45 46 45 45 40 37 29 14 2 0 0 0 0 4 12 17 23 26 29 34 38 41 39 41 40 35 28 25 25 27 28 24 29 35 39 44 46 54 62 70 82 82 58 50 68 12 16 42 15 2 39 96 77 67 72 19 3 7 10 9 2 1 6 112 124 111 107 114 50 5 32 52 3 0 78 109 100 119 87 0 2 1 2 4 2 72 89 75 72 90 86 50 72 40 4 27 87 77 73 93 98 1 4 6 10 9 0 47 93 73 67 77 45 58 89 58 9 19 98 87 79 76 56 32 6 0 1 0 23 82 87 79 77 81 74 35 90 97 94 42 9 90 97 84 81 74 23 0 1 1 4 12 28 61 92 84 83 96 68 104 111 98 48 13 25 97 91 82 87 88 42 14 3 4 12 20 8 56 102 83 69 51 54 52 52 50 51 49 42 40 37 35 36 40 40 40 46 46 48 54 55 57 61 59 57 52 48 45 36 26 20 13 9 10 9 5 1 0 0 0 1 10 22 29 33 38 34 34 34 27 19 14 13 20 22 27 34 36 43 49 50 51 47 47 50 48 37 27 31 35 30 25 18 20 26 26 30 48 64 74 78 79 79 78 73 65 59 37 10 9 37 57 59 42 11 1 13 21 19 19 21 2 0 0 0 13 29 30 15 9 8 16 26 30 33 33 29 29  116 117 121 121 122 120 119 119 120 118 119 122 124 122 123 121 122 122 124 123 123 122 123 121 120 121 121 119 118 119 119 121 122 121 122 124 127 128 129 127 127 126 125 124 124 123 123 123 117 107 103 98 96 97 97 101 107 108 108 110 111 113 116 117 117 119 122 122 120 119 119 117 117 114 114 117 121 126 127 130 126 128 137 137 123 126 130 28 17 45 22 9 67 200 205 205 207 62 10 17 15 16 11 11 17 159 207 201 189 184 85 7 33 56 14 7 129 212 208 222 161 7 10 8 7 9 7 111 165 169 161 134 107 56 69 42 10 55 182 191 187 200 165 10 13 12 17 22 0 92 191 175 167 137 64 57 83 56 15 55 189 199 202 205 221 253 239 206 191 193 204 203 188 179 170 169 122 47 88 88 86 38 28 172 204 208 210 216 241 255 255 254 255 247 149 134 190 180 173 152 75 98 101 87 41 11 60 189 197 200 204 199 152 174 213 204 181 112 16 100 185 163 139 115 131 133 134 132 130 125 115 115 115 112 115 124 126 120 122 117 114 119 121 118 120 118 113 111 106 101 94 91 94 93 90 93 96 92 91 92 94 97 102 106 110 112 112 113 112 113 110 106 110 125 130 137 139 130 118 116 122 127 127 128 125 127 132 129 120 108 114 121 118 111 101 101 101 99 101 115 132 142 145 146 140 138 135 132 131 120 104 103 124 144 149 137 116 98 100 95 90 89 92 76 75 88 88 98 98 96 90 87 86 90 94 98 104 101 97 99 96  152 151 151 152 154 155 156 156 157 156 156 156 157 158 158 158 159 159 159 159 159 159 157 158 158 156 157 158 158 156 157 157 159 163 165 166 166 166 166 167 166 164 163 162 162 162 161 163 163 161 159 158 158 158 157 157 158 158 160 162 164 166 167 169 168 166 163 162 163 162 164 167 166 165 165 167 168 171 174 179 183 184 184 182 174 174 166 49 23 52 31 12 82 235 233 231 226 68 13 18 16 18 14 13 19 180 233 226 221 222 107 12 38 62 19 9 147 238 229 243 178 12 12 9 8 10 8 127 191 193 186 162 131 62 73 49 11 58 208 225 219 226 182 15 15 14 18 23 1 100 211 200 191 159 73 60 90 66 19 57 204 221 225 225 219 208 160 118 109 120 156 202 212 208 201 197 140 52 95 100 97 48 36 193 229 232 235 234 208 178 176 177 170 157 111 143 214 209 209 179 90 109 111 98 53 21 76 218 225 226 229 209 137 120 126 115 100 61 16 117 216 201 181 164 182 186 185 184 184 179 172 170 168 165 166 172 169 167 162 160 160 160 161 161 161 162 157 155 154 152 151 150 149 149 151 152 151 150 152 154 155 160 164 166 164 162 162 162 161 159 159 158 158 160 162 166 168 168 168 169 174 179 180 178 178 180 184 179 173 166 168 174 173 168 159 154 153 153 160 171 181 189 192 193 192 188 184 181 182 174 167 165 164 159 152 152 153 156 154 151 149 149 151 148 149 156 156 158 155 151 151 151 150 153 154 154 157 156 155 153 152 
27 41 43 42 41 40 42 42 41 41 39 43 43 44 45 47 45 43 46 47 46 45 45 44 43 37 41 40 37 39 41 40 39 36 32 34 31 31 27 24 26 34 38 40 44 43 44 40 41 34 23 5 0 0 0 0 1 10 18 21 24 22 18 22 26 24 23 25 22 19 22 24 23 18 21 27 35 45 52 54 57 54 53 61 77 86 108 32 5 31 17 14 2 45 97 73 71 84 43 21 11 5 1 2 4 4 96 122 111 109 114 73 1 18 71 16 0 52 101 90 98 64 5 3 3 7 0 17 91 84 73 72 92 100 54 55 23 3 57 93 73 76 121 43 0 3 12 9 4 0 62 89 70 62 83 52 68 81 36 0 54 94 75 75 75 102 44 1 1 2 2 0 34 92 76 74 78 75 39 82 83 70 20 6 85 89 83 84 80 65 33 8 0 1 0 42 101 89 82 79 92 67 83 103 82 36 10 8 83 88 77 76 57 29 0 0 0 0 13 22 24 82 84 94 81 61 77 71 59 49 58 80 74 74 72 53 30 37 41 48 56 56 52 53 58 62 63 60 54 49 43 32 25 18 8 8 11 10 7 5 7 2 0 0 0 5 17 27 35 35 30 29 26 19 13 13 21 22 25 30 28 29 38 47 50 49 49 56 60 52 47 50 48 37 24 14 16 20 24 24 32 47 66 83 90 97 102 93 82 69 50 21 8 43 63 57 33 3 4 17 24 23 24 31 12 0 1 0 11 29 26 15 9 5 4 18 29 37 36 34 32  120 118 121 121 120 125 124 121 120 119 121 124 125 122 122 122 121 122 124 123 121 123 122 120 119 121 119 118 118 119 119 119 120 120 121 121 123 125 124 127 126 126 125 124 123 123 123 123 121 114 106 99 95 97 98 98 104 108 109 111 111 110 111 113 111 111 112 112 113 113 113 111 108 107 112 119 124 129 133 138 135 126 126 132 137 178 63 6 37 22 18 10 77 201 201 202 207 98 28 25 15 11 11 12 12 136 202 204 196 188 120 9 21 69 28 1 96 207 209 217 180 35 6 7 15 6 29 141 160 164 157 141 147 63 52 26 7 109 201 194 186 209 73 0 10 16 15 11 2 119 186 171 154 132 71 66 77 39 5 116 206 196 199 198 213 122 47 25 17 19 19 86 190 175 171 166 116 47 79 77 66 23 32 178 203 207 209 210 230 243 208 164 177 224 217 202 185 180 169 157 81 79 95 72 35 15 26 173 202 201 203 211 242 255 255 255 254 255 185 105 177 179 178 130 102 115 113 108 104 131 163 156 159 154 122 86 86 93 104 117 122 120 120 121 121 119 116 113 105 99 96 94 92 89 91 95 95 93 90 94 93 92 94 97 102 107 109 110 108 108 106 105 105 113 129 137 139 140 129 116 110 118 125 130 132 134 138 139 130 123 125 128 123 112 99 97 100 97 94 104 120 133 146 153 159 162 159 152 144 129 110 104 137 152 145 127 108 100 98 95 91 91 103 83 63 80 89 96 99 97 92 88 86 84 91 97 99 101 99 99 96  152 151 151 153 154 153 154 157 157 156 156 157 156 158 158 159 159 159 158 160 159 158 158 158 158 156 156 157 157 156 157 157 159 162 162 163 163 164 165 166 169 168 165 163 160 160 162 164 163 161 159 157 159 156 155 156 156 159 160 161 164 165 164 165 162 161 159 158 156 156 158 160 160 158 159 164 169 172 173 175 178 180 180 183 182 218 91 12 41 29 25 13 90 234 230 228 231 108 31 28 19 14 12 14 15 158 231 228 224 225 149 13 27 80 33 3 113 237 232 237 179 24 5 11 16 7 32 162 187 187 181 167 165 70 59 32 9 121 231 225 215 233 87 0 11 17 16 13 3 129 209 196 182 157 85 71 84 45 7 128 229 220 225 221 229 118 30 11 8 14 15 94 213 204 200 191 138 55 86 89 79 30 38 198 227 230 232 228 224 195 143 93 96 138 180 215 210 208 204 190 100 87 105 83 42 16 31 195 226 224 224 225 215 178 166 169 160 157 112 98 199 210 206 160 136 153 151 152 156 175 204 198 200 191 158 126 129 144 152 162 167 161 160 161 161 160 157 152 150 148 151 150 147 150 150 150 150 149 148 151 153 156 158 161 163 163 162 161 157 155 155 154 154 158 161 163 168 167 166 163 165 171 176 180 181 183 189 187 180 176 177 179 176 167 159 154 152 152 152 161 173 185 192 196 201 202 198 193 186 179 168 161 155 148 144 145 152 158 157 152 149 150 158 149 141 149 154 155 154 154 152 150 151 148 150 154 155 155 152 151 151 
31 42 43 42 40 40 41 42 43 42 40 44 45 44 46 47 44 43 45 46 47 46 42 43 44 40 37 39 37 37 38 38 38 38 39 40 39 35 31 27 25 24 26 31 35 41 46 43 42 39 32 13 0 0 0 0 1 10 21 26 23 18 12 10 12 11 9 15 14 14 15 14 17 16 22 28 40 47 51 56 61 61 56 48 49 94 106 9 16 32 3 9 1 44 97 75 75 89 77 4 5 10 7 1 20 10 104 123 108 108 111 62 10 32 74 23 0 55 93 78 58 10 5 3 1 13 0 46 101 79 70 76 101 84 44 52 29 1 60 90 76 101 103 2 1 2 3 5 1 1 77 83 64 62 85 59 63 55 14 3 71 88 83 80 108 85 0 1 1 1 2 0 33 95 75 67 74 79 56 93 83 45 9 9 84 90 80 83 90 100 25 4 1 1 3 0 53 93 78 77 82 78 70 98 80 24 6 3 68 92 77 67 42 22 5 3 0 1 0 6 41 69 71 71 90 76 89 100 84 57 29 69 98 93 87 84 42 12 9 20 36 44 60 60 56 61 62 59 56 50 43 32 20 13 6 8 8 8 7 7 12 13 10 5 3 0 5 14 19 28 28 26 23 18 13 13 16 21 25 26 28 30 36 41 45 52 55 59 67 62 62 67 63 50 34 16 14 19 21 19 18 32 56 82 100 114 119 112 95 76 56 28 5 34 59 50 17 0 11 27 34 29 28 30 23 0 0 0 13 30 29 16 6 6 5 15 27 35 36 36 32  120 119 122 124 123 125 124 119 120 121 123 124 124 125 122 121 123 125 123 122 122 119 120 121 119 118 120 118 117 118 119 120 121 121 121 122 122 122 123 123 122 124 125 124 124 124 124 124 124 120 108 100 95 96 96 97 103 108 111 114 112 105 104 103 104 105 104 102 103 104 102 103 104 105 111 122 128 132 133 138 140 137 130 119 164 188 30 19 39 15 16 5 71 195 192 195 198 152 15 9 15 8 5 28 19 137 191 198 204 195 109 21 37 71 32 0 102 204 208 215 223 201 154 51 13 6 70 156 156 161 156 171 155 49 48 33 6 118 203 198 206 169 15 8 8 8 11 9 11 141 184 168 145 140 85 60 58 22 14 151 204 198 195 213 142 0 6 9 9 12 2 71 183 169 166 159 113 62 91 74 44 17 34 180 203 203 205 208 201 70 27 6 12 37 23 119 191 175 170 154 105 71 93 71 22 11 16 152 203 198 202 211 224 247 250 180 96 103 215 227 181 174 171 171 107 82 86 73 49 44 141 202 206 209 201 148 118 116 115 101 88 120 127 120 123 122 118 114 102 99 96 92 89 85 90 92 92 93 92 92 96 99 96 96 98 102 106 104 103 104 102 101 100 98 112 131 135 136 136 128 114 111 118 128 135 138 142 144 139 138 142 142 130 113 99 96 98 97 96 96 109 125 145 161 172 179 175 163 147 132 113 102 135 150 135 112 97 103 103 100 94 97 104 98 66 70 85 95 98 98 91 84 88 84 87 92 95 99 99 97 96  152 151 151 152 153 153 156 157 157 157 157 158 158 158 159 159 159 158 158 159 159 160 158 156 157 158 157 155 156 156 157 158 160 160 161 160 161 164 166 167 171 170 169 166 162 160 162 164 164 163 161 158 158 156 154 155 156 159 161 161 161 161 159 158 157 156 155 154 153 154 154 154 156 155 160 165 169 173 177 177 178 178 177 173 204 225 50 22 45 18 22 13 87 230 224 226 226 169 20 11 17 11 9 31 21 160 228 226 227 230 136 22 42 82 36 2 120 234 231 221 164 113 77 22 18 8 77 183 184 183 175 191 168 57 56 36 8 136 233 224 231 188 20 9 9 9 12 11 12 155 204 192 172 163 98 66 64 25 17 171 231 224 221 234 156 0 10 13 11 15 4 76 203 198 196 185 134 67 96 85 55 20 37 200 227 227 229 228 213 69 19 5 4 23 21 133 218 205 200 190 131 77 100 82 29 13 19 173 226 221 218 216 203 189 160 92 38 45 127 184 194 203 204 200 128 94 99 88 67 62 164 231 232 233 217 147 93 83 92 103 125 159 163 160 163 162 156 152 149 149 148 148 146 147 147 146 147 146 147 149 151 153 157 159 161 162 162 161 157 152 153 153 152 152 156 161 165 167 168 166 161 164 174 180 185 189 191 193 188 186 186 185 181 170 159 154 153 152 148 151 164 179 192 203 211 213 210 201 189 180 169 161 147 140 140 145 155 160 159 156 152 154 159 157 139 144 154 157 154 153 152 151 149 148 148 151 154 154 153 152 151 
32 37 40 40 41 41 40 43 43 42 39 43 45 45 45 45 46 47 45 47 46 45 43 43 41 40 39 41 41 37 35 36 38 39 40 43 40 41 36 34 31 24 22 22 25 36 42 43 43 42 39 29 6 0 0 0 1 10 22 28 24 20 12 3 2 7 2 6 8 9 10 13 16 22 27 33 44 50 51 54 59 60 60 55 63 113 92 6 26 28 2 8 4 29 96 80 72 73 94 35 0 7 7 1 13 24 117 115 104 107 111 55 5 46 35 5 2 70 82 64 21 0 1 0 1 1 5 88 95 79 69 79 103 59 46 43 21 2 62 87 69 102 59 0 4 1 2 3 0 12 90 73 61 60 84 65 71 39 1 35 97 92 99 102 111 18 3 3 1 2 3 0 53 96 76 67 72 81 55 92 73 34 9 17 96 88 80 84 109 55 0 4 1 3 4 0 33 93 77 72 77 89 67 85 85 28 6 2 70 88 76 68 51 44 33 2 0 1 3 0 18 62 68 68 74 82 78 90 81 57 19 3 72 82 64 55 38 4 0 2 11 29 41 79 71 62 62 62 57 49 38 31 21 10 4 3 5 9 9 7 13 17 21 23 15 6 1 3 8 13 21 24 21 17 17 17 17 26 34 35 38 40 39 42 41 43 50 55 59 63 70 78 73 63 46 24 12 17 14 13 12 22 53 81 106 122 127 121 105 84 68 45 6 12 45 39 13 0 17 35 42 36 27 27 33 9 0 0 14 32 33 22 8 4 6 17 25 28 36 35 31  119 119 123 124 125 124 124 123 123 120 124 124 122 124 123 124 123 123 122 122 123 118 119 122 119 116 119 118 118 117 119 119 120 121 122 124 123 122 124 124 121 122 121 123 125 124 124 124 124 124 116 102 98 97 95 97 105 109 113 114 112 106 101 99 100 100 98 97 96 96 98 103 106 111 117 126 132 134 136 138 139 137 134 131 197 172 20 28 34 8 16 9 46 180 189 193 190 190 126 128 167 144 49 15 41 158 181 188 200 204 106 12 49 39 13 10 135 202 210 225 238 250 255 203 60 16 132 159 164 164 154 183 117 45 44 27 6 111 196 195 218 105 0 13 7 7 8 6 28 163 174 164 151 164 103 67 42 8 73 192 199 202 206 197 39 11 12 10 10 12 4 98 179 162 160 148 113 61 87 65 36 18 45 190 202 201 201 215 95 0 13 9 12 9 0 78 189 173 168 150 125 72 80 77 27 10 13 154 201 197 199 204 220 177 64 9 0 1 22 108 179 171 167 166 147 92 83 71 49 14 25 176 202 200 207 228 248 254 255 251 194 108 142 141 125 122 123 115 106 99 96 91 85 82 86 84 87 93 92 96 101 104 101 99 102 100 99 101 102 102 101 101 101 97 97 116 132 138 139 136 129 119 119 123 131 137 141 142 143 146 150 149 139 118 102 100 100 97 98 96 102 124 149 169 185 190 186 172 152 142 133 104 113 134 120 101 93 105 109 106 103 101 101 102 74 54 79 97 98 98 93 85 84 83 85 86 90 97 101 99 95  152 151 151 151 151 152 154 157 158 158 159 158 158 158 159 159 160 159 159 158 159 161 158 157 158 156 157 155 155 156 156 156 159 159 160 162 161 161 164 167 168 167 168 169 166 163 161 164 165 163 162 159 157 157 156 153 156 159 160 159 159 156 155 154 154 155 152 151 151 150 151 153 154 157 161 165 169 172 176 178 179 176 177 170 228 213 38 33 43 12 20 16 60 213 224 226 218 210 106 62 89 79 26 19 46 189 222 222 224 232 129 16 58 49 15 14 155 231 231 195 147 149 146 109 32 17 145 188 189 184 174 203 130 51 50 31 7 128 229 221 242 119 0 14 8 8 9 7 29 178 198 188 176 184 112 73 51 10 79 217 225 224 227 215 46 12 13 11 11 14 5 106 201 193 189 175 140 71 95 76 43 20 49 212 230 230 226 238 108 0 16 11 14 13 0 86 213 203 200 186 156 83 89 87 33 13 16 175 228 221 219 214 213 153 40 3 2 3 13 92 186 198 200 197 173 106 94 83 59 19 34 202 228 227 228 222 184 155 151 144 115 102 170 175 163 162 162 154 153 152 148 145 143 142 143 144 144 144 145 148 151 154 155 157 159 158 161 162 160 155 152 150 151 149 151 160 165 169 170 172 171 170 174 180 185 189 192 192 192 191 193 191 185 174 160 154 153 153 150 149 156 176 193 208 217 219 215 205 192 180 169 160 150 141 141 148 157 163 163 160 158 157 160 161 145 139 148 154 155 152 151 151 151 148 145 145 149 152 153 152 151 
32 37 39 41 42 40 41 42 42 41 41 42 44 46 45 45 45 45 46 45 41 43 44 42 41 40 43 41 38 39 36 37 37 39 38 42 39 41 44 37 33 27 26 21 19 24 31 41 41 41 41 35 16 4 1 2 0 5 19 25 25 22 15 11 9 5 3 2 4 6 10 15 18 27 31 38 44 44 46 51 58 60 63 51 84 117 88 5 28 26 4 8 5 19 93 80 62 63 57 11 0 1 0 22 4 57 112 107 100 103 114 49 10 13 3 2 7 75 80 65 9 0 1 1 0 13 64 107 93 78 67 75 90 48 58 36 20 14 53 87 70 88 40 0 3 2 2 2 0 36 96 72 60 60 85 55 65 33 0 70 96 88 89 117 60 0 4 2 13 2 1 0 69 89 70 66 76 81 51 78 70 39 5 31 96 83 88 103 127 26 0 3 6 3 4 0 42 98 81 74 76 88 73 82 74 33 7 7 75 84 75 68 65 73 18 1 3 0 1 3 0 50 73 67 69 75 71 78 85 53 17 3 56 84 69 56 42 13 4 3 0 9 33 67 89 82 77 63 57 49 42 38 28 20 16 12 10 12 15 11 14 21 26 30 31 25 15 12 12 11 12 16 22 29 35 33 30 31 35 39 41 41 40 37 32 34 41 45 48 55 67 79 80 71 57 42 30 21 14 12 12 28 57 81 104 120 123 117 109 95 82 64 18 0 22 29 15 0 19 43 41 35 28 29 34 17 0 0 12 33 30 23 13 8 6 10 19 26 31 28 28  119 122 124 123 125 123 123 124 123 120 122 124 123 123 123 123 122 122 122 122 123 122 119 120 120 120 118 117 115 116 118 117 120 122 123 122 123 125 124 123 123 121 118 120 121 122 121 121 123 123 117 106 105 102 98 96 102 107 112 113 108 108 106 101 100 98 95 97 94 94 98 102 107 114 117 124 128 131 133 136 136 141 109 137 214 167 17 31 34 11 14 13 33 166 198 192 190 207 242 255 252 244 204 36 98 181 177 182 187 206 100 16 19 12 11 20 154 204 213 234 244 248 240 234 192 132 161 162 167 154 152 185 86 51 38 24 21 107 192 192 217 114 0 5 9 7 10 1 69 176 167 163 169 183 85 60 36 8 137 202 198 200 216 108 0 13 8 18 10 11 5 120 171 158 154 142 119 59 73 66 44 10 77 201 195 201 204 204 41 9 11 11 10 14 1 92 182 170 167 152 138 82 74 67 32 10 28 168 193 192 194 194 196 43 0 10 7 8 5 2 133 175 164 160 152 103 71 74 45 19 10 144 204 202 204 210 222 244 233 161 128 168 179 181 170 141 121 124 118 111 106 96 86 86 89 88 91 98 98 98 101 105 106 106 105 103 99 101 104 104 102 102 105 106 107 112 127 142 140 138 136 130 126 120 121 128 131 135 139 146 152 153 142 127 114 107 103 101 102 101 105 126 151 168 185 191 184 174 163 163 159 119 98 112 107 100 96 106 115 109 105 102 100 101 88 55 68 96 99 97 92 89 86 83 82 86 92 95 95 97 97  153 152 150 150 151 153 155 158 158 157 158 157 158 159 159 160 160 159 159 160 159 159 158 158 158 156 158 157 156 155 156 157 159 160 160 163 163 163 162 163 164 166 168 167 167 166 165 163 164 162 163 160 156 156 156 154 155 157 158 158 156 154 154 154 152 151 149 149 150 150 153 154 155 157 164 167 172 173 175 178 177 183 148 164 245 208 31 35 40 13 17 17 38 194 231 226 221 201 157 142 139 134 137 28 105 213 218 219 218 229 114 19 24 15 13 22 175 231 229 184 147 146 135 130 130 128 182 187 191 182 174 204 95 58 47 27 24 120 220 219 234 106 0 10 9 8 12 2 73 193 192 189 191 201 92 65 44 11 151 231 225 222 239 122 3 15 10 19 12 13 6 135 201 189 183 170 141 67 80 74 48 14 86 229 227 229 228 224 48 10 12 11 11 15 2 100 208 200 201 186 168 94 84 78 38 11 31 190 226 221 220 215 201 41 0 12 8 9 9 5 143 200 197 195 182 122 82 87 56 25 14 164 231 227 226 219 196 174 144 82 60 102 170 206 194 172 160 169 167 163 159 149 146 147 145 145 144 145 146 149 152 155 157 157 158 161 163 164 165 162 158 157 158 159 159 162 171 175 177 178 178 178 176 176 179 181 184 186 186 189 195 196 188 180 169 160 154 156 153 150 160 177 194 208 217 220 217 207 195 183 169 160 155 147 145 152 159 168 170 166 164 161 160 160 151 136 141 153 154 150 148 149 149 146 144 144 144 146 150 151 151 
31 38 38 38 40 40 40 38 42 41 40 42 45 45 45 45 44 46 45 44 43 41 43 43 44 40 40 42 37 36 36 38 37 38 41 41 37 39 43 41 39 33 30 23 21 19 21 31 39 43 42 39 27 13 2 2 0 1 9 21 27 26 22 20 14 7 4 5 7 10 13 16 25 28 35 41 43 43 46 48 52 58 53 28 99 108 85 5 20 22 6 7 7 14 87 87 64 59 16 0 1 0 3 21 0 53 104 105 97 99 92 21 34 16 7 2 18 110 96 66 8 0 0 1 0 14 87 100 82 67 64 79 70 38 56 32 18 5 66 98 88 48 11 2 1 2 3 6 1 77 94 68 57 64 71 42 51 25 9 50 99 81 96 124 19 0 4 2 5 4 1 4 88 85 70 62 72 89 64 74 72 40 0 59 95 84 93 117 102 0 2 1 11 2 3 0 66 100 78 74 69 87 75 72 73 40 6 12 81 83 74 73 89 79 0 2 1 2 0 3 0 51 83 70 68 68 73 69 80 45 7 1 59 82 68 63 54 47 34 0 2 1 1 37 71 75 81 78 69 66 55 52 54 46 35 30 30 32 32 31 33 39 42 46 50 51 48 39 31 25 17 11 18 30 41 44 41 38 40 45 45 42 40 33 25 25 30 33 37 46 59 68 77 73 64 56 45 36 27 18 19 37 57 78 95 107 114 109 103 93 82 69 31 0 12 26 20 8 22 39 38 29 29 28 31 27 1 0 5 30 32 23 8 6 4 9 18 24 27 24 22  121 122 124 123 124 124 120 121 120 121 119 123 122 120 122 124 125 127 124 122 121 120 122 120 119 121 121 117 117 119 120 120 122 122 122 121 123 125 124 124 122 121 120 119 117 116 119 123 122 122 119 110 107 102 101 97 98 102 107 111 111 111 110 106 102 96 97 96 97 100 101 106 111 117 123 122 123 128 132 131 137 115 48 166 209 169 23 20 26 12 12 14 23 153 204 192 195 226 247 255 251 240 156 22 109 190 179 179 178 164 51 44 23 13 11 37 170 202 212 237 245 243 238 223 213 194 167 166 161 143 167 171 61 50 32 22 16 135 195 196 219 225 130 36 2 10 15 10 129 174 165 166 180 168 59 50 33 14 99 207 200 206 204 41 5 10 9 12 10 8 17 146 164 159 152 148 147 72 70 69 40 12 138 205 198 201 214 159 8 13 10 15 9 10 3 121 178 168 163 148 161 100 63 67 39 8 37 177 192 191 191 204 144 6 10 6 6 5 9 4 112 175 159 156 154 120 67 71 38 10 15 155 198 198 197 197 213 154 36 4 0 34 175 189 184 178 149 108 106 107 110 125 119 106 101 100 107 111 111 111 113 115 119 120 118 117 114 115 115 111 104 106 110 117 119 118 121 133 139 138 139 138 135 126 117 116 119 123 128 135 146 150 143 135 127 119 111 108 105 107 116 130 149 164 176 181 174 171 174 175 164 131 96 97 99 102 105 116 122 114 106 104 99 98 98 66 53 85 99 95 90 87 86 84 81 82 88 94 91 92 95  153 153 151 151 150 152 154 156 158 159 158 157 157 159 160 160 161 160 161 161 158 158 158 157 159 159 159 159 158 156 158 159 160 160 162 163 164 163 162 162 162 163 166 165 163 164 166 165 163 161 162 161 157 157 158 155 154 157 157 158 158 156 156 152 150 148 148 148 149 150 153 153 157 161 164 169 171 172 174 175 181 156 71 191 245 206 31 26 35 17 17 15 27 177 237 226 222 178 138 141 134 138 113 17 112 219 217 216 213 191 62 50 27 14 13 40 186 226 225 186 148 140 132 122 155 194 186 189 186 170 188 191 71 60 39 24 18 148 218 216 203 154 68 16 5 12 17 12 138 197 189 188 203 187 69 56 35 15 109 232 226 227 223 49 8 13 10 13 11 9 19 167 198 189 181 173 162 78 79 78 47 13 153 236 225 225 237 177 13 15 11 16 10 12 4 134 209 202 200 185 191 114 71 78 47 10 42 202 225 223 218 227 158 8 11 6 7 6 10 5 125 200 195 192 184 141 77 82 48 15 20 177 228 226 223 213 208 133 24 2 0 21 144 202 208 200 172 141 144 149 156 173 169 158 152 152 156 158 159 160 164 167 169 170 170 170 172 173 171 168 166 167 165 168 170 169 173 179 180 181 181 180 179 175 172 171 174 175 178 184 192 196 191 185 176 170 161 159 159 156 165 179 192 204 212 214 211 204 196 185 169 161 157 152 152 157 165 173 173 169 164 159 157 154 154 137 135 150 154 149 148 148 147 146 143 144 141 145 147 147 149 
25 42 40 38 37 41 40 40 42 44 42 41 44 45 45 46 48 46 44 43 40 37 41 40 43 43 39 39 36 35 34 35 38 39 41 42 38 36 40 39 39 39 35 28 23 20 18 21 27 33 39 39 32 18 8 2 1 0 1 15 26 26 27 21 11 9 6 8 12 13 15 18 29 34 39 40 40 43 48 51 55 51 10 28 107 100 90 11 22 37 5 8 8 8 81 92 71 60 9 0 1 0 4 4 0 53 108 102 95 98 74 17 34 8 7 0 64 111 93 66 18 0 1 0 1 35 87 94 75 61 66 85 53 35 50 21 2 16 86 82 84 32 0 1 1 0 12 0 37 107 86 61 57 70 54 37 53 31 7 46 92 77 99 110 7 1 1 3 3 2 0 29 102 80 68 58 71 86 64 79 68 31 0 76 92 86 90 126 54 0 3 1 6 3 1 2 82 97 79 71 65 82 67 63 71 33 1 26 89 81 77 82 99 31 0 2 2 8 5 3 0 45 86 73 69 69 77 68 76 52 10 0 59 80 66 65 73 88 17 0 1 2 0 7 60 67 68 78 86 86 82 63 53 86 94 76 60 40 42 48 44 49 53 57 60 58 58 56 45 31 20 14 15 19 28 36 41 43 47 46 44 40 37 29 23 22 21 22 25 34 51 57 63 68 68 68 59 51 40 34 36 40 52 65 79 93 97 98 96 90 78 66 43 6 4 29 33 21 24 30 32 27 24 26 32 31 4 0 0 26 33 24 8 2 3 9 20 21 22 23 19  123 120 119 121 123 124 123 122 122 120 121 123 123 124 125 127 127 126 125 123 120 118 119 121 121 119 116 119 117 117 118 121 121 122 122 123 123 123 123 124 124 121 120 117 114 112 113 117 119 122 121 115 107 103 101 96 95 97 105 112 113 113 110 106 102 98 101 102 99 103 106 109 114 118 122 122 121 126 130 132 119 31 43 188 199 183 34 23 40 11 12 15 13 129 199 191 198 229 239 164 105 90 24 0 104 190 186 180 173 130 37 44 16 15 5 111 192 193 203 230 246 248 242 231 211 182 172 167 154 155 188 144 45 51 25 7 36 173 192 202 226 246 255 206 81 19 3 70 167 165 163 165 186 136 44 55 36 14 86 197 198 211 185 22 10 10 8 8 10 1 58 169 161 157 151 169 168 74 73 63 32 16 163 201 202 202 213 86 1 11 7 11 9 7 18 150 176 168 162 157 186 110 58 66 33 3 65 192 197 195 195 180 54 3 8 6 12 9 9 0 95 173 162 162 157 151 82 68 46 12 13 160 197 194 195 193 184 33 0 8 9 0 49 172 177 173 177 130 77 81 66 79 164 188 164 136 112 113 118 120 123 126 129 128 128 128 126 126 121 116 107 109 114 118 119 120 122 124 128 133 140 143 142 138 123 112 108 110 116 126 135 139 141 138 136 129 120 116 115 114 119 131 142 153 162 164 169 177 181 174 160 134 99 90 101 110 115 121 120 113 103 98 98 97 98 76 45 70 98 96 89 84 85 84 82 83 85 90 92 91 88  153 153 151 152 151 150 152 154 156 157 157 158 157 158 159 161 162 162 164 162 160 159 158 158 159 159 158 159 160 159 160 160 160 160 161 163 164 163 162 162 162 161 162 163 163 163 162 165 167 161 160 161 160 158 156 156 155 157 159 161 162 157 155 151 149 149 149 151 152 153 153 156 160 163 164 167 170 173 174 177 165 57 55 219 237 223 49 26 47 15 16 17 20 154 234 227 223 168 130 82 47 51 21 0 112 219 220 214 210 157 45 51 21 18 6 119 212 214 217 189 159 150 146 152 177 192 190 188 178 176 208 163 55 58 28 9 41 191 212 211 182 152 151 109 39 17 5 73 185 191 187 186 209 153 51 62 40 16 94 219 224 232 200 26 12 11 9 9 12 3 66 196 191 186 180 191 183 83 84 75 39 19 184 234 229 225 237 100 3 14 8 12 11 9 21 169 208 202 196 190 212 122 65 74 38 6 71 220 227 224 222 201 61 4 9 7 13 10 10 0 108 201 194 194 187 175 93 77 55 17 19 183 229 225 223 215 194 35 0 10 9 4 48 182 203 200 202 148 91 94 86 107 191 215 195 171 154 159 168 171 174 176 177 178 177 174 175 177 176 174 170 169 170 173 174 174 175 177 179 182 181 179 176 173 168 163 161 162 168 177 184 190 193 188 184 178 174 168 167 166 170 178 186 193 202 205 204 199 193 183 172 162 158 157 155 162 171 177 173 168 162 156 154 153 154 143 130 143 153 147 147 148 147 146 144 142 142 145 146 144 145 
18 43 41 38 37 40 42 41 41 42 42 44 44 46 49 51 49 45 45 42 38 36 40 39 41 43 39 37 37 36 35 36 39 42 42 43 41 41 40 39 39 38 37 35 31 26 22 18 19 25 31 36 36 23 11 2 0 0 3 17 26 27 26 16 11 11 8 15 18 19 22 25 28 33 36 38 42 45 52 57 59 24 1 33 107 93 96 28 15 47 7 5 4 6 70 98 80 76 39 1 1 1 0 4 0 63 118 101 97 102 58 20 27 7 4 28 96 95 84 82 55 14 0 1 3 50 94 85 75 61 69 87 42 36 48 40 21 40 91 80 75 31 0 1 1 0 19 42 95 103 75 57 58 71 41 44 44 34 26 55 80 72 93 86 0 1 0 2 3 2 0 64 95 73 66 58 76 73 52 72 61 34 0 54 95 86 99 115 14 0 3 3 3 3 0 15 98 93 77 68 61 77 56 64 63 24 0 41 89 75 84 112 88 0 2 2 1 1 2 3 0 41 91 71 65 67 73 59 63 62 23 3 65 76 66 69 104 68 0 2 2 2 1 0 47 76 65 66 76 64 93 75 42 20 76 91 86 67 45 38 44 53 54 56 59 58 54 53 45 34 22 9 5 11 15 23 28 39 44 41 36 35 35 30 22 20 24 24 28 32 47 53 54 59 63 67 70 62 53 49 47 49 51 55 61 68 76 86 90 87 76 61 49 24 1 31 44 31 29 30 33 32 28 30 34 30 4 0 0 13 28 21 11 2 3 8 14 19 22 20 17  119 120 119 121 125 123 120 125 123 120 123 124 125 128 129 128 126 126 125 124 121 119 119 120 121 118 115 118 116 119 119 120 121 123 126 123 120 121 121 123 122 121 121 118 113 109 110 112 115 121 122 119 112 106 101 96 94 99 106 113 112 109 106 102 102 104 107 107 106 107 112 112 115 116 116 121 124 128 128 129 57 6 54 191 197 197 66 15 48 12 10 14 12 111 198 193 192 208 128 9 1 0 11 4 94 187 187 188 184 112 36 36 17 12 43 168 199 191 194 225 209 114 102 89 132 178 173 168 156 160 191 114 39 51 41 28 90 184 191 201 226 246 245 242 212 144 107 151 167 163 161 162 184 106 46 45 34 34 123 194 194 213 160 5 14 9 8 8 10 2 107 165 154 155 155 184 160 64 67 57 39 3 115 203 199 209 191 29 8 11 8 8 9 4 35 163 165 163 163 171 199 110 61 59 27 2 90 198 194 198 207 131 0 11 7 5 4 5 8 0 89 173 160 165 160 170 87 51 54 22 20 163 194 193 194 203 98 0 10 7 6 8 2 110 181 169 170 156 73 87 69 37 47 173 210 204 185 171 165 155 143 130 129 130 130 126 125 123 119 114 108 106 110 113 112 113 114 118 117 124 137 143 146 142 135 128 115 107 108 122 128 134 134 134 141 136 128 125 127 124 125 129 134 137 139 149 170 180 180 168 148 123 102 89 109 119 120 120 116 111 104 100 98 95 95 83 54 53 87 96 88 86 83 81 82 83 85 88 90 89 86  157 154 150 151 151 151 152 152 156 157 157 157 158 160 162 163 164 164 163 163 161 161 160 159 159 159 160 160 160 159 158 160 161 160 160 163 164 162 161 161 161 161 161 161 162 162 160 161 165 163 161 160 161 157 156 156 156 158 161 161 160 157 154 152 150 149 152 153 154 154 155 158 161 162 165 169 171 173 173 176 85 13 63 222 232 238 90 21 60 18 16 18 16 132 232 227 224 191 79 6 8 5 14 5 106 219 219 215 215 133 42 43 21 15 46 187 223 210 210 211 158 68 62 64 127 191 190 187 177 179 210 129 45 53 43 29 98 202 209 213 183 152 146 137 124 110 103 166 193 189 183 182 205 120 49 54 43 37 134 221 219 235 177 9 15 10 8 9 13 4 120 196 184 183 180 205 177 70 77 68 44 5 131 235 226 231 210 36 9 12 9 9 10 5 41 189 199 196 194 198 222 120 67 66 32 4 102 230 227 224 228 147 1 13 8 6 5 6 9 0 101 202 193 196 190 196 101 64 64 26 25 187 227 223 220 225 113 2 10 8 7 9 6 123 206 198 199 181 87 97 79 46 67 197 232 221 194 164 155 165 178 179 177 178 176 174 174 175 175 173 171 170 171 174 174 172 173 172 172 173 175 173 171 167 165 162 156 155 158 169 177 183 187 188 190 188 182 176 174 174 176 176 180 185 188 193 197 196 190 182 174 166 162 157 162 169 174 175 170 163 159 156 153 153 153 150 135 135 150 146 143 144 146 145 145 143 142 144 145 144 144 
12 29 39 42 42 40 40 41 43 45 44 46 48 50 50 47 47 46 43 42 41 40 40 41 42 43 42 38 37 37 38 38 38 40 40 41 40 42 40 39 37 35 38 39 37 31 25 22 21 24 25 28 34 29 14 3 0 0 5 16 20 24 23 15 13 12 15 20 17 20 25 27 29 33 38 43 45 51 55 66 52 2 1 31 107 93 97 50 2 51 15 5 7 0 54 104 86 84 61 0 2 2 3 4 0 50 122 98 90 101 49 16 16 7 9 61 108 98 89 107 86 3 1 4 0 26 97 83 66 57 69 84 55 51 48 30 21 88 91 78 79 54 7 0 1 0 17 73 102 84 63 52 53 62 29 43 34 12 4 60 74 69 84 90 16 0 2 2 3 0 17 96 84 64 57 55 80 67 51 65 53 33 14 57 100 81 97 104 7 3 3 2 1 3 0 39 107 89 72 67 61 70 54 65 64 24 0 33 90 80 84 113 90 0 2 1 2 1 1 2 0 49 93 68 63 61 68 59 58 57 17 8 73 70 72 82 114 44 0 2 3 3 4 0 30 83 63 60 74 48 79 77 60 15 25 76 75 62 38 2 7 32 50 51 47 47 43 37 31 29 24 13 5 2 5 5 11 25 37 40 41 39 37 38 30 23 26 27 31 34 43 52 49 52 57 64 72 72 64 55 49 50 48 46 46 49 62 76 80 79 71 63 58 43 7 19 43 38 34 35 41 37 34 32 33 24 2 0 0 2 19 20 12 0 0 6 14 19 18 15 15  108 115 119 122 124 122 122 124 122 122 125 127 128 129 130 129 128 127 126 124 121 121 118 117 119 117 119 120 118 120 118 120 121 124 125 124 122 119 117 120 119 121 121 119 117 114 114 111 112 116 118 117 115 109 102 98 95 101 106 108 109 105 103 103 104 108 108 108 108 111 115 116 118 120 120 122 125 125 141 136 24 10 50 189 200 204 116 4 52 21 11 14 7 84 196 192 192 156 16 10 13 13 11 0 70 181 181 180 190 103 28 23 17 15 97 190 196 192 205 193 50 0 4 0 55 168 164 159 150 159 184 111 51 48 32 49 167 190 189 200 222 244 241 230 222 213 195 171 167 164 158 158 172 76 42 35 18 15 140 195 190 207 195 47 0 10 8 10 5 38 152 151 148 149 152 189 144 58 62 50 39 22 104 196 194 210 179 20 14 10 9 8 11 2 71 170 160 157 163 179 198 103 60 62 27 1 75 196 197 201 209 139 5 11 7 5 5 5 7 0 100 173 160 163 162 181 104 47 52 16 26 173 192 195 196 202 61 0 8 7 8 9 4 74 173 164 162 168 80 79 70 55 12 81 199 200 213 230 240 247 197 145 127 119 117 115 113 110 110 109 106 103 105 107 106 106 107 113 112 113 127 140 147 141 139 136 129 120 110 116 128 128 129 131 138 144 140 135 127 124 124 124 125 122 126 149 172 173 169 156 135 121 110 91 106 124 121 118 111 108 105 103 101 97 93 85 61 46 73 90 84 85 79 78 81 84 86 88 87 88 86  157 158 154 151 153 153 152 153 156 159 160 161 162 164 165 166 165 165 164 162 162 161 161 160 159 159 160 160 160 159 161 161 162 161 162 163 162 162 161 160 159 161 160 159 158 159 158 160 161 163 166 163 162 161 160 159 157 158 160 161 159 155 152 151 152 153 154 156 155 154 156 159 163 166 167 170 173 171 180 134 28 16 59 219 232 241 145 11 63 29 15 20 9 100 232 226 231 181 19 14 14 13 14 2 80 214 218 212 217 118 32 29 20 16 106 214 217 211 225 200 41 2 5 0 55 183 183 180 173 178 204 123 55 56 40 54 183 210 208 213 197 159 146 129 141 177 196 193 189 185 179 179 194 87 46 41 23 17 154 219 214 228 203 42 3 12 9 11 8 42 174 186 180 180 178 209 159 62 68 59 42 24 114 221 223 233 194 23 15 11 9 9 14 4 82 199 193 193 193 204 224 117 69 67 31 2 86 224 226 225 228 151 7 12 8 6 6 6 8 0 116 205 194 193 189 205 116 58 62 19 31 197 224 223 220 224 69 0 10 8 9 11 6 85 202 197 194 196 92 88 81 64 19 97 223 222 223 202 160 150 135 158 174 171 171 170 170 170 170 168 165 167 169 169 170 168 168 167 165 165 167 170 168 164 162 160 156 156 155 165 174 176 181 185 190 193 188 184 181 178 177 175 174 175 175 182 187 188 186 180 175 173 169 159 167 175 174 171 166 161 159 159 156 154 153 154 140 133 142 147 141 140 143 144 145 144 143 144 146 145 144 
16 4 18 35 44 40 37 42 44 45 48 51 51 51 52 47 43 45 43 42 44 42 41 42 43 43 43 41 38 42 42 40 38 39 37 40 40 38 38 39 37 34 34 37 37 36 34 31 27 24 24 22 27 33 25 12 3 1 2 9 16 18 18 18 16 15 17 20 19 21 25 31 34 37 41 47 52 56 62 51 7 3 5 17 97 92 98 91 11 40 25 5 7 4 28 102 85 95 68 0 3 3 2 7 6 28 115 94 84 93 36 10 13 6 17 85 94 94 98 113 40 0 3 4 0 33 91 73 57 55 64 75 55 44 24 8 49 88 83 82 92 86 24 3 7 15 30 54 92 73 57 48 53 55 24 37 16 4 5 67 71 61 57 35 18 1 1 6 4 0 58 109 80 65 51 51 78 57 50 63 42 28 35 37 84 69 80 101 17 0 6 2 0 4 0 74 106 84 71 67 59 69 50 53 60 42 6 4 75 91 74 96 94 0 1 1 1 1 1 3 0 66 92 71 63 58 69 63 55 60 17 0 49 81 73 84 112 41 0 2 1 0 3 0 18 84 70 63 66 71 65 76 63 29 5 59 77 70 55 33 15 0 4 41 35 21 23 18 13 14 19 19 17 8 3 0 1 13 29 39 44 48 44 36 29 24 23 27 33 37 43 56 53 52 54 56 67 74 73 63 54 46 43 36 38 51 64 67 68 66 67 70 66 58 22 4 38 45 37 41 44 43 42 37 35 21 1 0 0 0 10 20 12 1 0 2 11 17 15 18 19  95 105 114 122 121 123 123 124 125 125 128 131 130 130 129 129 128 126 126 124 123 123 121 120 119 118 121 119 118 120 121 121 120 121 121 123 121 116 118 119 115 115 119 118 120 117 114 112 114 114 114 113 115 112 107 103 98 100 104 106 105 105 107 108 108 109 109 109 109 112 116 119 123 123 121 123 125 129 128 41 14 14 30 169 195 201 182 35 39 33 11 13 12 47 178 188 194 137 7 13 9 8 13 12 43 166 170 164 169 78 20 19 13 34 149 194 198 202 211 81 0 15 16 6 64 159 149 143 145 152 171 95 41 27 15 96 177 191 195 201 227 243 238 228 221 207 183 170 165 160 150 157 155 52 40 23 11 24 156 190 187 207 237 202 73 9 12 11 0 99 163 146 145 141 149 187 126 55 65 43 33 40 89 188 190 201 198 46 0 16 11 10 13 11 123 163 156 154 163 181 196 92 50 57 40 12 18 150 200 198 210 155 0 3 4 7 5 5 8 4 121 166 157 159 164 187 120 47 53 17 1 118 198 193 196 198 59 0 9 6 5 8 1 47 169 166 163 168 123 67 71 55 28 26 164 201 199 204 215 170 44 39 110 108 97 100 97 94 98 102 100 103 103 105 103 104 109 114 115 114 119 126 135 135 133 134 132 129 122 117 127 128 127 130 133 142 146 144 133 126 117 117 114 114 136 160 166 162 150 139 131 126 121 100 96 123 122 107 104 105 107 105 101 96 89 84 71 49 62 84 79 81 78 78 81 83 86 88 90 89 89  154 157 158 157 155 154 154 156 160 161 162 165 166 166 167 167 166 165 164 164 162 160 159 158 161 160 160 159 160 160 161 160 161 163 163 165 163 162 161 159 159 160 159 157 156 155 155 158 159 161 165 166 165 165 161 160 160 160 160 159 159 156 154 155 155 156 155 156 156 157 159 160 162 166 169 170 170 176 146 35 20 20 41 200 231 233 215 49 45 39 15 19 14 57 213 223 231 164 10 15 12 10 15 14 50 199 211 202 203 92 23 24 17 36 167 223 221 224 231 90 2 17 17 6 62 176 174 168 171 173 189 106 48 32 20 110 202 213 216 217 217 174 156 153 167 187 189 192 189 180 174 178 174 61 47 27 12 24 173 215 211 214 199 139 38 9 16 16 1 108 194 181 178 172 173 207 140 59 69 52 38 43 98 213 218 226 212 43 4 18 12 11 16 13 138 196 192 191 192 206 220 106 60 66 46 14 22 167 223 222 233 168 4 8 7 7 5 6 9 5 140 199 190 190 191 211 134 56 64 23 5 135 226 221 217 219 66 0 10 7 6 9 2 56 197 200 195 196 140 80 80 68 36 36 188 225 221 211 186 122 23 39 139 162 155 159 159 160 159 158 159 160 164 165 168 167 169 170 166 164 162 164 165 161 155 157 156 154 155 162 174 175 178 181 185 192 195 190 184 180 174 172 167 164 168 175 174 176 178 178 178 177 176 164 163 174 172 163 161 162 162 161 158 153 152 153 144 132 137 145 140 139 142 143 145 145 145 147 146 146 146 
18 0 2 13 30 40 41 41 45 46 50 52 53 52 52 48 43 42 42 42 44 44 40 40 40 40 41 40 40 39 39 41 39 37 36 39 39 39 38 37 35 33 32 34 34 36 36 36 34 30 29 26 23 27 32 22 6 0 3 4 10 17 23 23 18 17 16 19 23 25 28 33 33 35 42 51 56 60 62 21 2 10 5 10 86 93 91 103 49 23 37 5 9 5 8 87 91 104 85 0 2 1 0 15 21 17 109 94 83 78 24 17 22 1 34 101 88 87 98 68 0 5 2 3 0 33 84 63 53 52 58 61 29 33 15 25 83 88 93 98 116 102 20 5 8 15 36 74 82 69 52 46 53 40 22 33 18 9 31 89 81 90 44 0 1 2 3 8 1 24 94 97 75 62 51 52 78 48 51 63 47 22 2 28 78 64 68 75 42 4 3 3 9 0 15 105 102 82 65 63 58 66 41 51 61 44 10 12 57 81 66 74 81 19 0 1 1 2 4 2 7 81 86 67 61 60 68 59 47 56 34 1 11 88 75 64 93 51 0 3 1 1 1 0 14 83 74 63 60 76 92 77 62 50 6 43 75 71 83 63 0 2 0 14 66 30 16 14 12 14 18 20 20 17 7 1 0 4 17 26 38 50 48 39 31 20 19 26 36 43 46 52 58 56 50 49 54 68 75 73 65 50 35 31 43 63 68 60 56 53 64 74 73 71 41 1 24 46 40 40 45 48 49 41 37 22 0 0 0 0 3 16 15 2 0 0 6 14 18 20 19  85 95 107 113 120 122 123 124 128 129 129 132 129 129 129 125 125 128 127 123 124 124 122 119 119 122 121 118 119 121 121 119 120 117 119 119 117 117 117 119 118 117 116 116 119 120 118 117 115 117 115 114 115 116 113 104 101 102 103 105 107 107 109 106 105 107 106 107 114 116 117 119 119 120 123 123 123 135 68 5 20 15 18 144 189 190 196 108 26 45 13 15 14 17 145 185 187 146 14 10 9 7 19 25 28 149 161 151 140 49 24 31 9 59 179 195 197 205 141 7 13 7 11 0 58 147 136 129 133 133 151 60 33 20 50 150 176 198 207 213 187 99 86 79 86 130 173 163 160 156 148 161 129 33 39 28 13 75 186 186 192 214 238 240 227 95 18 23 60 147 153 146 143 136 146 184 103 53 64 48 27 7 81 185 186 194 222 194 66 15 4 14 3 39 157 158 157 157 166 182 190 80 50 58 42 16 23 130 191 193 199 208 106 32 23 0 7 10 6 22 141 155 153 159 166 186 127 47 51 31 1 34 183 194 189 197 79 0 7 7 5 7 2 40 165 166 163 162 147 103 73 55 46 10 127 198 193 203 140 9 8 2 51 149 101 93 94 93 93 98 98 98 99 99 100 103 106 112 114 117 118 115 114 120 126 128 124 126 125 118 124 132 129 124 125 131 139 147 143 131 117 107 105 126 152 161 155 141 127 127 133 132 132 112 87 113 122 103 101 102 105 109 104 99 89 83 80 52 52 78 80 80 77 76 84 84 86 90 91 91 90  153 154 155 159 158 158 157 158 162 166 167 165 167 166 166 166 165 165 164 162 162 162 160 160 160 160 160 160 161 160 161 161 162 163 162 163 164 163 161 160 159 159 158 156 154 154 155 155 158 162 166 168 168 167 165 161 160 160 160 159 159 158 155 155 155 155 155 157 157 158 161 163 165 166 168 172 170 182 87 13 24 19 24 170 229 225 235 135 31 50 16 19 19 24 172 224 224 173 21 14 12 9 22 29 34 182 203 192 176 62 30 37 13 69 211 224 224 230 156 11 14 10 12 1 62 169 167 156 159 158 171 70 38 23 55 174 206 222 228 234 195 80 60 59 74 128 187 186 184 178 173 183 147 40 44 31 16 82 209 209 210 197 166 150 135 54 16 19 61 169 187 181 176 166 169 204 115 59 71 56 32 10 92 211 212 218 220 154 40 10 7 17 5 42 184 194 192 190 192 206 213 91 56 68 48 19 26 143 212 217 224 205 72 11 10 2 9 11 6 24 163 188 184 187 190 211 142 53 63 38 5 41 201 219 213 218 84 0 10 7 6 8 3 46 192 200 195 191 169 119 81 67 55 15 150 230 221 225 149 15 15 9 60 173 152 148 152 152 154 154 157 156 158 161 165 167 169 171 169 166 164 159 158 158 153 151 152 155 158 162 174 179 178 177 178 184 194 194 190 182 173 164 161 165 167 170 169 167 171 176 180 180 181 171 160 165 164 159 158 161 163 163 160 157 151 150 151 134 136 145 141 139 143 144 147 147 147 147 147 147 147 
18 0 0 0 3 19 36 42 48 47 47 49 51 49 49 47 44 43 44 43 41 41 40 38 40 40 43 41 38 38 41 39 38 38 37 38 38 38 36 36 36 33 33 32 31 36 38 40 39 40 40 37 34 26 26 24 8 0 1 4 11 18 24 23 18 18 20 20 25 31 33 34 34 36 44 53 55 60 63 22 4 11 5 1 71 97 86 91 80 14 43 14 6 6 0 57 94 85 98 19 2 6 2 2 2 5 89 96 82 70 12 16 27 2 34 100 89 85 90 23 0 3 1 2 1 62 90 66 51 50 56 54 25 41 24 72 98 86 94 112 104 13 3 1 0 0 8 78 75 56 49 49 54 31 45 34 33 14 55 87 78 92 57 0 2 1 1 24 64 91 99 87 70 56 51 51 70 38 50 58 38 15 2 61 84 79 65 20 3 4 3 4 6 13 71 111 96 80 66 62 60 63 36 52 50 31 13 0 44 75 65 60 24 2 1 1 0 7 7 0 43 103 86 66 58 61 70 55 47 54 39 8 16 80 75 63 68 54 0 1 0 0 1 0 16 81 72 61 60 71 111 84 57 55 11 36 79 72 92 64 0 2 2 0 38 83 39 17 17 15 17 22 22 19 13 8 3 0 5 14 24 33 39 39 35 26 23 29 40 47 45 46 56 58 52 45 45 56 71 75 72 58 38 42 62 70 65 52 39 40 53 65 75 77 53 5 8 40 46 40 43 48 52 44 40 24 1 0 0 0 0 7 10 1 0 0 2 10 18 19 17  82 87 97 102 109 118 126 128 130 130 127 128 128 131 130 127 126 127 126 123 121 122 122 121 121 123 120 119 119 122 121 120 120 118 121 118 117 118 118 117 118 115 114 115 117 117 120 121 121 122 123 119 116 115 113 106 103 102 101 104 107 108 108 104 104 107 108 109 115 118 118 118 119 121 124 126 123 131 59 11 20 16 9 117 186 185 183 160 32 45 24 14 13 8 98 179 175 176 43 8 12 10 11 8 14 123 155 145 126 28 24 37 11 58 176 194 194 195 59 1 9 6 6 11 101 137 129 121 117 124 138 47 45 31 108 171 174 196 212 177 36 3 1 1 0 21 151 158 152 151 149 162 102 49 39 39 32 124 185 186 192 212 240 237 229 208 148 144 167 157 155 149 144 139 142 172 79 49 57 39 21 10 126 185 186 200 227 246 222 167 93 41 53 128 167 161 159 161 170 182 181 70 48 46 27 20 8 118 192 188 196 224 237 213 188 77 7 9 0 81 160 152 150 155 169 187 129 48 54 38 8 44 172 190 188 198 160 48 17 0 7 8 2 42 161 164 161 160 152 139 79 53 49 8 111 201 191 201 101 2 15 13 7 96 169 102 91 93 93 95 97 96 97 97 96 99 103 106 110 112 114 114 108 104 108 119 120 121 123 121 121 131 132 125 116 120 132 141 144 138 123 105 119 149 160 155 141 118 109 117 128 133 139 126 88 95 113 106 100 101 102 109 108 105 95 80 84 66 50 72 81 81 80 79 81 84 87 90 92 91 91  150 153 156 159 159 160 161 161 165 167 169 166 165 163 165 167 166 166 164 163 162 161 159 159 160 160 160 160 159 159 160 159 161 161 161 162 164 163 163 162 160 159 156 155 155 154 156 157 159 161 168 171 170 168 167 162 159 159 161 160 159 158 157 154 153 154 154 158 158 158 160 164 165 167 169 170 170 180 84 18 24 22 14 137 226 224 225 195 46 50 27 19 21 14 117 218 215 212 56 10 15 11 13 10 18 151 199 189 163 39 31 43 13 70 210 221 222 216 64 2 11 8 7 12 109 161 159 151 144 150 159 55 51 35 124 201 203 220 231 193 42 7 3 2 0 23 166 182 175 173 169 183 117 54 42 44 34 135 209 207 210 193 164 146 133 128 117 145 183 187 186 182 175 165 164 191 89 58 67 46 25 13 139 210 212 209 189 169 138 96 53 30 50 140 199 194 191 191 195 207 206 81 56 56 35 21 9 128 214 212 212 184 149 119 99 34 6 11 0 87 187 184 182 183 191 210 145 54 63 45 11 47 188 212 213 215 147 23 8 4 7 8 3 48 184 196 192 188 173 158 92 66 58 12 131 235 223 227 113 8 19 17 14 109 195 151 147 148 152 155 156 156 155 157 159 163 165 169 171 170 167 161 156 152 150 151 154 159 162 165 172 180 180 177 172 176 186 194 195 187 175 162 163 168 168 166 162 159 164 171 179 183 185 176 161 158 160 159 158 161 161 165 164 158 153 152 155 140 131 142 143 141 143 143 147 148 148 147 147 147 147 
18 0 0 0 0 1 14 33 45 50 48 47 47 45 48 47 41 41 43 41 37 39 42 40 39 40 43 41 39 38 39 38 37 39 39 37 37 37 37 38 40 37 36 33 29 35 38 43 47 53 54 54 46 32 19 17 12 2 2 2 6 15 18 18 19 19 21 22 28 36 37 36 39 44 50 54 56 61 71 24 7 9 4 3 54 101 87 87 93 26 22 24 5 8 5 29 89 81 94 35 0 5 3 2 3 0 75 92 83 72 8 10 19 3 19 92 86 86 79 4 1 2 2 0 12 79 79 63 53 48 51 45 23 31 12 80 92 82 92 124 49 0 6 2 3 0 11 79 69 48 42 45 54 26 41 47 21 33 90 83 74 77 72 10 0 1 0 20 62 74 86 77 61 48 45 51 62 27 46 49 32 24 8 65 89 96 88 15 0 1 1 0 24 76 100 101 90 74 62 61 57 57 31 45 42 22 9 0 53 87 77 60 12 0 1 0 0 4 12 6 86 102 77 66 60 63 64 49 42 50 30 6 4 66 72 62 37 6 2 1 0 2 6 0 22 91 74 61 60 62 105 101 63 57 14 23 77 70 87 74 0 1 0 5 6 75 87 40 21 21 19 20 22 18 18 14 10 8 2 4 11 18 24 29 33 35 32 36 42 42 44 45 52 56 51 43 39 48 58 71 76 67 58 63 74 67 55 43 32 32 41 54 68 70 52 10 0 25 48 46 43 43 49 51 44 30 6 0 0 0 0 1 3 1 0 0 0 9 18 21 18  79 84 88 92 98 108 121 126 131 133 129 127 128 129 128 128 127 126 126 122 120 120 121 122 122 122 122 121 118 119 121 120 121 122 121 118 118 117 115 117 118 118 116 116 117 122 122 124 130 132 132 127 120 114 112 109 103 102 103 103 107 106 104 104 108 110 110 115 118 117 120 121 121 125 126 125 121 144 63 15 20 17 10 87 183 182 179 176 62 24 34 11 14 13 51 161 174 182 71 2 13 8 7 9 7 108 155 145 128 26 16 23 10 37 161 186 193 171 23 6 8 7 2 28 120 125 122 114 108 113 115 40 34 25 122 171 174 186 212 83 0 15 9 10 7 35 149 154 146 140 142 157 79 46 56 31 76 171 180 185 187 213 237 232 221 220 212 191 170 158 157 155 153 141 139 157 57 49 49 33 26 28 150 191 190 202 226 243 241 233 226 189 193 182 162 160 156 160 172 179 172 61 45 39 21 16 9 123 194 191 199 220 240 246 244 219 134 62 35 143 154 148 151 156 170 184 123 41 48 30 9 24 163 187 187 206 225 225 164 52 5 13 2 52 165 161 162 160 150 155 102 55 53 11 72 198 193 198 111 3 13 10 11 22 160 167 101 97 100 96 99 98 95 98 98 97 100 102 104 108 111 111 107 103 101 107 116 117 119 119 119 128 133 128 114 110 120 133 143 144 134 128 145 160 158 143 124 103 98 107 118 132 141 132 100 86 102 107 104 101 101 106 111 111 99 85 87 79 54 62 83 81 81 82 81 85 88 93 91 93 91  147 150 153 156 157 157 161 165 166 166 167 166 165 164 167 168 167 165 164 161 161 160 160 159 160 160 161 161 158 159 159 159 159 161 160 161 163 164 164 163 161 160 157 156 155 154 157 160 163 167 170 170 170 167 167 162 158 160 162 160 158 157 155 154 154 155 156 157 157 158 160 164 167 170 170 171 171 182 80 19 23 21 14 104 222 223 221 217 80 28 41 16 17 15 62 194 212 222 90 4 16 9 10 12 9 131 195 185 167 39 21 31 13 43 189 218 221 188 26 8 9 8 3 30 140 155 151 143 139 141 133 45 40 29 144 201 207 214 229 90 0 16 9 11 9 33 164 178 168 163 162 176 91 51 60 35 82 188 202 206 209 209 181 151 133 141 172 195 191 186 186 183 178 165 161 175 65 55 58 40 32 33 165 211 208 206 176 155 146 137 140 146 193 202 192 192 185 189 198 203 197 70 53 50 27 18 8 133 216 212 210 173 147 148 141 116 78 49 31 153 183 180 179 183 191 207 139 49 60 37 11 30 181 209 208 191 158 130 81 19 4 15 3 59 190 195 193 189 172 176 115 65 63 17 87 229 225 225 123 7 16 14 18 33 177 192 146 149 151 150 152 154 156 155 155 156 160 163 166 168 167 164 159 154 153 156 160 163 166 168 169 177 181 177 170 169 178 188 193 192 180 172 170 169 167 164 157 157 157 163 173 182 186 177 160 157 160 164 161 160 158 163 167 162 157 153 156 146 133 139 143 141 141 142 147 149 148 147 147 147 146 
18 0 0 0 0 0 0 8 26 46 52 48 46 44 45 43 40 38 35 35 35 41 43 41 42 43 43 40 38 37 35 38 38 38 37 36 35 37 37 36 40 37 34 34 31 34 41 50 58 64 62 58 52 38 23 15 17 8 0 0 1 8 11 20 27 24 23 27 34 38 38 41 44 48 50 52 54 66 85 25 6 9 4 0 34 102 88 86 90 38 10 24 7 7 8 16 80 81 92 54 0 4 4 3 3 0 79 94 85 74 11 8 15 3 10 81 84 83 82 5 0 2 3 2 10 78 72 53 56 52 47 31 19 14 16 82 87 83 92 102 10 0 1 2 2 0 43 83 57 42 35 39 45 20 23 21 10 75 86 80 80 85 98 78 52 31 32 48 60 69 80 66 51 49 47 51 56 32 60 45 37 30 36 83 81 77 85 45 2 0 1 0 21 63 83 96 82 64 54 56 60 55 27 40 36 12 9 10 78 92 90 86 36 0 1 0 0 0 22 70 102 92 72 60 57 59 64 46 40 45 21 0 9 72 80 74 27 0 1 0 0 2 6 0 48 107 77 60 58 57 96 96 60 61 34 0 64 82 78 93 5 0 1 4 0 44 92 78 37 34 28 20 20 19 16 14 15 15 14 11 9 11 17 17 22 31 36 38 35 37 40 40 47 55 51 45 37 41 55 66 74 77 77 78 73 58 41 36 34 29 30 46 61 60 45 12 0 13 46 53 47 44 43 52 49 35 13 0 0 0 0 0 1 1 0 0 1 9 16 17 17  84 79 77 85 91 98 109 118 130 132 128 127 126 127 127 126 125 123 121 123 123 121 121 122 123 123 121 119 119 119 118 119 121 121 120 116 119 117 115 119 120 119 117 116 120 124 128 132 136 135 133 130 121 113 110 111 106 101 99 100 103 102 103 108 108 111 113 118 121 119 121 125 124 125 125 119 142 195 77 12 20 16 8 51 171 179 178 178 85 14 32 14 14 16 28 139 170 179 111 2 12 8 7 8 8 111 158 148 138 41 15 20 10 23 141 175 186 169 21 5 7 9 7 22 113 121 114 110 103 101 78 30 18 37 148 174 177 183 175 27 5 6 7 9 5 85 155 141 134 130 138 139 49 30 31 28 143 174 175 186 192 207 220 228 221 216 204 183 166 161 159 159 158 139 142 145 51 64 46 36 38 94 183 190 192 200 217 240 237 223 225 220 204 173 164 158 154 159 169 177 166 56 43 36 16 15 34 164 190 197 199 215 235 241 238 232 224 193 161 159 150 146 148 157 167 181 114 44 43 22 3 38 176 187 185 208 231 241 240 219 122 17 0 94 166 157 158 157 146 158 107 51 57 30 14 154 198 195 153 12 11 12 15 6 101 189 145 81 93 103 97 98 98 97 96 98 93 100 103 106 109 109 104 104 105 107 111 112 112 112 114 121 130 127 116 106 112 130 140 146 148 156 163 160 146 125 109 99 97 99 112 132 136 136 113 89 98 111 109 101 102 102 110 113 104 95 88 84 63 57 80 82 80 82 84 90 90 93 92 92 91  149 150 149 152 155 157 158 164 167 167 165 165 165 167 168 168 166 164 162 160 159 159 159 160 161 161 160 159 159 158 160 160 160 160 160 162 162 163 165 164 161 160 159 157 157 158 161 164 167 171 171 169 169 167 166 163 158 159 160 160 158 155 153 157 157 158 158 158 159 160 163 167 169 171 172 171 185 218 92 18 25 21 13 65 209 222 221 223 105 18 39 19 17 19 34 166 210 219 135 5 13 9 10 11 10 135 197 186 179 55 19 25 13 26 163 210 215 183 23 7 8 10 8 26 139 154 147 141 137 132 99 35 20 41 176 209 210 213 193 31 6 7 8 10 6 88 175 169 162 156 158 158 56 37 37 32 158 199 198 206 213 222 211 191 173 178 189 195 188 186 185 183 180 164 164 161 56 66 52 44 46 102 202 211 213 212 190 171 151 130 138 176 208 196 191 190 185 188 193 199 187 65 52 46 22 17 34 177 211 212 209 183 150 145 137 125 137 157 162 179 179 176 176 182 188 204 128 50 53 27 3 41 195 207 203 178 141 139 132 111 63 16 0 105 196 190 187 183 166 173 119 61 66 40 24 177 227 224 166 15 13 14 18 11 117 208 169 116 134 152 148 149 153 154 153 153 155 160 163 166 169 167 164 160 157 158 161 163 166 167 165 173 179 178 171 166 169 180 191 193 188 182 176 171 167 161 155 156 155 157 170 180 181 168 154 154 160 168 165 159 157 158 168 166 161 156 156 150 137 136 142 138 139 142 145 148 147 148 148 147 146 
18 0 0 0 0 0 0 0 4 24 42 47 45 45 43 41 41 37 38 38 38 42 43 45 43 42 43 42 40 36 36 38 37 36 39 39 38 41 39 35 40 40 38 37 36 41 50 57 63 63 65 59 54 46 33 16 12 7 0 0 0 1 12 21 30 30 29 35 42 44 43 44 49 53 54 56 62 75 69 30 2 6 5 0 11 94 91 83 95 69 22 16 10 6 8 5 51 84 87 83 12 0 5 3 2 0 75 89 74 70 23 4 9 4 6 81 90 80 91 13 0 3 5 1 10 67 58 42 42 42 43 17 19 11 19 80 78 82 91 88 5 2 2 2 0 1 66 84 62 40 31 35 31 18 33 13 34 85 80 80 85 95 116 125 65 28 37 23 59 80 74 60 49 45 42 55 51 39 55 51 39 29 81 82 81 74 76 77 55 11 0 1 34 65 83 89 75 59 52 53 61 52 27 54 55 35 23 42 80 80 83 80 73 19 0 1 1 0 11 62 92 84 67 55 52 55 60 38 38 50 30 5 28 79 81 83 61 5 0 0 0 0 9 29 96 104 73 60 55 59 88 90 59 55 42 8 50 82 67 79 24 0 1 2 0 24 85 81 61 42 52 56 33 23 21 20 19 20 25 27 25 22 19 14 13 20 26 33 37 37 36 34 38 52 52 48 44 43 53 61 70 81 84 78 61 43 31 31 33 27 29 46 54 52 40 17 0 2 36 57 50 46 41 45 52 45 22 1 0 0 0 0 0 2 0 0 0 4 12 15 17  88 86 81 80 86 92 99 107 121 126 125 127 125 124 124 122 123 124 123 122 124 124 123 122 123 124 121 118 120 120 117 118 118 120 118 118 122 120 119 121 121 121 120 119 122 125 132 136 138 135 134 128 122 116 109 107 106 99 99 97 97 102 106 112 113 117 120 120 122 122 124 129 129 132 135 134 184 204 90 10 8 11 13 24 150 180 177 182 119 27 24 18 15 18 13 93 170 169 157 30 4 11 8 10 8 109 161 154 148 57 11 16 12 15 138 180 180 174 33 4 8 11 6 24 115 121 112 107 95 91 39 24 17 42 154 169 171 176 148 20 6 7 7 7 16 123 148 136 126 120 134 114 30 39 21 66 168 175 177 190 199 211 206 124 81 102 76 129 169 161 159 155 147 136 156 133 53 62 54 39 68 163 184 193 191 198 207 229 226 221 220 207 189 171 164 154 150 155 163 177 154 47 59 57 38 30 97 177 187 198 198 208 230 239 238 230 217 197 174 158 151 149 145 153 165 177 100 41 48 33 9 81 187 185 190 201 225 236 240 234 224 138 77 153 155 152 154 154 147 158 114 52 50 37 17 129 194 191 189 72 0 5 15 3 63 176 169 102 50 78 113 102 94 97 96 95 92 95 103 110 116 115 110 108 104 106 107 108 105 107 107 111 125 127 121 112 118 130 138 147 162 169 164 150 128 108 101 99 98 98 116 129 130 135 129 98 91 111 118 105 101 99 105 114 112 100 89 86 69 53 71 83 85 84 85 91 93 95 92 91 91  152 151 149 148 153 157 158 163 164 169 167 165 166 167 167 165 163 162 163 160 159 161 161 163 164 162 162 161 159 159 160 160 161 160 161 161 161 163 164 164 163 161 161 160 162 164 167 170 171 170 169 168 167 164 165 165 162 159 159 159 157 155 157 159 158 158 159 162 163 163 165 167 171 175 178 179 215 229 107 18 21 20 18 31 182 222 219 222 143 35 30 23 18 23 17 115 208 205 189 39 5 13 10 13 10 134 198 188 187 73 12 19 14 16 154 211 208 192 37 5 9 12 7 29 141 151 146 143 130 119 56 27 19 50 185 204 202 202 163 22 8 8 7 9 19 137 172 161 156 146 153 131 34 44 26 73 186 199 202 210 219 229 219 127 78 100 79 143 188 184 183 178 173 161 177 148 57 66 61 47 71 178 206 215 214 216 213 203 165 145 153 183 201 197 193 188 182 182 186 199 174 57 66 64 46 34 102 195 208 215 207 198 171 145 134 124 130 163 180 180 179 176 174 179 186 200 113 49 59 38 11 86 207 206 205 189 149 135 134 124 123 99 78 170 187 186 182 175 167 175 123 62 63 48 20 147 221 218 201 63 1 11 17 7 77 200 191 118 70 108 154 149 145 151 151 151 152 157 162 168 172 171 167 164 162 161 162 162 163 163 162 167 177 176 172 167 164 175 185 191 191 186 178 171 163 157 154 153 152 156 169 177 175 157 147 151 157 166 171 164 159 155 163 171 166 160 156 151 140 134 142 140 138 140 143 146 148 148 148 148 146 
17 0 0 0 0 0 0 0 0 1 14 34 42 41 40 40 38 37 39 38 39 43 43 45 48 49 47 47 46 41 39 36 35 36 39 38 39 43 44 42 41 39 39 44 46 52 59 60 65 63 59 59 57 49 38 22 7 0 0 0 0 0 12 23 30 35 39 43 46 48 47 48 53 59 59 62 75 75 62 39 3 9 6 4 0 66 100 81 92 43 2 17 11 8 8 4 23 83 78 86 56 0 6 3 3 2 69 82 70 64 25 4 13 7 4 72 96 81 91 20 0 3 7 0 29 62 46 36 34 36 37 10 18 9 29 81 72 82 82 48 29 0 6 4 0 14 71 72 56 38 24 31 24 28 37 27 88 86 73 76 85 104 107 40 0 0 1 0 14 75 68 57 45 43 40 60 48 49 47 35 3 58 86 78 86 87 83 86 101 89 65 69 80 88 84 77 67 57 47 57 59 50 35 57 49 39 13 58 78 76 83 78 80 58 5 0 1 13 42 61 80 75 62 50 44 49 56 30 35 34 30 22 65 79 77 76 73 36 0 0 0 0 3 62 108 95 65 55 51 54 81 83 53 44 27 3 48 71 60 41 6 0 1 1 0 17 82 71 74 34 38 43 83 49 22 23 22 23 27 36 40 35 28 18 14 13 13 20 31 36 33 29 27 43 57 57 49 47 46 56 67 77 76 64 52 38 30 28 27 28 40 50 49 43 32 31 6 0 19 59 58 50 47 42 53 55 28 2 0 0 0 0 1 2 0 0 1 3 9 14 14  92 90 88 85 83 86 95 100 109 117 119 124 122 119 122 122 122 125 125 122 126 126 126 126 128 127 123 123 121 119 119 118 119 122 118 118 122 122 120 119 119 120 123 123 129 136 137 138 134 131 131 129 126 122 114 105 102 98 95 95 100 105 108 111 115 121 123 124 124 124 127 131 136 144 149 164 201 201 113 46 128 57 12 11 105 180 172 185 92 9 28 18 16 18 14 47 158 158 163 110 4 15 10 9 12 115 159 159 155 67 9 20 14 11 118 181 177 172 45 1 10 13 0 62 128 124 119 108 93 77 24 23 13 62 155 159 166 154 84 40 6 12 11 3 41 138 139 131 121 112 129 89 34 44 43 125 167 178 182 188 199 175 65 2 0 3 0 35 157 158 153 146 139 134 162 118 57 50 37 17 119 174 182 196 198 200 203 221 222 206 205 191 186 169 152 146 144 149 164 175 143 50 59 50 39 41 141 175 184 196 200 206 227 242 232 220 217 197 169 160 153 149 145 154 163 172 81 36 38 32 37 143 182 186 191 196 216 231 236 228 215 207 178 158 152 147 149 145 139 154 104 45 41 27 16 144 191 190 205 205 145 49 3 7 51 170 165 141 49 38 64 151 118 89 92 94 98 100 104 112 118 119 116 107 106 106 106 107 103 101 98 98 115 126 126 117 120 122 132 150 165 167 159 139 113 101 99 94 96 108 124 127 127 135 141 107 83 101 125 115 105 103 100 110 116 103 91 85 75 54 60 82 86 84 83 91 95 94 95 94 95  154 152 151 150 148 151 156 159 163 167 168 167 165 165 163 161 162 162 162 161 162 163 163 166 164 163 164 162 159 159 159 159 160 160 162 163 163 163 165 163 164 165 167 166 167 170 172 171 169 169 167 167 167 165 163 164 163 159 159 160 158 158 160 160 159 162 163 165 165 165 167 169 175 180 181 194 227 228 131 33 69 36 18 13 125 220 214 225 120 16 35 25 20 23 17 56 191 197 198 130 7 18 13 13 13 136 194 189 194 88 10 26 16 14 138 210 203 192 51 4 12 16 2 69 151 149 146 140 124 102 34 25 15 72 183 191 194 174 92 42 7 13 12 4 45 159 167 155 147 136 148 103 39 48 47 140 192 199 207 211 217 189 73 5 1 4 0 39 174 180 177 171 167 157 182 131 62 60 45 21 132 197 203 216 218 219 220 229 209 182 185 197 205 191 184 180 177 176 185 197 162 58 64 59 48 46 157 196 205 213 212 212 198 158 137 136 158 182 178 178 178 175 172 179 185 195 93 44 46 38 38 153 203 203 208 201 179 146 133 120 120 151 177 178 182 181 177 169 159 172 116 55 53 34 22 164 217 215 191 126 67 21 10 10 61 193 190 162 63 54 87 178 158 143 148 149 149 155 163 168 173 176 173 170 168 166 164 160 159 158 157 157 169 177 175 170 166 170 180 186 188 185 179 172 164 157 154 152 154 163 172 173 167 151 153 152 152 162 176 170 163 157 158 169 170 162 157 150 141 133 139 143 138 141 143 144 146 146 145 145 145 
15 7 0 0 0 0 0 0 0 0 0 8 27 39 39 39 41 40 39 41 44 48 46 46 49 53 53 50 45 41 38 36 36 37 37 36 41 43 42 44 46 43 43 53 57 61 62 61 62 60 57 57 56 52 41 30 13 0 0 0 0 0 6 20 33 40 45 45 46 52 52 50 56 61 64 69 80 71 65 40 17 11 0 4 0 25 103 84 83 79 3 11 16 10 5 9 4 65 80 70 74 18 0 4 1 5 69 74 63 63 34 4 16 7 3 62 95 78 80 29 0 3 0 3 45 51 37 28 29 36 26 4 18 5 39 78 73 81 41 22 28 1 2 4 0 31 66 52 41 36 20 28 17 30 36 35 93 75 72 73 82 109 30 0 3 3 2 0 13 69 66 52 37 36 43 62 37 41 45 20 33 78 71 79 89 101 99 118 115 56 19 30 28 41 75 75 60 52 45 48 56 54 41 40 28 4 43 83 72 75 87 97 99 106 33 0 2 16 32 63 73 64 54 43 43 48 50 30 41 33 17 18 79 74 82 77 77 70 15 0 2 2 8 53 98 87 62 47 48 51 76 68 47 43 26 4 54 76 83 54 0 0 1 3 0 31 94 71 75 36 35 26 52 95 58 30 27 26 31 36 44 45 43 30 16 10 8 8 16 21 23 28 25 38 55 57 52 40 38 47 58 62 61 58 52 49 40 30 33 44 54 52 42 34 30 42 22 0 5 51 68 58 53 45 47 53 28 0 0 0 0 0 0 1 0 0 1 2 6 16 18  108 99 93 91 88 83 87 93 99 107 110 114 118 120 121 124 124 124 125 125 126 128 127 128 131 129 125 122 120 117 115 118 118 120 120 120 121 126 126 121 121 122 129 133 137 139 137 136 133 130 130 128 126 122 115 108 102 99 97 95 101 105 108 115 121 126 125 124 127 129 127 131 138 147 153 177 199 203 132 136 251 86 7 12 44 164 172 171 142 18 20 26 18 15 17 16 117 157 150 157 47 0 10 7 17 126 156 151 158 92 11 27 15 9 96 162 166 146 55 0 10 3 19 109 131 125 120 112 96 65 14 26 11 80 154 155 159 84 42 43 8 11 11 5 82 142 131 123 116 102 118 63 35 43 53 140 159 174 178 187 197 57 0 11 10 11 8 38 142 146 142 135 130 137 164 94 47 47 27 72 154 165 182 196 206 202 216 191 103 48 63 64 87 141 148 138 138 147 160 173 133 51 41 29 10 101 175 173 184 197 204 211 226 133 64 63 79 105 151 153 147 143 141 152 161 164 70 43 38 18 57 179 179 187 190 197 210 226 235 233 223 193 165 158 148 143 141 140 128 143 83 41 39 27 19 151 191 190 209 234 240 196 68 0 69 177 160 149 56 39 24 109 191 145 110 89 90 99 105 114 117 122 120 109 105 105 106 105 98 94 93 92 108 125 128 121 114 117 126 148 160 160 151 134 118 106 96 95 106 124 127 119 122 138 148 122 80 87 122 129 114 108 100 106 114 105 93 84 79 60 49 78 89 85 84 92 93 92 94 96 95  157 153 152 154 152 150 152 156 159 162 163 166 163 161 162 161 162 162 162 162 164 166 166 168 167 166 165 164 159 160 160 158 159 159 160 164 166 165 167 165 166 169 172 171 172 172 171 169 167 165 165 167 166 165 164 161 162 161 160 160 162 161 162 164 164 166 167 166 167 168 169 172 177 181 184 205 228 233 159 83 129 44 16 16 54 196 214 211 164 26 25 29 21 20 22 22 140 195 185 189 58 0 14 11 19 148 193 189 198 112 13 31 19 11 116 196 190 158 58 3 12 5 19 123 153 147 145 139 124 86 18 29 14 92 184 182 181 95 42 46 9 13 14 5 87 163 157 150 143 127 139 74 42 49 57 159 189 200 206 212 213 63 0 12 10 13 10 40 162 174 169 164 157 157 184 104 50 60 33 80 175 188 203 215 225 222 234 205 110 50 64 71 99 163 177 171 169 174 182 196 149 57 49 38 14 111 194 194 205 212 218 224 227 102 33 41 65 106 166 176 174 171 170 176 183 186 82 47 40 22 62 195 201 204 207 209 205 168 142 140 151 158 171 179 179 176 172 164 150 161 94 52 48 33 27 173 216 210 183 137 125 95 34 0 78 196 187 175 72 53 38 129 214 170 142 145 147 154 163 169 173 175 174 171 168 166 167 162 156 152 150 151 162 175 178 175 167 168 176 179 180 182 181 176 172 162 154 155 163 172 174 170 159 149 161 159 151 157 175 176 167 164 159 164 169 164 159 150 142 135 135 144 138 140 142 143 142 144 144 143 144 
20 27 15 2 0 0 0 0 0 0 0 0 4 20 37 44 43 41 41 44 47 55 60 54 52 54 56 54 49 45 37 37 35 35 37 37 41 43 43 48 53 51 54 62 63 61 60 61 56 57 54 52 49 44 35 30 18 4 0 0 0 0 1 15 36 42 47 50 52 53 52 55 58 63 69 63 56 70 61 48 26 3 2 2 4 1 78 99 88 103 57 3 16 9 5 9 3 22 68 62 57 57 31 2 0 6 64 66 58 59 37 3 16 9 0 49 90 63 25 31 15 0 16 41 51 40 29 24 28 29 20 3 17 3 52 75 77 34 1 21 17 2 0 0 24 55 51 41 32 35 21 25 12 30 28 20 81 73 69 71 86 97 7 1 2 2 2 0 18 76 71 53 42 33 41 57 34 53 50 23 75 80 71 73 84 103 111 99 16 0 1 0 1 0 56 77 56 47 45 48 57 44 34 47 23 11 75 82 76 79 93 105 118 65 0 1 1 1 0 29 73 60 49 42 44 42 41 27 41 35 10 43 73 69 78 82 87 85 60 10 1 18 48 73 88 84 60 43 42 52 70 44 38 39 15 14 79 80 80 77 20 0 1 3 6 62 103 74 77 51 25 42 24 79 86 69 48 36 35 36 42 45 44 40 31 18 6 0 1 3 9 22 28 35 53 58 55 41 36 47 51 50 56 62 68 67 61 56 62 67 60 48 31 24 27 35 35 4 0 31 71 64 58 53 45 45 25 1 0 0 0 0 0 0 0 0 0 0 2 13 17  117 113 106 98 93 90 87 87 90 95 101 106 112 117 120 124 124 126 128 129 132 136 134 132 130 130 128 122 119 117 116 116 117 117 118 119 125 127 126 129 129 133 134 136 138 136 134 133 130 125 127 122 121 117 112 108 101 100 99 96 96 102 106 115 124 127 127 126 127 130 130 132 138 149 134 132 202 198 169 182 166 23 9 15 10 116 178 171 179 116 20 27 19 16 19 13 47 138 151 149 137 73 9 5 24 135 154 148 147 98 15 24 18 5 82 148 130 57 49 38 3 52 116 133 133 128 120 109 89 56 13 22 14 98 146 150 75 11 36 37 8 2 7 72 133 135 131 122 111 90 95 37 36 34 43 148 164 168 173 185 162 18 8 8 9 9 6 48 137 136 135 126 119 133 156 77 56 50 44 137 161 165 180 193 203 202 154 34 1 6 6 6 1 108 148 136 136 147 159 171 115 43 49 25 40 156 181 182 186 194 202 207 113 0 0 1 2 0 79 155 135 136 139 149 157 152 57 44 37 21 120 181 179 184 190 200 207 220 148 102 132 164 162 150 145 140 138 135 131 142 60 37 39 15 47 171 185 186 202 229 232 225 189 82 116 175 159 152 75 30 37 48 178 199 196 154 103 98 108 117 121 123 119 115 105 99 97 98 94 92 89 92 100 118 131 126 115 119 132 141 149 148 146 141 135 126 116 120 130 134 127 112 118 140 143 128 87 81 111 135 126 117 107 102 106 101 92 83 80 73 52 68 89 85 87 89 91 92 96 95 95  161 159 156 154 155 152 151 151 154 158 160 162 162 162 162 161 163 164 161 165 167 166 168 169 167 168 165 165 162 158 159 157 157 160 162 165 167 169 170 170 170 173 175 174 173 170 168 167 167 165 164 164 161 159 159 157 161 164 162 161 163 164 163 164 165 166 168 169 168 169 170 172 175 184 169 160 231 228 198 137 87 19 18 20 18 138 214 208 210 131 26 31 23 19 21 15 56 166 185 180 157 81 11 7 27 161 193 186 186 121 20 28 22 7 100 184 156 62 49 37 3 52 122 149 153 149 144 137 119 77 17 24 17 114 173 176 86 14 35 36 9 4 7 76 148 155 156 149 139 120 117 45 41 40 49 165 191 194 197 208 176 20 9 9 10 11 7 56 162 165 165 157 143 152 175 85 60 60 47 152 182 188 202 214 223 221 167 40 3 6 6 7 2 126 176 166 167 173 181 194 129 50 58 29 45 171 201 203 207 212 220 221 117 0 3 2 3 0 90 178 164 165 168 174 180 173 66 48 39 25 132 202 200 204 209 217 213 191 103 67 109 165 179 174 176 171 167 157 152 159 69 47 49 23 56 192 208 207 200 162 128 117 104 63 130 199 186 181 91 41 46 67 204 212 172 144 151 156 162 169 173 173 171 168 167 163 163 162 156 151 147 147 155 170 178 177 168 168 174 174 177 181 187 186 181 175 169 172 178 178 172 163 153 148 163 166 153 153 171 182 175 170 164 160 165 163 159 149 144 139 135 143 139 137 142 142 143 143 144 144 145 
21 42 34 19 6 1 0 0 0 0 0 0 0 0 12 38 44 43 41 44 47 54 62 60 59 59 59 56 53 49 41 40 36 35 38 41 46 50 55 58 61 62 63 63 61 58 57 59 56 53 48 42 38 34 29 26 24 15 1 0 0 0 1 10 29 45 52 54 53 53 53 54 59 65 74 36 16 72 65 66 43 4 5 7 7 6 34 105 88 89 97 33 2 14 10 7 5 4 39 58 50 55 65 44 0 17 64 60 54 54 28 0 8 11 0 28 83 53 14 22 54 40 39 42 35 33 22 19 26 24 15 4 12 8 57 78 50 0 1 19 69 41 5 30 51 43 42 31 26 23 19 17 12 34 14 27 74 64 65 68 92 71 0 4 6 2 1 0 19 71 65 56 42 29 36 52 33 49 44 26 94 84 75 76 86 102 116 24 0 3 3 2 2 4 59 78 62 45 43 51 58 39 41 40 21 46 84 72 81 81 86 110 91 0 3 2 1 3 0 32 75 67 52 37 39 39 37 24 41 20 11 66 66 67 73 79 92 112 48 0 1 0 7 61 84 73 50 37 36 52 70 41 41 28 5 47 85 75 76 79 34 0 1 0 17 89 98 73 78 56 18 36 13 59 85 88 51 32 40 31 35 40 39 40 37 30 16 0 0 1 2 12 25 35 52 62 58 53 52 52 51 50 56 66 82 85 87 92 95 83 61 39 20 21 25 26 39 15 0 14 63 72 65 61 54 42 25 2 0 2 3 0 0 0 0 0 0 0 5 12 19  124 120 115 107 102 96 91 86 86 88 92 98 103 107 116 122 125 122 125 129 135 140 140 135 133 131 130 127 121 119 119 116 115 120 120 122 127 131 130 131 137 138 136 136 136 133 133 130 125 121 119 115 115 114 114 114 107 101 100 96 96 100 107 113 122 128 129 129 129 129 128 130 133 147 78 53 196 197 199 156 40 14 20 16 14 50 167 174 176 180 79 13 26 20 17 16 12 92 153 148 155 167 105 1 46 153 157 150 145 81 10 17 18 5 52 138 110 35 39 90 94 118 148 132 129 119 109 102 84 52 13 16 19 98 137 94 7 9 39 118 94 31 91 141 137 137 131 120 99 88 68 23 41 19 68 158 163 168 166 179 116 3 10 12 11 10 4 53 138 134 127 122 109 117 138 63 53 44 47 148 161 164 177 189 201 194 41 1 14 10 12 11 20 114 138 131 133 145 154 167 98 43 43 28 90 165 172 186 188 189 201 139 2 10 9 8 10 7 84 149 128 132 136 144 155 138 42 45 22 45 161 179 181 180 183 190 190 88 3 0 2 28 128 148 140 134 130 128 138 146 56 44 26 12 115 180 178 184 199 221 234 222 207 188 166 164 159 153 87 28 39 22 145 190 196 130 97 109 105 112 119 118 115 113 104 98 96 97 99 96 93 98 104 116 129 129 128 137 143 139 137 140 143 154 154 151 149 150 147 136 116 103 122 140 132 122 96 79 99 137 134 124 118 107 101 98 91 85 86 78 57 59 81 85 84 87 92 95 96 94 95  164 161 160 158 158 154 153 150 149 153 157 160 161 162 163 164 165 164 161 163 164 167 170 171 170 171 169 166 163 160 158 161 158 160 163 166 169 171 174 177 176 175 175 173 171 170 167 166 166 165 161 160 158 155 156 158 159 161 163 161 160 163 165 165 167 167 168 168 170 170 171 173 172 185 113 76 223 226 227 161 33 21 23 19 20 62 196 213 210 206 93 16 29 22 20 21 14 105 181 173 177 186 115 4 52 179 190 183 182 104 12 23 21 8 64 167 127 34 38 89 89 118 159 148 149 143 138 130 112 71 17 18 23 123 169 115 10 11 37 115 91 31 96 155 156 157 153 144 128 118 87 29 45 24 82 184 187 190 185 199 127 6 12 13 13 12 5 62 166 164 157 150 136 140 154 69 60 55 52 162 183 189 202 210 220 210 46 3 15 11 14 14 23 133 168 162 165 170 174 189 111 51 53 33 98 183 192 206 209 210 219 149 4 10 9 8 11 8 93 172 156 161 164 169 179 157 49 51 26 48 179 202 203 200 204 209 196 88 5 0 3 35 146 177 170 167 160 149 154 161 64 50 35 20 128 202 200 206 208 179 141 121 126 156 182 192 187 183 106 36 49 35 170 218 204 115 112 162 162 166 169 169 167 162 159 158 157 161 160 156 155 155 160 173 180 179 175 177 178 176 178 182 189 199 196 192 191 191 188 181 169 157 151 151 157 166 154 151 165 183 183 177 171 163 162 160 158 150 145 142 136 140 145 139 143 143 144 145 145 147 148 
19 46 42 35 24 10 0 0 0 0 0 0 0 0 0 8 30 43 41 43 49 54 59 60 58 60 61 60 60 52 47 43 43 40 40 46 52 57 62 67 66 63 63 61 58 56 57 55 52 47 43 36 28 27 31 32 33 25 8 0 0 0 2 7 24 41 50 52 52 53 55 58 59 57 65 25 2 52 73 72 55 4 4 10 5 8 1 74 91 76 83 74 8 6 13 8 5 4 18 40 37 38 40 59 42 44 61 58 53 50 35 2 6 10 1 15 73 43 3 12 44 55 45 24 12 16 18 20 21 24 18 5 6 22 65 69 14 0 0 11 54 60 61 52 43 36 34 25 19 15 23 14 12 25 5 42 64 63 66 78 93 57 0 4 8 1 2 0 20 66 55 43 39 30 36 48 23 41 32 16 83 92 71 77 86 104 101 6 0 3 1 1 0 4 56 66 58 48 43 45 56 30 33 44 22 51 87 71 72 79 89 117 48 0 4 1 1 1 0 39 67 58 52 39 38 35 32 23 43 19 19 73 65 70 73 77 110 57 0 1 1 3 0 48 86 64 44 33 37 49 61 41 40 21 15 70 75 75 84 89 83 15 0 2 29 90 94 70 73 65 22 36 7 46 83 90 53 1 33 28 25 30 33 33 31 36 33 16 10 8 3 7 20 28 39 53 51 52 52 48 45 45 56 63 77 90 98 108 107 92 64 31 16 27 31 22 29 26 0 0 43 75 71 67 59 46 24 1 0 9 16 2 0 0 0 0 0 0 6 14 23  125 124 122 115 109 103 96 90 89 85 83 88 93 96 104 114 121 121 122 127 133 136 136 133 134 131 129 129 124 120 118 119 119 122 126 128 133 137 140 139 140 138 135 132 131 131 131 126 121 117 112 108 112 118 119 118 115 106 100 99 96 100 105 111 119 123 125 127 127 127 128 127 124 132 62 13 142 201 199 166 27 16 23 14 18 11 119 175 168 171 151 41 18 22 16 15 9 55 141 157 186 180 164 108 121 160 159 152 149 98 12 18 17 8 34 132 93 19 37 114 158 152 151 131 117 110 98 93 81 54 19 13 38 100 114 28 4 5 49 157 164 147 148 142 141 137 124 113 93 83 43 20 35 17 99 152 158 162 165 161 91 9 11 14 7 9 3 55 141 132 120 115 102 106 117 44 45 33 39 151 177 165 173 182 199 162 18 9 10 9 10 9 22 120 133 128 126 137 149 163 76 34 48 30 97 165 164 176 184 188 198 72 1 9 5 6 8 4 102 144 131 129 130 141 153 118 32 47 19 62 166 174 181 178 180 188 86 0 8 9 10 0 98 152 136 133 129 124 132 129 49 42 19 51 164 171 178 187 191 211 145 128 141 167 168 162 159 149 99 32 40 10 113 186 183 76 23 103 106 108 111 111 106 104 103 99 100 107 110 108 104 104 110 116 128 130 137 149 148 136 125 134 142 153 163 165 169 168 156 131 103 100 130 141 119 109 99 78 90 126 138 131 125 114 104 96 91 89 93 88 65 52 74 86 83 84 88 93 97 95 92  166 165 162 163 160 159 154 152 153 150 151 154 158 160 161 163 163 160 159 161 163 168 170 171 173 173 170 167 164 164 161 161 160 161 165 169 171 175 178 181 178 176 172 171 169 170 169 167 166 162 159 156 154 155 159 162 159 160 163 162 160 163 166 167 167 169 169 170 171 171 172 171 168 178 94 27 164 232 228 190 39 21 28 19 24 15 137 213 207 203 175 49 21 26 20 21 12 64 162 173 178 177 179 119 134 185 186 182 181 122 15 20 19 10 39 150 103 18 30 109 152 145 152 141 136 133 128 122 109 75 24 14 43 130 144 38 4 8 39 148 163 154 164 163 161 158 147 138 122 110 55 22 39 19 116 182 183 185 185 178 98 11 12 15 9 12 5 62 165 164 152 145 133 129 131 48 51 41 43 162 197 191 199 203 217 174 21 11 12 11 12 11 26 144 167 159 158 164 170 184 87 42 56 34 108 184 186 198 205 207 213 77 1 11 6 7 9 6 117 170 161 159 156 164 176 135 39 55 24 66 184 195 203 199 200 202 89 0 9 10 11 0 111 179 168 165 159 146 151 145 57 51 26 61 186 198 201 207 209 198 97 73 96 154 187 189 185 177 117 40 52 23 137 216 206 90 40 149 162 161 165 163 161 157 155 156 160 167 170 169 165 166 170 176 180 180 181 180 180 179 178 183 188 200 204 206 207 204 195 180 164 155 155 157 153 158 155 151 156 181 189 183 179 169 163 159 159 154 149 147 141 139 147 144 143 143 146 146 147 149 149 
23 46 44 41 34 23 11 1 0 0 0 0 0 0 0 0 4 21 36 45 50 57 59 57 57 56 58 61 63 58 54 46 44 50 50 55 60 65 69 70 67 62 60 59 57 55 55 52 50 42 36 31 29 29 32 36 38 27 15 1 0 0 5 12 23 38 45 48 48 51 52 55 55 56 61 31 0 16 68 68 72 21 3 4 1 5 1 26 86 71 66 74 49 3 13 11 5 1 7 31 21 0 4 26 64 50 50 54 50 47 43 3 4 11 5 8 57 19 0 37 43 22 12 7 3 0 14 28 23 28 27 20 7 32 76 52 0 3 0 9 40 40 47 35 25 22 21 18 20 15 21 7 10 13 12 56 55 52 71 61 27 34 13 3 4 3 3 0 23 64 52 39 31 27 37 43 23 46 30 14 80 92 71 73 80 99 85 1 0 7 2 1 0 12 58 54 42 43 41 42 47 22 33 45 19 44 80 67 67 70 80 103 25 0 3 6 2 1 3 45 59 49 44 47 35 34 28 21 37 10 18 71 67 71 70 81 93 7 0 2 1 2 0 47 82 68 47 34 34 50 42 28 41 13 33 80 72 74 86 104 84 5 0 0 19 98 89 61 69 51 16 38 12 32 79 96 59 3 28 28 26 34 36 37 41 44 45 38 22 14 8 9 17 25 25 37 41 41 44 45 36 37 43 55 65 78 94 106 107 92 64 33 21 31 32 21 23 28 6 0 20 70 76 74 69 52 30 2 3 21 29 11 0 0 0 1 0 0 5 16 24  122 123 123 119 112 107 105 99 90 86 85 84 86 91 95 102 109 117 122 127 131 132 130 129 130 131 130 132 129 127 122 121 125 126 130 136 139 140 142 142 135 135 131 129 128 126 126 124 118 114 112 111 117 119 121 122 116 109 103 99 97 102 106 112 120 121 122 124 124 124 125 123 119 127 81 10 50 183 189 199 80 7 19 14 14 8 49 160 167 163 162 116 21 25 20 14 11 30 121 159 209 207 169 167 155 156 157 150 144 120 22 15 19 10 27 124 50 6 112 173 169 175 165 137 111 99 90 84 72 60 48 13 56 121 90 3 10 0 72 176 169 153 143 133 124 123 114 106 89 74 25 19 19 38 131 150 149 159 118 56 52 20 10 12 9 10 0 68 144 136 126 113 99 99 95 38 51 33 39 152 178 175 170 174 186 138 13 8 13 11 11 6 43 136 134 133 127 133 146 155 58 39 49 23 103 162 156 166 173 180 174 41 1 8 11 10 5 21 121 136 128 127 129 137 150 97 27 40 10 62 164 168 179 175 181 150 11 7 7 6 7 5 102 156 143 135 130 119 131 99 36 45 13 87 170 167 174 182 182 129 11 2 2 61 169 163 155 145 82 27 41 11 90 177 179 83 11 87 108 106 107 110 110 110 115 113 112 117 117 115 111 106 112 117 124 127 133 140 143 130 118 122 131 141 153 163 172 171 156 129 100 106 139 142 116 95 95 86 77 105 139 140 133 126 113 101 94 94 103 100 80 51 68 88 80 80 83 90 95 96 95  168 168 166 165 161 160 157 154 154 153 152 151 152 157 160 161 162 161 160 162 165 168 170 172 175 175 172 171 168 166 164 164 165 166 169 173 175 179 179 179 175 173 171 170 169 168 167 164 163 159 156 156 156 159 160 164 163 161 163 162 161 163 166 168 169 170 170 171 171 171 169 170 167 175 113 21 69 210 219 224 96 14 25 18 20 15 60 190 204 200 196 137 25 28 24 20 13 34 141 157 136 140 161 181 176 179 184 179 173 145 28 16 22 14 32 138 59 5 93 151 144 141 136 128 123 120 119 112 99 84 58 13 66 147 109 6 11 0 50 154 161 157 158 154 144 146 142 134 118 97 35 22 22 45 150 174 174 182 136 64 54 22 11 13 11 12 0 79 170 163 152 143 129 122 109 43 59 38 44 170 200 198 192 194 203 146 15 10 15 13 13 7 50 160 163 160 156 157 166 176 66 42 56 26 116 186 182 190 194 200 189 44 2 8 13 11 6 24 139 162 156 155 153 160 173 111 34 48 14 70 187 192 200 197 201 161 14 8 8 7 8 7 114 179 169 163 156 140 151 112 47 55 19 101 194 196 200 201 197 134 13 5 5 71 187 185 179 173 102 36 50 20 110 209 205 94 24 133 164 160 163 163 165 165 165 166 164 171 174 173 171 171 172 173 178 179 177 177 176 176 175 180 187 191 198 206 212 210 198 179 160 153 157 158 152 151 153 150 150 170 189 186 185 177 166 163 159 158 158 153 143 135 145 148 142 147 147 146 147 148 148 
27 45 42 39 33 28 25 16 5 0 0 0 0 0 0 0 0 1 17 37 49 55 52 53 54 56 59 58 61 62 60 56 50 57 60 65 67 68 67 65 66 59 56 56 53 49 49 41 38 35 31 33 36 39 38 37 41 35 24 8 1 0 3 17 28 34 37 45 46 46 47 50 54 54 61 42 8 1 32 66 71 60 1 8 4 4 7 6 71 73 65 66 63 14 5 12 8 4 2 28 18 0 0 1 22 32 40 47 49 46 53 27 0 9 10 8 47 9 0 19 10 2 0 0 2 1 11 24 27 29 36 25 9 43 75 29 0 4 4 6 10 12 18 27 16 14 11 16 18 15 16 4 10 7 16 53 53 60 37 1 9 33 10 0 0 0 0 9 50 58 40 32 25 28 38 31 19 42 27 13 68 71 67 72 79 93 94 8 0 2 1 2 0 16 55 47 36 37 40 40 41 19 32 39 8 26 64 61 60 68 79 92 29 0 4 4 2 0 14 47 50 40 36 37 30 34 23 21 27 4 36 63 64 65 67 88 68 0 1 6 4 1 0 49 73 58 45 36 34 51 32 30 37 11 58 81 70 73 92 102 12 0 3 0 14 92 82 60 70 36 21 34 14 20 78 96 52 2 26 40 35 37 40 46 46 41 39 36 27 17 13 13 20 18 17 24 27 25 28 34 27 26 27 37 42 55 75 90 98 88 67 47 31 33 31 22 22 28 18 0 3 53 78 76 75 63 41 6 7 35 41 26 2 0 0 3 1 0 5 16 26  121 120 119 117 114 113 111 108 102 96 92 89 85 87 90 96 102 108 115 123 127 125 126 127 130 133 132 130 129 129 128 127 129 131 137 140 143 140 140 137 133 130 129 128 123 122 119 116 117 116 119 119 121 119 121 124 118 111 106 100 97 101 109 114 118 118 118 121 122 121 124 122 119 123 83 27 10 89 187 191 149 13 19 15 14 15 17 129 168 162 155 146 49 15 23 15 14 15 96 161 216 216 184 166 152 152 153 147 137 133 79 13 19 15 24 106 30 3 140 201 188 182 164 144 109 95 90 80 63 72 65 17 77 131 53 0 13 91 180 190 183 166 147 128 118 113 106 98 82 71 31 20 15 44 121 131 141 87 12 18 50 23 1 3 2 11 37 116 146 134 128 119 94 87 68 27 49 29 41 140 157 168 174 172 172 145 25 7 13 11 13 0 59 141 137 140 134 128 132 138 48 41 42 10 82 168 160 159 161 164 160 56 1 9 9 9 0 45 134 130 127 127 128 133 146 74 27 32 12 114 160 157 167 166 177 112 4 7 11 10 8 7 111 145 138 133 123 112 131 72 37 37 22 127 161 165 171 181 154 18 5 13 5 37 165 162 151 141 61 30 36 14 61 173 183 87 5 78 125 116 118 120 121 124 123 119 113 113 112 110 109 108 108 111 120 125 126 125 123 115 111 111 114 124 129 141 158 162 153 132 109 115 141 140 112 92 93 91 77 85 130 144 142 134 124 111 97 99 115 113 94 65 64 87 86 80 80 86 88 93 94  167 168 164 164 162 158 155 156 156 155 156 154 150 151 157 159 161 164 164 163 166 169 170 172 174 175 173 173 172 167 167 168 171 173 174 176 178 178 177 174 172 170 169 168 167 165 164 164 160 158 158 158 160 162 161 164 165 162 163 162 161 162 164 168 171 171 170 170 168 168 167 167 166 172 113 33 23 109 213 219 170 25 24 19 20 21 21 152 206 198 190 176 59 18 27 18 18 17 111 148 114 108 120 155 163 170 180 178 166 160 95 16 22 20 29 117 35 1 100 141 124 112 109 121 115 113 115 110 92 96 77 19 94 160 65 1 11 48 107 129 143 149 152 144 137 137 134 129 112 93 40 23 16 54 148 159 165 104 19 19 53 23 2 5 3 12 37 130 170 158 152 142 121 111 80 34 57 34 48 166 187 195 194 191 188 151 26 9 16 14 15 1 66 164 162 162 157 152 152 158 55 44 49 14 94 193 187 182 182 183 172 56 2 10 11 11 0 52 154 156 153 154 153 157 168 84 31 38 15 130 186 181 189 191 195 120 5 8 12 11 9 9 127 175 166 159 150 136 151 85 45 48 30 148 189 195 196 201 164 21 6 14 7 43 183 183 175 165 72 38 44 16 76 199 205 99 13 114 177 170 173 175 176 173 172 171 166 166 168 167 167 169 167 168 171 171 168 168 168 169 170 172 177 178 183 191 202 206 199 184 165 154 159 159 151 147 148 148 148 159 184 188 186 186 175 167 160 163 167 161 151 139 141 149 147 147 147 149 149 147 148 
27 44 43 42 33 32 39 34 22 11 4 0 0 0 0 0 0 0 0 15 38 48 53 50 50 55 58 60 58 57 59 62 61 63 66 66 68 66 66 63 59 56 55 52 47 42 37 31 31 36 37 40 41 40 38 38 42 39 28 19 8 0 1 18 34 34 33 37 43 43 44 45 48 50 51 21 15 8 1 45 65 71 26 0 3 5 4 1 57 69 59 64 68 41 0 11 10 5 1 22 18 0 1 0 1 14 35 46 45 46 50 48 27 3 11 12 41 5 2 1 0 0 0 1 2 1 8 21 27 30 37 24 11 60 66 17 0 11 4 0 0 0 6 20 9 3 12 25 19 19 12 8 10 4 20 43 49 51 2 5 12 14 36 26 9 14 27 56 59 49 34 25 27 27 35 23 19 33 12 18 62 56 58 73 87 72 51 16 0 2 2 0 7 43 52 44 35 34 33 34 36 21 33 35 9 26 58 54 58 70 84 82 46 2 2 3 2 0 18 40 43 34 34 31 28 33 20 26 17 5 46 56 61 66 76 89 73 3 0 5 4 0 8 46 60 47 38 34 33 41 23 38 30 15 63 68 69 72 94 57 0 2 2 0 31 84 65 56 70 31 27 27 9 30 81 76 43 2 16 41 35 33 37 39 37 31 29 23 20 19 20 24 26 18 22 27 17 12 17 22 23 20 22 19 28 37 47 65 77 83 75 57 43 32 29 27 27 30 28 6 0 32 73 76 79 71 49 9 4 37 46 42 19 0 0 1 7 3 5 10 20  120 119 118 114 117 120 119 114 111 107 98 93 91 84 84 91 93 96 109 118 123 126 124 125 129 131 132 129 128 128 131 133 134 139 139 140 140 137 136 131 129 128 125 122 117 116 115 112 117 122 121 123 124 121 120 125 121 114 110 104 100 101 109 114 115 117 115 117 120 119 120 119 117 107 36 28 22 13 123 187 190 89 4 16 16 18 10 110 169 163 158 156 109 15 21 20 17 9 70 158 210 213 182 149 110 149 147 140 133 124 117 82 20 18 27 97 26 46 179 209 189 176 164 109 81 93 88 80 69 83 73 26 92 120 46 0 108 203 210 197 184 174 152 124 112 108 106 98 86 79 44 19 10 53 107 116 103 11 11 22 35 77 65 37 53 87 139 143 143 133 128 117 91 85 51 24 37 12 57 154 153 157 169 171 129 76 28 8 13 11 5 37 111 139 142 140 135 119 117 120 43 41 39 12 78 149 153 154 156 159 133 66 10 8 10 7 0 72 134 132 134 130 125 128 137 57 33 23 25 139 157 155 155 166 164 110 13 8 12 11 0 35 132 136 131 127 117 109 121 47 39 27 52 155 159 160 163 174 82 0 9 11 0 73 166 154 148 130 46 32 27 14 83 175 185 115 2 62 133 124 125 124 120 121 117 111 103 99 100 98 101 103 103 110 125 129 119 112 107 103 101 104 103 109 111 117 137 150 157 141 122 128 140 132 106 93 93 92 82 80 114 137 141 142 138 118 98 96 118 121 106 86 58 65 88 88 86 87 86 93 93  165 164 162 162 160 158 157 159 159 157 158 157 156 152 154 156 159 161 163 164 167 171 170 170 172 174 174 174 172 170 170 172 174 176 176 177 175 175 174 172 169 168 167 166 165 162 162 161 160 160 163 163 162 162 161 163 165 166 163 160 160 160 162 168 171 170 169 166 167 167 166 165 165 153 57 36 30 21 142 213 215 105 9 20 22 23 17 129 204 197 191 184 127 20 25 24 20 11 79 139 108 100 92 109 102 157 171 171 162 152 143 94 24 20 30 107 28 25 102 108 100 97 102 89 85 109 110 105 97 104 86 30 111 145 58 0 69 114 104 99 107 133 147 135 130 130 128 121 110 102 53 22 11 68 140 148 122 15 13 23 33 73 65 37 53 93 153 161 163 156 150 142 116 107 63 31 44 16 65 178 183 184 191 187 140 81 31 11 16 14 6 35 121 162 166 163 158 147 140 137 50 45 46 16 95 181 182 178 177 178 141 65 11 9 11 8 1 82 154 158 159 155 151 154 160 66 37 26 31 161 183 180 179 188 177 112 14 10 14 12 0 39 151 164 160 154 147 134 143 61 47 36 64 182 191 190 188 194 90 2 11 12 0 84 188 177 172 153 55 38 36 17 95 198 202 116 7 85 183 177 177 178 176 173 170 166 163 158 157 159 160 162 159 161 164 163 158 156 157 161 164 166 168 167 167 175 186 197 200 189 175 162 159 158 149 145 144 145 146 151 175 187 186 189 181 170 161 163 171 170 160 145 137 142 150 148 148 148 149 148 148 
28 40 42 39 35 37 40 39 38 31 21 8 1 0 0 0 0 0 0 0 9 34 48 50 51 53 60 63 63 64 58 58 63 66 67 64 61 58 61 60 53 53 52 49 44 37 33 34 38 39 39 41 42 41 42 39 42 42 33 25 11 2 0 13 36 39 34 33 36 37 41 41 38 48 43 5 9 9 5 6 52 60 54 14 0 1 2 0 39 67 52 55 56 56 30 2 6 9 2 13 25 0 0 0 4 4 32 45 42 43 47 44 48 22 5 9 40 23 12 1 0 0 0 1 0 2 13 19 20 30 38 24 14 54 58 35 14 6 0 0 1 0 3 9 2 8 25 29 29 27 26 12 7 11 31 39 51 12 0 2 0 31 65 57 46 51 53 46 41 35 27 25 23 20 37 20 18 29 1 24 57 55 64 55 30 15 20 15 0 0 0 18 48 58 46 37 28 35 34 31 38 19 30 25 6 34 51 50 61 69 56 28 20 6 0 0 0 25 45 43 40 31 30 27 25 27 14 24 6 15 48 49 59 75 65 38 32 8 0 0 0 9 42 52 50 38 26 25 29 31 18 34 8 29 62 60 67 77 92 24 0 2 2 0 61 73 55 56 62 18 26 18 4 70 94 57 11 4 14 37 35 35 37 33 28 21 15 11 9 17 27 33 32 29 35 36 23 17 21 26 29 23 21 19 25 29 26 41 60 71 78 68 52 35 28 31 32 29 32 15 0 9 53 70 78 75 53 14 0 24 48 54 41 5 0 0 8 13 12 13 19  121 119 116 117 120 122 121 121 120 117 110 100 93 89 84 87 88 90 98 107 116 123 124 125 127 132 136 136 134 131 130 134 138 139 138 137 135 132 132 127 125 123 121 117 113 112 114 118 120 122 124 124 125 123 120 123 122 117 112 103 98 99 107 113 113 118 118 117 116 117 117 113 119 101 29 20 20 17 23 145 183 163 63 14 9 14 6 84 171 165 161 153 144 93 22 18 21 11 37 131 189 201 174 134 37 114 141 133 125 120 114 118 79 17 18 90 102 134 192 206 185 161 92 10 21 84 84 74 72 81 78 32 81 114 110 96 179 205 208 196 177 168 139 118 110 109 106 97 83 89 49 14 31 77 98 105 28 6 13 11 80 143 146 144 147 150 141 139 138 132 125 111 87 89 45 23 34 9 82 153 152 156 119 62 34 40 28 14 4 11 67 136 144 142 142 135 131 114 115 118 36 33 26 14 103 140 141 150 140 103 52 34 13 2 3 15 86 130 135 139 134 131 126 125 128 44 31 10 70 144 148 155 157 121 73 53 19 3 1 3 43 107 135 136 130 121 113 108 106 33 32 8 96 154 152 150 162 154 36 1 10 9 10 122 151 144 142 115 31 32 20 27 146 175 182 176 69 42 122 125 120 117 117 111 102 94 90 85 85 90 99 99 104 122 135 130 117 110 105 101 99 103 102 101 99 102 117 136 149 149 138 143 144 127 104 96 94 88 83 83 99 125 134 143 144 124 99 87 106 121 118 105 71 54 74 94 88 87 87 93 91  163 162 162 161 160 160 160 161 161 161 161 160 158 156 154 154 156 157 160 164 166 169 171 169 171 174 175 176 175 174 173 173 175 175 174 172 171 171 170 169 166 166 165 163 162 162 161 162 162 163 163 164 164 164 163 164 166 166 163 162 160 159 162 167 169 171 169 167 166 164 164 162 165 136 45 30 27 22 35 166 210 186 74 19 16 18 11 97 201 194 191 181 168 107 26 21 23 14 44 133 107 89 83 91 32 121 162 161 155 150 138 135 90 21 21 100 108 112 100 93 83 87 58 8 23 97 105 102 98 105 93 37 103 138 122 85 115 100 94 86 90 120 133 126 125 129 128 123 109 109 58 17 39 99 131 134 39 8 15 12 70 140 148 150 157 164 161 159 159 154 148 138 111 108 58 26 36 11 95 177 178 177 135 69 37 39 30 14 5 10 68 144 161 162 166 160 156 142 140 136 41 40 35 17 121 166 164 173 159 116 56 36 17 2 3 16 92 145 154 161 158 156 151 150 151 52 34 14 80 166 174 178 177 136 79 55 21 5 3 4 45 120 156 163 160 150 142 133 125 42 40 14 114 185 183 180 185 165 39 5 12 10 13 140 176 167 164 132 39 37 25 35 165 199 186 126 39 59 167 177 175 174 171 167 162 156 152 150 147 151 155 156 159 163 164 159 156 152 152 155 156 161 164 161 157 159 174 188 198 196 183 173 164 156 149 144 143 142 143 150 164 180 185 188 184 173 163 158 170 174 168 159 142 137 144 154 152 150 150 146 145 
22 41 41 40 36 39 42 43 40 40 38 27 14 2 0 0 0 0 0 0 0 8 33 52 61 63 65 70 72 70 63 60 61 65 67 64 57 59 57 54 51 47 45 41 39 38 39 39 44 41 40 41 37 41 47 43 44 47 41 31 14 5 1 16 37 44 40 34 32 32 35 35 31 40 79 57 31 11 4 2 11 51 55 45 38 28 8 0 47 63 49 50 48 55 58 28 3 4 6 2 28 10 0 0 1 0 12 39 36 31 45 46 39 33 8 4 24 34 10 0 0 0 1 0 1 0 11 16 14 25 28 30 12 47 56 39 27 4 0 0 0 0 1 0 2 13 24 26 26 20 26 13 4 38 52 48 41 0 1 3 0 25 33 32 46 37 30 26 28 27 27 22 21 17 31 18 18 15 17 42 45 62 36 0 0 7 10 19 50 25 37 53 47 37 35 30 28 32 30 25 32 16 24 8 11 45 49 62 46 14 0 7 13 12 28 23 37 42 38 35 33 30 29 22 21 23 12 8 10 47 49 57 61 24 3 2 19 8 10 14 23 51 57 53 44 32 24 22 25 23 20 22 0 39 57 61 76 72 42 16 1 2 0 23 84 68 51 60 49 12 27 6 40 93 94 77 10 5 17 45 43 38 32 30 24 11 3 10 15 22 33 34 34 38 39 32 24 20 25 33 33 28 18 21 19 23 22 25 49 61 75 74 51 36 26 31 34 28 27 21 2 0 26 56 70 71 50 15 0 11 46 54 52 28 0 0 3 14 11 14 19  120 121 120 120 122 125 125 124 125 122 119 113 103 95 91 88 88 87 90 96 108 117 124 130 134 138 141 142 142 138 134 135 134 136 134 132 131 130 126 123 120 118 114 116 118 117 118 124 123 120 123 124 124 125 123 121 121 118 112 103 98 98 103 111 115 115 117 118 115 114 115 111 114 160 158 102 49 23 12 38 148 170 151 117 99 47 16 112 175 166 163 154 143 140 92 30 13 16 12 91 157 178 166 75 0 41 122 126 117 117 116 108 110 42 7 65 122 138 178 195 180 135 14 2 6 57 81 72 70 74 78 30 77 112 125 147 177 198 194 183 158 73 30 76 110 108 103 96 77 92 49 20 82 103 101 76 5 9 10 7 112 162 150 149 145 136 131 133 128 124 119 104 82 93 49 22 22 56 111 126 138 78 6 4 20 30 56 118 90 115 146 141 138 138 135 133 126 113 115 118 30 28 10 51 137 143 148 100 32 5 20 28 48 85 79 114 137 136 138 139 133 129 120 120 118 36 15 51 131 139 150 125 51 13 10 35 27 40 55 85 139 141 138 138 130 123 108 105 86 31 24 16 120 140 145 155 128 65 26 8 10 0 59 147 138 137 138 86 23 33 12 96 173 175 178 197 169 66 107 109 110 105 102 98 90 82 82 83 87 98 101 104 120 137 138 129 116 111 110 103 100 99 102 102 101 94 102 125 139 149 153 155 147 122 101 95 91 86 83 81 86 110 127 138 141 126 104 82 90 117 123 121 102 57 57 91 99 91 89 90 88  164 161 160 161 161 162 161 164 164 163 163 162 160 158 156 154 153 153 157 161 164 166 169 171 174 175 176 180 178 175 174 173 175 176 171 169 169 169 168 166 163 163 162 162 162 162 163 164 167 165 163 165 164 164 166 166 166 166 164 163 161 160 161 167 170 170 171 169 166 164 162 162 161 190 183 120 57 30 18 51 169 195 173 132 107 52 18 124 200 193 191 182 171 161 105 34 14 19 17 106 127 86 85 50 4 42 136 149 148 147 140 128 126 52 7 71 133 122 91 89 77 63 7 5 7 69 103 97 99 100 96 36 96 135 139 147 111 91 85 76 80 53 31 78 124 128 129 126 104 113 57 25 99 127 130 95 8 10 12 4 92 147 145 154 154 150 151 153 149 151 143 128 109 113 57 24 25 64 134 154 164 91 10 6 22 27 50 113 88 117 158 160 158 160 159 156 154 141 138 139 37 34 13 59 154 163 166 111 38 7 22 28 45 82 82 123 153 155 158 162 156 157 148 148 139 42 18 61 151 165 174 140 61 19 12 36 26 36 54 90 153 161 162 165 158 152 140 130 102 36 28 24 144 174 174 183 146 73 28 8 11 0 69 168 161 159 156 99 28 35 17 110 197 198 186 132 87 62 136 159 169 165 161 157 151 148 146 148 147 153 157 159 165 169 166 157 153 150 151 152 152 154 160 159 155 152 161 177 189 197 190 180 168 154 148 145 143 139 139 148 156 172 179 185 185 174 163 154 161 173 173 171 155 134 136 154 157 155 152 148 146 
18 44 43 42 39 42 47 48 44 43 44 37 26 16 4 0 0 0 0 0 0 0 8 38 62 72 72 74 75 71 63 58 54 57 62 68 62 58 52 47 43 39 40 37 39 41 44 41 44 48 47 42 39 41 43 47 48 49 44 34 17 8 6 19 37 44 47 39 31 27 25 28 23 42 84 68 67 62 37 2 2 14 45 42 52 58 59 63 57 51 51 49 44 51 50 43 31 11 8 3 13 19 2 0 1 1 0 21 32 32 49 44 30 28 16 2 19 31 16 1 0 0 0 1 1 0 8 19 14 25 25 25 4 37 57 34 22 6 0 0 0 0 0 0 3 14 23 30 25 21 21 10 14 47 52 58 12 0 3 3 1 16 11 6 24 18 13 14 17 26 31 31 23 18 32 18 11 5 34 44 49 35 0 2 2 1 26 51 50 64 58 40 33 24 24 27 31 39 32 27 28 13 18 6 29 45 54 42 1 1 2 4 23 56 54 50 43 35 31 29 24 26 32 27 23 23 4 9 36 44 59 50 9 0 1 3 11 37 50 48 45 36 33 33 32 26 21 22 23 16 21 12 23 50 61 56 40 10 16 17 3 0 12 57 70 55 48 60 27 17 13 9 77 91 84 86 28 0 22 50 34 49 33 31 27 23 17 15 19 32 37 40 39 42 40 30 23 23 26 34 33 29 16 12 16 15 17 17 33 54 67 70 46 32 28 30 32 27 24 20 5 0 8 39 59 66 47 13 0 4 40 56 52 49 12 0 0 7 13 15 19  121 122 121 123 123 124 126 127 126 126 125 121 112 103 97 92 89 85 87 90 96 109 123 134 141 145 146 146 146 140 134 128 129 131 133 129 127 124 121 118 115 117 116 117 120 122 121 126 127 123 121 123 122 121 122 123 120 115 114 105 100 96 103 112 115 116 117 116 113 110 110 107 113 178 188 178 158 103 20 11 45 138 156 164 184 167 147 162 169 168 162 154 144 131 124 99 61 39 8 43 115 137 96 14 10 4 70 122 110 113 113 106 101 77 15 54 111 125 157 171 163 92 5 7 1 40 83 72 76 78 81 24 62 116 120 124 155 177 178 168 91 0 0 16 89 102 105 97 82 87 48 51 98 108 110 24 7 9 4 75 174 172 160 149 137 127 121 119 120 120 109 91 80 105 51 16 30 96 113 126 76 1 10 14 16 88 144 145 157 153 141 134 131 132 132 128 124 109 114 114 30 20 27 97 121 131 92 6 4 10 24 82 143 146 147 144 136 137 135 128 128 127 115 118 104 15 43 111 117 133 101 19 1 10 18 53 109 139 140 144 138 138 135 133 126 118 105 106 63 23 19 88 136 142 116 74 22 29 27 7 2 44 122 132 129 131 127 45 23 15 37 153 168 172 176 188 183 111 95 74 114 99 99 96 90 86 86 87 95 103 106 120 140 146 134 118 113 113 113 103 94 93 99 104 103 94 96 109 127 141 156 161 145 115 95 94 90 85 80 80 84 97 114 127 135 123 101 84 87 109 123 126 127 81 54 74 103 101 98 94 93  165 163 163 161 161 162 163 165 164 165 165 165 162 160 156 156 154 152 154 158 161 165 170 174 177 178 179 178 177 175 172 172 172 173 173 172 168 166 166 164 160 159 162 164 166 166 167 166 167 164 163 163 163 165 166 167 168 167 165 164 162 160 160 166 169 171 172 169 167 165 162 159 162 215 225 210 178 112 29 19 58 160 179 184 195 177 158 181 193 192 188 181 173 157 148 116 72 47 10 52 132 110 62 14 13 6 80 141 136 141 139 128 122 94 18 56 124 120 94 76 69 42 5 8 1 47 100 92 97 96 100 32 80 141 137 139 113 79 75 74 49 2 1 19 105 124 129 126 109 112 59 59 117 133 132 33 8 12 5 41 119 131 137 149 144 140 140 139 141 145 134 117 106 123 58 18 36 116 141 152 91 5 12 15 16 73 125 135 160 164 151 148 150 154 155 154 148 134 136 134 38 25 34 119 148 154 103 8 4 11 22 68 130 149 155 158 155 158 156 149 150 153 143 147 127 19 50 129 144 157 115 25 2 12 18 43 103 141 150 160 158 159 161 161 154 150 135 130 80 30 24 103 163 167 137 90 30 33 29 8 5 51 137 156 153 149 144 56 27 20 48 175 193 196 194 138 92 90 120 106 164 156 156 152 150 147 147 149 152 157 159 166 173 173 163 155 150 147 150 150 150 150 157 159 158 152 151 164 180 190 194 185 173 156 146 144 142 138 137 144 153 164 171 178 184 172 164 153 151 168 175 173 171 146 135 147 161 160 158 153 151 
26 47 47 46 43 43 41 42 44 43 42 38 33 27 20 7 0 0 0 0 0 0 0 6 38 67 77 75 75 70 59 59 53 53 59 63 63 56 49 44 41 35 37 44 44 46 46 42 44 48 48 45 45 41 42 49 49 49 47 39 22 9 5 16 34 45 48 47 45 39 26 21 16 34 75 59 65 77 76 33 1 3 9 35 38 33 29 55 45 46 51 49 47 44 41 39 42 31 17 4 3 19 12 3 0 4 3 5 26 41 51 35 27 23 16 6 13 31 16 7 0 0 0 1 1 0 11 21 15 24 24 31 10 33 53 32 13 7 3 1 0 1 2 1 1 14 26 29 26 20 22 12 20 44 54 34 0 3 0 10 5 0 0 0 7 10 7 13 28 30 30 32 24 30 34 15 4 30 40 46 41 3 1 1 0 0 20 15 8 41 35 23 18 20 29 32 46 46 38 34 32 8 7 25 33 48 31 1 2 2 1 1 35 25 16 37 27 23 21 24 29 40 41 35 33 21 6 29 41 49 38 4 1 3 0 11 26 20 25 41 28 24 22 20 31 33 29 19 19 13 8 14 45 62 60 8 0 1 16 13 3 19 54 60 53 43 42 41 10 18 7 46 85 83 83 91 52 0 21 58 32 70 49 37 33 27 21 17 24 36 37 42 43 42 36 25 17 26 32 35 32 23 15 11 15 15 18 18 23 46 63 59 48 39 38 34 31 26 23 17 6 0 0 19 44 61 45 9 0 0 22 51 54 51 33 0 0 1 10 18 31  121 120 120 123 120 122 125 130 128 125 122 122 117 111 107 99 91 89 88 87 91 96 107 127 143 149 150 150 147 139 132 126 123 126 127 127 122 119 116 116 113 118 123 121 121 122 121 123 126 125 123 124 122 121 123 121 122 118 115 108 100 98 100 110 115 115 116 121 121 108 105 104 110 172 182 175 171 164 93 17 7 40 127 161 205 207 189 168 163 164 162 153 143 132 118 113 107 94 47 30 88 103 28 0 11 10 17 88 109 113 108 103 97 94 56 39 105 107 124 139 103 18 3 5 4 55 86 77 78 76 95 40 63 114 118 112 123 147 117 65 12 6 8 8 73 97 97 93 84 81 50 62 93 109 72 4 10 10 99 185 186 174 162 153 139 124 114 117 120 120 109 89 89 108 46 24 86 109 119 96 11 7 11 0 32 165 183 151 157 141 134 128 126 129 127 127 120 106 114 111 23 24 82 104 110 64 6 8 10 0 35 160 152 135 147 142 133 126 128 127 129 129 118 124 89 40 98 111 122 82 12 6 10 0 103 165 148 136 140 133 131 129 127 127 124 111 101 106 40 15 61 123 138 110 16 0 8 26 27 18 68 128 125 122 119 122 90 18 23 21 114 164 163 167 167 156 115 90 108 68 142 112 101 102 95 91 89 92 98 102 118 140 150 142 123 101 106 112 112 102 91 91 94 103 103 98 95 98 113 135 157 166 146 116 92 90 90 84 77 74 83 92 102 110 128 119 97 87 86 97 114 124 130 116 64 60 92 102 103 106 108  165 164 164 164 164 163 163 163 165 166 166 165 163 162 160 158 156 154 153 155 158 161 165 171 177 180 177 177 173 170 170 171 170 170 172 172 169 165 163 162 161 162 164 168 168 168 168 166 167 166 164 162 164 166 166 166 169 168 165 165 163 160 161 166 169 170 170 171 170 167 163 159 160 209 222 213 204 186 106 27 17 53 147 178 179 177 194 189 185 186 186 179 169 158 143 134 127 109 56 38 106 125 37 2 15 12 21 101 129 138 134 125 118 115 68 44 118 120 111 83 50 11 5 6 6 64 105 101 103 98 110 47 78 142 137 134 124 96 65 33 9 7 8 10 87 123 126 121 108 106 65 71 113 131 84 6 13 6 56 102 92 91 116 144 147 139 133 134 140 141 133 113 109 127 54 29 104 138 146 114 17 8 12 4 17 119 132 116 148 146 144 144 147 150 150 157 147 131 135 128 28 28 100 133 136 81 9 8 11 3 18 129 130 127 151 149 147 146 148 148 151 151 141 148 109 48 115 131 141 94 14 6 14 2 77 132 125 130 150 146 149 150 150 154 151 140 129 131 55 24 74 146 163 128 24 0 9 30 31 21 77 143 145 149 147 144 107 25 26 30 132 193 194 193 186 134 66 85 129 86 168 159 155 155 153 150 150 152 158 162 166 174 177 170 158 148 143 140 145 148 149 147 151 157 158 153 149 153 168 184 190 189 177 162 147 142 141 137 134 137 150 158 164 169 177 169 161 154 147 158 174 177 177 168 139 140 155 162 162 162 164 
45 50 48 46 45 46 43 43 43 39 37 33 30 29 27 23 9 0 0 0 0 0 0 0 3 31 63 73 70 66 60 60 56 59 60 57 58 53 48 46 48 45 44 48 45 47 48 46 47 51 51 50 50 44 43 49 49 49 51 44 26 7 1 15 35 44 49 55 65 70 56 35 18 17 63 62 57 72 74 66 29 6 0 10 34 13 0 10 25 32 44 45 45 35 37 39 38 33 25 14 16 16 12 8 6 2 5 1 14 45 38 26 24 17 11 10 6 25 17 5 3 1 1 1 1 3 13 14 10 8 12 29 13 35 51 35 17 9 5 1 0 1 1 1 1 27 29 24 26 16 16 20 11 33 44 17 0 2 10 3 0 0 0 0 1 7 11 7 15 24 28 27 26 31 40 21 32 48 46 49 12 0 2 2 2 1 0 0 3 13 6 11 18 27 32 33 45 37 32 39 35 4 18 33 35 31 0 1 1 0 0 0 1 0 2 12 11 17 19 27 33 38 35 34 39 25 22 34 45 33 0 1 1 1 2 2 0 0 3 9 8 19 20 32 42 40 39 33 26 5 20 44 51 50 11 0 3 2 3 30 41 42 43 36 37 36 37 17 10 7 28 79 78 78 87 94 28 0 17 57 26 77 76 55 38 31 25 22 27 36 42 46 46 42 33 21 13 23 33 34 31 19 15 16 13 20 21 25 26 37 54 58 56 51 52 41 27 22 20 13 4 0 0 2 22 47 38 8 0 0 14 38 56 54 51 17 0 0 13 43 50  122 120 120 120 122 123 126 126 123 122 118 117 116 118 113 109 103 96 93 89 89 91 95 110 128 138 145 143 140 138 133 129 125 123 123 121 119 120 115 119 120 121 124 124 123 123 121 121 123 123 124 123 121 122 123 121 122 121 113 108 103 97 101 108 114 116 121 140 152 135 114 104 98 148 178 170 166 155 147 89 27 9 36 124 207 226 213 182 164 161 156 149 136 125 121 116 106 98 93 80 81 96 87 47 15 11 7 41 108 107 105 100 95 89 87 36 76 99 101 68 10 3 7 4 14 78 88 81 72 74 95 45 64 107 110 112 99 52 10 0 4 6 4 12 85 94 88 86 79 83 70 37 80 109 49 0 15 109 194 198 193 180 160 143 125 111 105 106 113 115 111 100 96 105 56 73 107 110 121 35 3 11 3 50 155 194 189 182 164 145 142 130 124 127 126 126 114 108 116 105 23 71 98 107 78 2 7 3 0 42 152 187 180 167 150 137 134 125 124 127 128 124 120 127 98 88 105 116 75 3 6 4 18 94 177 180 170 151 137 133 128 125 127 126 122 111 107 97 24 75 111 117 97 18 4 9 4 59 109 118 130 123 119 126 121 116 52 18 8 81 162 154 158 164 141 46 0 47 111 60 152 152 119 102 100 94 92 96 102 116 141 151 147 131 108 91 97 106 105 101 93 89 92 100 103 100 97 96 102 133 168 173 152 124 100 87 88 83 76 71 76 90 95 98 114 112 97 90 85 90 106 118 124 129 93 57 77 105 116 117 117  163 163 163 164 164 163 163 163 165 166 166 164 162 160 163 163 160 158 157 155 155 157 160 165 168 172 174 174 172 168 168 169 169 169 169 171 167 165 164 165 165 167 170 170 168 168 169 166 166 166 165 164 166 166 166 166 167 168 167 166 164 161 161 165 170 170 170 172 176 177 171 165 157 185 213 206 197 185 166 97 33 14 44 135 148 129 156 173 175 181 180 174 164 155 146 136 122 120 110 95 101 121 106 57 19 13 9 47 128 132 126 119 116 106 104 45 88 118 117 65 9 7 7 5 16 92 107 102 100 97 113 55 77 131 135 133 115 53 12 2 6 7 5 15 99 121 115 112 102 99 80 42 93 123 57 0 13 70 102 91 87 77 90 120 125 119 122 125 136 139 131 121 114 120 64 87 131 139 141 42 6 13 6 26 82 104 97 125 144 142 149 143 143 148 150 157 145 132 135 119 28 84 121 132 91 5 8 6 1 15 74 107 117 133 147 143 147 144 145 151 154 148 143 148 113 105 127 134 83 6 8 8 11 49 107 109 107 128 142 143 145 146 148 153 149 135 132 119 35 88 135 144 115 24 5 12 7 47 100 125 144 145 145 148 145 138 62 22 14 97 190 185 188 189 154 53 7 62 132 80 171 165 162 159 156 154 153 156 161 168 176 178 174 162 149 143 137 136 139 145 148 146 146 153 158 157 152 148 155 176 187 190 184 170 154 142 140 137 134 133 145 156 158 161 168 162 157 154 151 152 164 176 177 176 152 137 148 166 172 172 172 
50 45 49 47 44 45 47 43 39 36 32 28 27 30 29 29 23 18 8 0 0 0 0 0 0 0 20 51 63 63 61 58 54 57 56 55 54 52 49 55 59 54 49 48 46 49 52 51 52 54 52 54 52 49 47 48 49 50 51 47 34 8 0 14 33 43 45 55 69 79 78 72 52 30 22 46 56 61 57 49 46 28 7 0 6 28 5 0 5 8 20 42 41 33 34 43 33 32 34 28 16 11 15 7 0 8 9 1 4 34 35 26 19 12 7 3 1 11 30 15 5 0 1 1 0 3 11 7 2 0 4 22 11 39 51 38 27 23 3 2 2 1 2 1 16 33 32 22 16 11 10 22 2 5 30 22 6 12 6 0 0 0 0 0 1 3 2 6 13 30 26 19 27 28 43 28 11 33 49 40 1 1 0 5 5 0 1 1 0 5 9 10 13 20 16 30 43 31 28 31 26 5 16 27 44 25 0 1 5 6 0 0 0 0 0 6 8 7 10 23 32 32 27 31 30 15 16 31 45 11 0 1 2 1 1 0 0 0 0 1 3 10 18 26 37 37 32 36 30 21 43 54 52 5 0 2 0 1 4 3 31 35 23 19 28 33 33 8 9 9 59 77 76 81 98 42 0 2 24 51 30 81 81 43 45 37 33 31 30 38 47 48 42 36 24 16 14 18 28 34 29 19 14 16 9 12 19 27 30 30 46 57 59 65 63 52 33 19 15 11 5 0 0 0 5 31 28 5 0 0 14 36 48 57 64 48 2 0 7 48 45  121 120 121 120 120 124 125 122 119 118 115 112 110 112 116 115 114 108 99 95 89 89 91 96 104 114 128 136 134 134 133 127 123 121 119 120 118 118 123 123 124 124 124 124 125 125 123 121 122 122 122 125 123 122 121 122 118 118 115 110 104 98 100 107 112 116 121 139 157 151 136 119 103 63 109 146 155 148 135 124 93 46 14 21 144 222 214 189 88 75 131 143 130 119 122 113 106 101 96 86 77 82 85 80 68 28 5 18 89 103 102 97 93 85 87 58 30 91 97 38 0 6 6 0 22 83 86 78 68 67 89 54 69 98 97 102 88 5 5 9 6 6 4 62 102 93 86 84 81 84 82 17 27 95 95 77 115 168 190 194 183 173 154 72 23 15 64 106 111 112 107 100 95 105 59 36 78 111 86 12 6 6 59 178 213 206 198 178 154 135 100 98 119 112 118 123 110 102 116 91 23 64 97 115 54 0 8 36 102 183 211 199 190 174 157 131 93 102 118 121 123 117 116 122 78 74 106 108 19 0 11 49 144 202 193 186 177 158 139 109 110 118 120 122 117 107 112 86 66 111 116 101 14 5 3 9 91 168 138 134 125 120 116 125 129 103 28 13 35 135 152 151 154 152 53 2 6 59 111 74 149 143 93 110 105 99 100 98 111 136 153 151 137 116 95 84 90 104 109 104 92 86 88 90 95 99 99 96 97 135 172 174 159 134 113 90 82 79 75 70 71 85 93 90 100 103 96 94 88 93 104 113 119 129 123 63 63 99 126 121 115  160 162 162 163 163 164 164 164 164 164 163 160 159 160 163 168 168 165 159 157 156 157 158 160 162 163 166 169 168 168 170 168 169 169 169 169 168 166 169 171 170 169 171 171 170 168 168 166 165 165 165 166 166 165 166 168 168 169 168 168 165 161 161 164 169 170 169 172 178 183 184 177 165 97 137 178 186 177 156 135 93 48 18 31 120 121 113 140 87 86 145 162 155 145 146 137 126 120 111 101 95 105 110 102 84 32 8 22 104 126 123 117 112 102 104 70 40 110 118 49 0 6 7 0 27 99 106 100 95 93 106 66 86 121 123 123 104 6 6 9 7 7 5 70 120 120 114 109 103 101 95 22 31 108 105 76 103 108 88 85 77 69 75 53 25 19 74 124 132 133 129 123 116 119 66 46 92 129 99 15 8 4 40 104 107 96 90 95 121 129 104 110 137 133 144 151 140 133 138 105 28 76 113 130 61 0 7 27 63 90 102 94 91 107 135 131 105 121 139 143 147 144 143 147 93 88 122 120 24 0 9 32 74 100 92 84 87 112 131 116 125 138 144 150 144 136 139 107 80 126 136 116 20 7 7 3 46 104 105 137 142 141 143 148 149 118 34 18 43 159 183 181 182 171 66 9 9 75 132 93 174 148 119 162 160 158 158 159 168 178 182 177 168 154 145 142 137 136 142 146 149 148 144 146 156 158 155 148 150 171 188 194 192 179 164 145 138 136 134 134 139 152 157 156 159 155 154 155 153 153 158 166 175 179 173 140 144 162 178 174 170 
31 43 47 49 47 49 46 41 38 33 28 26 28 31 30 34 40 41 35 20 4 0 0 0 0 0 0 14 43 58 57 54 50 52 57 60 60 61 60 61 58 57 53 48 47 47 51 53 53 52 52 55 55 52 53 50 49 49 50 48 38 8 0 13 29 34 40 45 50 65 77 78 80 43 1 5 15 30 40 49 55 68 75 49 11 14 18 0 2 2 0 5 25 32 27 37 32 31 35 27 20 7 6 21 8 0 19 15 0 21 35 27 16 8 3 2 2 5 33 33 16 7 3 0 7 20 11 6 1 0 2 16 10 41 58 47 37 27 4 0 0 0 0 7 18 23 26 19 9 4 6 14 2 9 27 22 7 4 1 0 0 0 0 1 0 1 2 5 24 25 22 20 25 27 39 18 6 5 32 32 1 2 12 10 0 0 0 0 0 1 3 0 0 6 11 32 40 26 20 23 14 9 4 21 45 28 6 2 13 5 0 0 0 0 0 2 3 0 2 13 28 32 22 26 21 3 0 31 43 5 0 6 6 0 0 0 0 0 0 2 0 4 19 25 40 37 33 35 23 12 44 61 38 0 1 0 0 0 0 0 10 16 14 34 41 30 20 10 2 44 75 75 87 86 46 1 5 0 36 54 68 89 60 11 41 44 40 36 37 44 49 41 34 30 22 17 17 20 26 35 36 21 13 12 9 4 13 20 29 30 44 56 58 74 78 62 46 27 15 8 3 1 0 0 0 11 18 3 0 0 12 36 45 50 67 84 33 0 0 16 20  119 120 122 122 123 121 121 118 116 113 111 112 111 114 120 123 126 126 120 110 99 92 89 90 92 101 113 123 128 127 125 123 122 120 119 121 122 123 127 126 125 125 120 123 124 124 125 120 118 118 121 123 122 122 122 121 118 116 111 112 107 98 99 106 112 112 114 119 131 140 143 145 90 9 14 39 68 91 114 115 128 129 88 35 37 145 200 173 28 0 28 86 118 112 113 108 103 101 94 88 76 69 87 79 70 74 40 1 57 105 100 96 91 83 78 73 43 81 97 73 33 15 6 26 82 93 85 77 67 63 82 75 85 104 99 95 85 21 0 1 1 2 39 91 100 94 85 84 83 89 62 13 48 99 109 119 129 148 170 175 168 160 106 7 3 5 23 103 111 110 103 96 96 99 41 19 23 89 81 17 38 109 172 198 205 204 191 176 123 31 5 10 63 103 108 115 108 103 114 64 17 19 66 118 98 81 104 151 188 200 204 200 185 171 124 42 3 36 105 112 116 110 116 109 31 18 95 113 42 60 123 177 201 199 200 187 176 139 54 9 41 112 112 116 109 106 113 64 48 104 124 61 0 4 49 155 200 183 161 137 120 114 117 116 112 59 16 14 101 144 145 149 130 59 4 13 5 92 118 127 156 87 28 112 111 106 106 110 129 149 151 139 120 99 88 87 91 102 113 107 90 86 88 82 85 97 99 95 103 145 169 165 155 142 125 100 83 78 74 74 74 81 93 90 88 91 92 93 89 95 107 113 111 124 148 101 60 77 107 106 102  156 158 162 163 165 164 163 164 164 162 161 160 159 161 162 168 173 172 169 163 160 157 157 157 160 161 160 164 167 168 169 167 167 169 171 172 173 171 172 176 174 171 169 170 171 171 168 167 168 166 165 166 167 166 166 167 167 167 168 168 164 162 161 165 169 169 167 167 172 179 184 191 131 25 26 55 89 111 128 127 137 138 98 40 44 108 106 110 26 5 33 96 135 132 135 133 125 119 113 106 89 85 107 107 91 85 48 3 63 124 119 113 108 101 94 87 55 100 120 92 40 19 8 30 94 110 104 99 90 85 102 94 109 130 125 118 102 26 0 1 1 3 46 105 120 119 114 109 106 109 73 17 55 114 124 129 131 100 77 78 70 63 50 6 5 6 27 118 130 132 127 118 116 116 48 21 27 101 89 18 30 92 123 100 96 91 83 79 75 29 7 14 75 122 136 144 136 131 136 76 20 23 75 133 108 79 96 128 113 94 92 88 80 83 87 43 6 46 125 134 141 141 143 135 42 22 108 125 47 55 104 121 103 94 91 83 81 82 47 11 49 130 136 147 140 135 140 84 62 120 139 68 0 6 27 74 97 88 113 136 134 133 140 142 137 72 21 21 114 172 174 175 152 74 12 16 11 108 138 148 178 100 58 163 164 161 163 165 178 185 182 173 161 148 144 143 143 145 151 152 150 146 144 143 151 158 156 150 150 171 187 192 196 190 172 154 140 136 134 134 135 146 158 154 151 153 155 158 156 158 162 162 170 182 191 158 143 151 168 167 163 
9 45 43 45 49 50 48 46 37 31 28 27 28 31 40 47 55 59 58 52 33 10 0 0 0 0 0 0 11 39 51 51 51 55 61 63 64 66 62 62 62 61 59 53 51 53 54 53 54 56 57 53 57 58 57 53 48 50 51 51 37 7 0 9 27 27 32 38 38 39 49 64 75 31 9 14 2 0 1 6 26 85 78 26 17 27 16 7 3 0 4 2 1 5 20 43 36 32 31 31 27 18 6 6 18 2 9 45 23 23 34 26 17 8 5 4 0 0 19 40 31 30 30 25 26 25 10 0 0 0 0 3 2 31 54 51 44 43 39 22 14 8 20 26 21 25 13 9 5 1 4 2 9 25 18 11 2 0 1 0 1 0 0 2 2 1 1 5 19 22 22 16 21 25 27 6 10 8 32 44 21 6 7 4 0 0 0 0 0 1 1 3 1 9 34 37 34 24 19 19 4 8 7 11 32 24 8 0 1 0 0 0 0 0 1 1 1 1 5 27 30 26 25 32 18 1 2 22 27 6 0 1 0 0 0 0 0 1 1 0 1 3 21 35 35 30 26 25 4 3 43 50 21 6 9 1 0 0 0 1 3 4 16 31 28 28 11 3 24 70 73 56 35 15 15 10 2 11 59 51 83 91 37 22 51 45 43 41 47 45 40 34 28 23 23 23 23 23 22 35 40 25 14 13 12 6 4 15 26 36 47 48 59 74 84 73 56 32 16 5 0 2 1 0 0 1 8 2 0 0 7 33 48 57 73 83 58 1 0 1 1  120 119 121 123 122 120 118 114 111 111 110 112 114 119 127 132 138 138 133 126 117 106 94 87 90 94 98 107 116 121 120 119 122 123 124 124 125 125 127 125 127 129 125 123 126 125 123 121 120 118 117 118 121 125 122 121 119 117 113 109 104 99 98 104 110 110 111 113 113 115 126 145 69 12 21 8 4 9 16 37 102 104 50 43 67 58 114 107 13 16 11 11 36 82 113 106 103 99 94 91 79 68 66 89 84 81 109 70 83 103 100 96 92 86 79 71 63 78 100 104 105 98 90 98 103 95 84 74 70 61 74 73 81 106 108 110 112 106 69 44 34 69 98 94 100 93 82 84 86 87 28 47 98 103 107 108 108 120 138 151 132 80 19 6 11 8 25 98 106 103 93 94 98 79 22 25 37 98 120 109 124 145 162 185 190 183 172 158 62 0 12 3 44 116 110 109 105 105 100 30 20 17 45 111 119 133 140 149 171 185 186 180 168 125 29 0 6 27 106 111 109 103 120 80 9 17 88 116 115 130 150 170 186 192 187 178 154 58 0 6 24 104 109 106 102 105 96 19 30 107 119 91 65 105 184 209 197 181 147 120 108 109 110 101 89 27 14 68 130 129 96 50 26 26 19 4 35 128 112 145 151 49 59 121 111 111 112 130 147 151 142 123 102 93 90 89 91 101 112 110 92 85 85 83 83 93 106 103 118 154 162 153 145 148 136 112 90 80 75 73 73 77 90 94 86 82 87 94 88 91 107 116 121 133 144 130 72 62 85 89 92  155 155 158 163 165 165 161 162 161 160 160 161 160 162 166 170 174 175 175 172 167 161 159 156 158 160 163 164 165 165 166 166 167 171 173 173 175 173 174 174 173 173 170 169 172 170 170 169 168 164 164 166 168 167 166 166 167 169 170 169 164 163 163 165 168 167 165 164 164 168 177 189 102 20 29 16 9 14 24 53 120 115 59 49 70 65 92 79 16 20 15 14 44 95 128 127 123 117 114 108 94 80 83 111 102 98 127 84 97 124 118 112 108 101 95 88 77 96 124 126 125 115 104 112 118 113 105 96 89 83 95 95 109 135 138 136 134 124 80 51 39 78 113 109 120 115 110 107 106 106 36 55 112 120 127 122 114 109 87 74 56 37 14 8 13 10 30 116 127 127 119 116 117 97 28 27 44 111 136 118 120 142 120 85 84 78 67 72 33 1 12 3 52 136 137 140 132 130 122 38 23 18 51 127 132 136 135 124 86 81 79 73 69 56 15 2 6 31 125 135 137 134 147 103 15 20 102 132 124 129 127 98 85 88 79 76 74 36 4 7 30 125 136 139 136 137 121 32 39 124 138 100 66 83 101 100 88 79 97 120 123 131 136 127 109 34 18 78 150 151 112 61 34 31 23 9 48 148 134 168 172 63 95 173 164 165 167 174 182 184 177 167 153 145 144 144 146 154 161 160 155 146 145 141 142 154 160 157 159 176 183 187 194 197 181 164 145 135 136 135 134 139 155 157 148 146 153 158 157 161 165 167 172 184 189 177 143 142 153 154 153 
0 51 48 49 53 54 57 57 47 38 32 29 35 42 49 56 61 64 64 59 49 34 12 0 0 0 0 0 0 8 38 56 60 66 72 71 66 66 65 64 64 59 59 60 55 55 55 54 54 59 58 53 54 55 54 51 46 46 50 51 36 7 0 5 24 25 23 31 34 31 30 37 54 46 11 16 9 3 2 1 0 4 20 16 11 44 65 52 36 12 0 4 4 2 7 36 37 36 32 30 29 28 24 14 8 5 1 28 41 28 28 21 15 10 7 1 0 0 0 17 26 22 31 39 34 21 13 2 2 0 0 1 0 17 43 43 31 32 37 42 38 34 33 33 29 22 12 5 2 0 3 2 17 24 12 8 5 0 0 2 5 1 2 2 3 1 2 10 14 26 25 9 12 27 13 1 6 29 36 29 15 1 0 0 0 0 0 1 2 1 2 2 1 11 25 26 24 16 13 16 0 7 4 26 30 10 0 0 0 0 0 0 0 0 1 2 2 0 12 33 32 36 41 31 12 0 12 20 8 0 0 0 0 0 0 1 2 1 1 1 0 5 13 36 35 19 24 19 0 22 42 32 18 9 3 0 0 0 0 1 2 3 19 24 27 22 0 21 65 67 41 3 0 4 14 6 0 37 56 66 92 81 16 29 52 46 50 51 49 42 32 27 19 20 23 25 25 24 21 32 38 29 17 14 16 9 2 10 27 46 53 44 55 71 80 82 66 41 16 5 1 1 1 0 0 0 5 2 0 0 3 38 60 68 71 63 43 11 0 1 0  125 122 121 123 123 125 125 118 115 112 110 117 123 127 132 137 139 136 133 129 124 118 106 94 89 89 92 98 107 117 124 127 127 131 130 128 126 123 123 125 126 128 131 125 123 126 123 121 122 121 118 116 119 122 120 119 119 118 117 111 104 98 98 105 108 107 106 110 109 106 110 128 88 16 24 18 15 13 11 3 9 40 43 31 79 118 97 83 40 13 13 12 6 22 92 107 105 100 96 92 86 79 69 72 78 72 93 115 104 101 99 96 93 87 80 73 66 57 77 99 101 112 121 116 105 96 86 77 66 56 66 58 55 103 107 107 112 119 124 124 117 112 105 103 101 96 88 81 79 81 49 85 99 100 102 104 97 97 96 69 35 6 8 11 7 10 65 93 100 103 93 89 101 52 13 35 91 109 112 119 124 120 135 153 163 156 133 64 5 9 10 5 71 107 102 97 95 103 75 12 25 26 86 112 109 119 123 128 148 160 162 148 92 18 3 11 1 50 113 104 105 109 118 58 13 70 107 106 109 116 125 142 152 162 152 119 46 5 11 0 47 101 102 99 95 107 62 15 81 114 118 123 129 156 184 189 184 153 53 17 64 111 99 95 59 19 68 112 97 59 7 2 14 28 14 3 92 123 128 153 127 24 80 124 113 117 131 150 151 141 123 101 90 90 90 90 89 98 115 116 99 85 84 83 77 89 114 123 145 162 150 133 137 148 145 124 98 80 74 74 71 73 84 95 89 79 82 94 91 91 110 125 133 136 129 119 90 65 77 88 86  157 157 158 162 165 165 165 163 162 160 160 161 164 166 169 172 173 173 171 171 170 166 163 159 157 157 161 163 165 166 166 169 173 174 175 172 172 172 172 173 172 173 173 173 172 170 170 169 168 168 166 166 166 166 167 167 168 171 171 168 166 162 163 164 165 166 165 164 162 162 164 180 123 24 28 23 18 16 14 9 15 44 41 29 84 125 110 93 45 17 15 16 12 31 104 123 124 121 116 108 100 96 86 85 92 86 111 137 124 120 117 113 109 103 95 89 80 72 98 119 119 131 137 132 122 114 104 97 87 79 86 81 82 129 132 132 133 139 146 143 134 132 127 123 121 119 110 100 96 99 62 98 117 120 122 124 113 105 93 52 20 10 11 12 10 13 77 113 124 124 114 112 122 63 16 40 106 128 131 135 129 127 120 84 70 66 62 36 7 10 11 6 84 129 130 130 124 129 97 16 28 31 97 130 123 125 121 111 84 68 68 60 41 11 6 11 2 59 133 128 132 136 144 74 17 81 125 127 124 120 115 97 79 79 71 56 25 10 12 1 57 126 133 135 126 136 84 24 96 135 137 137 135 116 86 83 77 67 34 24 77 132 124 120 74 24 77 126 113 70 11 2 16 30 17 11 111 149 153 181 147 37 121 172 165 169 171 177 177 176 168 154 145 144 144 146 147 156 166 166 156 148 144 139 136 148 162 164 174 178 172 178 186 196 191 172 151 137 136 135 133 133 146 159 153 145 151 157 156 159 170 176 180 183 180 173 152 138 147 148 144 
2 64 60 62 65 65 66 65 60 51 44 44 50 54 60 61 61 62 61 56 50 42 27 8 0 0 0 0 1 0 13 49 66 73 78 75 71 67 62 66 66 62 61 62 61 63 61 61 57 59 58 53 47 47 50 49 43 42 47 46 30 3 0 2 18 19 16 21 27 30 31 30 43 33 1 1 7 6 1 3 3 1 8 23 16 73 88 88 77 54 35 21 8 2 0 7 28 31 29 28 32 37 33 26 10 1 0 14 46 38 27 15 9 4 3 1 1 0 0 0 14 15 21 35 38 23 7 6 1 1 0 1 0 0 17 17 22 29 31 39 41 46 43 40 32 22 19 5 0 0 0 0 7 28 27 22 17 10 4 4 0 0 0 0 0 1 1 6 26 35 17 9 8 25 10 3 23 37 32 22 11 2 0 0 0 2 1 2 1 2 1 1 5 7 19 33 27 8 9 12 0 2 24 35 27 20 6 0 1 0 1 3 1 1 2 2 0 2 23 29 39 36 33 17 5 7 21 18 4 0 0 0 0 1 1 2 1 0 0 1 8 23 30 43 26 8 19 10 21 40 27 13 4 0 1 1 0 3 2 1 0 11 21 27 19 28 21 55 33 2 0 3 3 2 2 1 24 51 45 78 85 64 9 31 51 50 54 53 47 34 24 19 18 20 23 26 27 26 24 33 39 32 18 17 18 12 6 11 34 56 54 39 44 66 77 85 75 51 21 6 2 0 0 0 0 0 0 1 2 5 22 50 69 65 63 51 37 22 1 0 0  133 129 128 130 133 135 135 131 126 121 123 129 132 135 137 135 134 129 126 122 120 118 112 101 92 88 87 90 96 108 124 132 132 131 129 127 123 121 121 121 120 123 129 131 127 125 125 121 121 121 116 116 116 117 116 118 118 118 118 112 103 97 98 104 104 104 106 106 109 108 107 120 81 16 11 17 16 12 12 14 9 16 54 54 115 141 139 128 110 84 60 30 13 4 26 92 103 102 99 96 95 91 88 80 70 58 77 130 121 110 100 93 90 86 84 78 69 58 50 76 95 105 118 122 113 98 91 77 63 57 56 55 34 71 90 97 108 114 121 126 127 122 117 106 99 100 92 77 71 72 64 82 100 101 95 95 91 87 63 4 2 6 5 3 17 60 89 97 106 100 94 86 100 36 28 74 104 105 110 112 110 108 110 119 108 66 27 5 8 6 2 29 91 98 100 100 93 102 58 10 27 80 108 108 114 113 106 106 116 124 98 43 5 5 8 1 14 85 102 107 106 107 107 55 68 103 105 106 106 103 102 107 106 67 38 11 0 4 6 41 97 101 102 97 91 101 66 78 106 103 109 106 112 133 157 161 131 48 4 0 70 105 96 89 81 79 109 47 6 1 2 3 15 12 13 66 109 104 138 143 88 16 91 120 119 135 150 155 144 125 101 88 88 91 91 92 92 96 115 117 103 87 83 81 75 82 110 135 160 162 135 112 127 142 149 137 111 82 71 73 71 71 74 90 93 81 82 91 100 105 118 131 129 128 125 112 100 76 65 85 92  160 157 158 163 167 169 172 171 167 164 164 165 167 170 170 169 168 168 165 164 163 161 161 160 158 157 156 159 162 166 170 174 176 177 175 170 170 170 171 171 170 172 174 176 176 173 170 168 169 169 167 165 166 165 165 167 167 169 171 169 166 162 163 165 166 165 163 163 163 163 162 171 111 25 14 20 23 16 17 18 13 22 57 50 119 154 152 138 121 93 67 35 18 9 32 106 121 119 116 110 108 105 102 92 82 71 90 149 141 127 117 112 109 103 100 93 85 74 68 95 111 121 134 139 131 118 109 97 87 76 78 82 56 94 113 119 125 133 141 145 146 142 138 129 118 120 111 101 95 92 81 102 122 123 113 111 109 102 74 11 6 6 6 4 22 72 107 118 130 125 115 107 122 44 32 84 124 131 132 132 126 119 116 104 73 36 21 9 9 7 2 35 108 119 128 129 118 126 77 13 31 93 129 131 131 128 116 106 97 81 56 24 7 7 8 2 16 101 126 132 135 135 133 70 83 126 130 128 127 119 109 106 90 47 25 11 4 5 8 49 115 129 137 129 119 128 83 92 129 128 129 120 117 102 73 68 60 27 7 1 83 129 122 110 95 91 120 55 12 8 7 6 16 15 21 82 135 131 165 172 104 28 133 171 167 170 174 174 169 162 151 144 142 144 146 146 147 156 167 169 159 147 141 138 135 140 158 170 181 178 162 163 180 192 197 182 162 143 137 136 134 132 139 158 158 149 151 158 160 166 176 180 182 181 174 164 155 144 143 150 146 
9 71 67 70 72 75 76 75 74 65 61 62 64 67 67 62 61 56 53 52 49 44 35 18 3 0 0 0 0 1 0 18 59 76 78 73 70 69 64 67 68 65 61 62 66 66 64 63 58 57 58 51 47 46 46 44 40 36 39 37 24 2 0 1 12 10 8 16 24 30 32 32 58 88 49 16 9 1 0 0 0 4 22 52 66 81 77 72 60 55 54 48 35 18 6 0 9 12 15 16 16 22 19 13 13 12 0 31 66 58 43 19 5 0 0 1 2 0 0 0 0 3 6 11 39 22 0 10 3 0 0 0 1 8 5 5 18 22 35 44 52 58 54 42 35 19 10 6 1 0 0 0 5 24 40 51 52 46 37 35 31 24 19 13 12 10 16 18 28 35 10 0 8 26 8 11 40 42 35 28 21 10 2 0 1 0 0 0 0 0 1 4 4 9 31 33 18 0 8 13 0 15 32 38 30 25 15 3 1 0 0 0 0 0 1 0 3 10 24 31 26 19 10 5 3 7 29 30 18 15 11 6 3 2 1 0 0 1 2 4 11 13 28 29 11 5 18 11 38 47 31 7 0 0 0 2 2 1 2 0 5 17 31 14 35 51 42 42 0 2 1 1 0 12 18 30 48 32 57 77 64 24 3 30 51 52 53 53 43 28 16 12 17 16 20 25 29 29 24 33 40 36 22 17 18 16 10 15 42 56 46 31 32 55 74 82 82 63 36 6 0 1 0 0 0 0 0 3 10 25 51 54 51 46 52 50 42 40 18 0 0  139 137 137 138 141 145 148 145 139 138 141 141 143 141 136 131 127 122 118 118 114 110 108 105 98 92 88 89 90 94 109 129 132 129 123 119 120 121 121 120 117 118 122 129 131 129 124 121 120 121 117 116 115 116 116 116 116 116 119 112 105 100 99 103 101 99 104 110 113 111 110 125 163 138 65 35 9 5 8 14 30 76 136 146 161 158 139 116 109 110 105 95 65 32 12 65 100 98 97 97 97 95 91 93 89 50 96 156 145 129 111 101 94 85 83 80 71 65 59 56 68 79 84 106 88 54 64 75 57 48 45 58 73 67 78 93 99 113 125 131 134 131 121 113 84 47 67 72 66 64 56 75 93 104 106 106 102 99 100 92 80 67 59 57 66 88 96 101 105 96 80 83 97 40 58 100 101 106 108 106 98 94 95 68 6 0 1 4 5 17 45 84 99 106 102 97 84 98 62 28 73 98 106 107 111 105 94 88 87 40 0 0 2 3 4 29 78 102 102 102 101 95 96 72 83 99 105 104 101 96 92 90 45 2 2 11 18 34 68 99 98 101 103 92 90 101 84 100 110 105 96 94 77 43 50 43 18 2 2 43 94 98 89 107 110 104 86 9 16 33 56 79 99 67 81 107 93 116 139 106 28 12 97 121 130 153 156 149 131 105 85 83 87 91 91 93 93 96 113 119 106 89 84 84 78 76 99 144 162 150 118 99 116 135 149 146 124 94 76 73 71 71 70 81 94 88 89 100 116 130 127 119 115 126 128 117 108 91 68 76 95  160 158 160 163 168 173 175 178 175 172 171 170 171 171 170 167 164 164 161 157 157 157 157 158 157 158 157 156 157 162 167 173 175 176 172 167 167 167 169 170 169 170 172 174 176 175 172 170 169 170 170 166 164 163 164 166 165 167 172 170 164 163 163 165 166 163 162 163 163 164 163 170 185 151 73 40 14 10 13 17 33 76 137 151 171 172 153 126 119 124 119 105 73 37 18 80 120 115 113 112 111 109 105 105 100 64 109 172 164 147 129 117 110 103 100 97 89 83 74 75 90 101 104 120 104 71 82 97 86 75 70 89 105 97 104 113 118 133 143 150 155 153 140 132 101 58 82 99 92 84 75 103 124 131 131 131 126 118 115 106 91 75 66 63 77 101 114 126 133 124 101 101 117 52 67 118 127 134 128 121 116 112 107 73 9 1 2 4 5 21 55 99 119 128 130 125 107 118 76 35 88 123 134 134 133 124 112 101 90 36 0 2 3 3 6 36 92 122 127 131 130 124 122 88 103 127 132 127 120 114 112 105 52 8 6 15 21 41 81 117 123 127 131 120 115 123 103 124 136 129 115 111 84 40 30 23 13 7 3 52 116 123 112 123 123 118 94 12 13 19 26 43 87 77 99 131 121 145 165 128 38 26 138 172 168 175 174 167 161 151 141 141 142 143 145 146 148 155 168 170 162 147 139 138 136 135 150 173 180 169 153 148 169 184 195 191 173 151 137 135 133 133 136 149 158 153 154 161 172 180 178 176 175 180 171 165 157 150 143 148 152 
5 74 71 74 76 79 81 85 83 78 75 74 73 71 67 64 58 51 47 48 47 45 42 30 16 4 0 0 0 0 0 0 25 65 74 73 67 68 69 67 64 61 59 61 66 65 63 62 56 52 51 45 45 43 42 41 34 29 31 32 21 2 0 0 5 11 12 20 26 31 35 33 69 108 49 42 57 45 52 65 60 50 48 45 51 55 39 16 8 13 33 54 60 60 44 26 13 13 11 12 9 14 24 36 31 5 3 15 68 70 59 46 26 14 12 7 3 1 0 0 0 0 7 18 23 9 0 0 2 3 6 19 38 43 34 25 14 17 33 33 36 53 47 21 20 11 0 7 2 0 0 0 2 13 38 59 59 46 42 43 42 42 39 34 34 42 52 33 17 31 18 2 14 26 10 5 25 33 44 49 49 47 37 26 25 26 15 12 8 11 6 0 4 14 17 20 11 0 9 14 0 14 30 38 39 41 37 33 27 20 23 18 8 8 10 4 5 4 5 9 14 13 0 8 5 0 23 49 55 60 62 49 43 46 47 37 37 33 29 33 32 24 27 28 15 16 26 2 23 52 59 45 32 22 3 0 2 0 0 10 26 28 19 28 37 30 47 38 25 8 1 0 0 3 17 30 20 36 66 60 31 0 8 33 38 44 48 43 31 22 13 8 12 14 14 22 28 31 24 35 39 34 24 17 19 18 17 30 41 42 35 27 26 38 65 76 86 76 52 19 1 0 0 0 0 0 0 8 26 40 54 47 26 27 43 50 46 52 43 7 0  142 140 142 145 148 153 158 157 152 150 149 147 147 142 136 127 119 117 114 114 109 110 111 109 106 99 97 91 86 88 96 113 125 126 122 117 119 121 120 120 117 114 117 122 127 130 128 124 121 117 117 118 113 111 114 112 112 115 115 111 103 97 100 103 101 101 104 108 114 115 114 132 213 218 178 150 104 92 105 120 155 185 186 180 174 124 54 27 39 87 113 121 125 111 99 104 109 107 107 105 105 107 113 101 54 53 72 144 162 150 134 121 112 102 94 88 79 70 63 56 57 78 85 72 37 10 28 66 68 64 89 118 127 121 113 92 89 109 118 124 132 131 115 111 73 4 46 68 60 56 44 57 81 101 111 110 104 102 108 110 117 119 114 112 110 114 106 98 108 104 78 80 96 72 59 85 96 110 117 113 106 102 96 86 62 50 46 38 61 83 81 89 99 101 99 96 83 93 83 53 79 96 109 108 109 104 97 95 89 69 53 32 37 50 63 85 92 94 95 101 100 89 95 68 74 101 115 117 114 114 111 107 107 105 91 102 106 107 108 106 103 101 102 94 95 102 80 97 114 114 102 100 64 9 1 3 3 15 48 93 92 86 100 101 91 114 114 123 152 181 198 186 136 97 96 86 109 137 133 57 6 48 104 118 137 154 150 135 108 88 79 79 84 86 89 93 93 94 113 122 108 91 86 85 81 83 116 150 154 131 100 93 104 127 140 148 137 110 81 69 69 67 69 78 92 89 100 116 131 138 123 105 108 124 127 119 116 106 78 68 85  163 160 160 165 168 174 178 180 179 177 174 172 172 169 167 166 161 158 157 155 154 156 154 154 159 162 159 158 157 158 160 166 173 174 170 165 165 166 167 166 167 168 170 172 175 174 175 173 169 170 170 166 165 165 165 166 163 167 172 171 166 164 164 165 166 163 162 162 164 165 166 172 224 224 187 165 116 103 119 130 160 184 185 184 178 134 65 36 49 98 125 134 138 123 113 121 128 124 122 123 120 121 127 116 68 65 84 160 178 163 149 138 127 117 109 106 98 89 80 75 75 102 113 90 50 20 45 92 98 92 121 156 170 168 159 125 112 128 135 142 150 149 134 130 88 9 59 93 84 76 63 84 108 129 138 137 130 125 128 132 136 136 132 130 127 130 125 118 130 129 97 94 111 85 75 110 127 137 137 133 125 122 117 103 72 57 54 45 67 94 98 106 120 123 125 123 102 108 97 68 103 124 138 137 134 127 119 115 105 83 62 38 43 58 74 100 111 116 120 123 123 112 116 89 99 131 144 146 143 140 136 129 124 120 107 117 122 122 124 128 125 125 128 122 118 121 102 130 148 147 132 121 76 13 4 7 6 19 59 112 119 113 118 121 115 130 126 110 96 87 92 90 103 117 123 116 134 162 154 76 17 66 145 172 172 175 170 161 150 144 137 140 143 143 143 146 148 155 170 171 162 148 140 138 138 140 156 174 175 160 146 144 156 179 191 196 181 161 141 133 134 134 133 140 156 157 160 170 180 182 176 168 170 177 174 168 166 158 146 143 150 
1 77 74 79 79 82 88 90 84 85 83 78 72 70 66 62 57 49 44 42 46 46 45 47 38 25 10 2 0 0 0 0 0 34 70 73 72 71 71 68 66 61 58 59 58 60 62 63 61 55 47 39 40 40 36 37 31 27 27 31 19 2 0 0 4 12 17 24 30 35 35 35 86 71 2 19 36 56 79 90 74 40 19 13 12 11 0 0 0 4 52 90 98 84 63 39 42 44 43 46 50 58 56 33 5 0 5 2 12 39 50 37 29 27 19 13 4 1 2 0 0 4 30 43 41 35 19 22 35 43 51 61 59 55 50 40 35 24 8 13 19 39 28 7 0 1 1 0 0 3 8 28 16 13 23 28 22 16 12 13 23 22 22 29 33 34 40 46 48 39 38 35 31 24 5 0 2 20 42 57 63 69 60 48 45 50 50 42 36 35 32 36 41 29 13 15 23 25 21 10 0 0 10 34 55 63 64 60 55 51 56 61 52 44 33 30 37 36 17 7 20 21 17 19 4 0 13 50 67 78 85 77 71 70 69 65 53 50 56 57 51 32 41 56 50 39 17 0 1 36 73 81 77 69 64 22 0 11 17 36 29 13 23 25 22 49 44 32 13 0 0 0 0 1 1 1 32 61 52 36 13 11 40 41 28 29 27 21 17 12 10 4 3 12 16 20 27 27 22 36 44 35 23 18 21 24 34 43 37 32 31 26 28 32 54 71 82 83 64 35 6 0 0 1 0 0 0 7 26 41 40 27 6 15 38 42 44 57 60 35 0  143 144 147 151 153 160 162 162 160 157 153 147 144 138 130 124 116 113 111 114 112 116 121 119 116 113 108 99 90 86 89 95 114 122 119 118 115 117 118 117 115 114 113 113 119 123 126 126 123 116 114 112 112 108 108 107 109 113 117 114 102 100 99 102 102 104 108 111 114 117 117 144 213 222 201 166 156 154 151 167 190 199 196 190 135 13 5 14 27 107 152 155 146 130 119 132 136 133 133 132 133 129 108 70 48 52 42 73 117 137 125 111 107 95 82 51 55 54 60 67 82 117 131 126 119 100 101 119 126 133 140 137 136 131 127 123 105 85 88 88 107 97 61 46 67 64 67 61 67 76 98 79 78 86 64 50 46 42 49 81 107 109 114 116 115 115 116 116 108 109 103 92 92 84 56 69 87 102 114 117 118 114 109 107 118 125 117 112 112 108 106 112 111 99 98 102 97 95 92 58 66 88 104 114 115 113 111 109 110 118 126 125 120 116 109 107 107 101 94 102 106 102 101 65 66 93 108 117 126 126 127 125 133 133 130 124 123 123 122 118 104 107 117 111 101 89 60 78 111 119 122 116 118 109 39 4 51 79 93 91 82 87 84 80 110 120 127 165 193 202 197 179 123 81 74 98 131 133 116 62 62 103 105 118 131 137 131 115 95 82 75 74 81 84 87 94 93 91 114 125 109 90 85 84 88 114 147 153 139 110 91 92 96 115 134 148 144 123 91 70 69 70 73 73 86 92 101 120 130 126 108 92 99 118 119 119 123 120 101 67 74  164 161 161 167 169 174 178 181 181 179 176 172 171 169 165 163 158 156 156 157 156 155 157 159 161 164 166 163 161 157 156 158 166 173 169 165 166 167 167 166 167 166 166 168 171 172 174 176 174 170 167 166 164 163 163 165 164 166 171 170 165 165 165 164 166 165 164 163 164 166 168 182 203 196 195 181 178 175 176 183 186 178 167 164 124 21 8 16 32 117 166 170 159 143 134 148 153 150 147 145 144 141 122 84 59 67 53 80 132 153 142 128 123 110 96 72 74 78 79 86 108 149 165 158 150 127 129 150 163 173 183 179 176 178 180 174 139 110 110 108 124 112 74 61 84 82 85 82 89 101 128 103 104 114 84 63 56 51 60 94 125 128 133 136 137 137 138 132 126 138 130 113 109 102 74 94 121 136 141 144 147 144 135 131 139 145 139 132 129 122 123 136 135 118 120 128 119 115 113 79 90 116 134 143 147 145 143 139 134 144 151 143 139 138 128 127 128 121 116 122 123 119 120 87 92 125 142 151 159 159 156 155 157 157 157 148 146 146 148 144 126 131 143 138 129 114 78 104 140 152 156 145 140 125 44 6 60 97 119 113 107 113 105 106 137 138 138 124 96 93 88 81 93 103 103 128 153 150 135 81 81 127 144 172 175 172 166 157 147 140 134 135 140 141 143 145 148 154 168 172 162 149 142 140 143 156 171 174 168 156 144 141 146 168 186 196 191 171 149 135 133 134 135 135 149 158 163 174 180 174 163 156 163 173 174 172 172 168 158 143 147 
1 78 78 84 84 84 89 89 89 87 85 78 70 66 64 60 52 45 43 42 46 49 49 52 51 42 27 15 6 1 0 1 0 2 42 73 76 74 72 68 66 63 62 58 52 52 54 57 58 59 56 43 34 34 31 30 27 24 20 24 19 3 0 0 4 16 27 36 40 38 40 46 69 57 0 0 3 14 38 57 44 7 1 0 0 1 4 9 16 50 95 119 116 96 76 36 28 59 56 63 61 48 23 6 9 8 0 6 26 12 7 15 27 29 9 12 6 0 2 0 5 33 36 38 43 38 36 40 41 47 44 41 42 39 37 29 24 24 14 1 6 15 8 9 0 1 0 0 0 7 12 20 24 19 16 5 0 1 1 1 0 7 28 41 59 69 79 77 69 27 15 27 26 23 1 0 1 12 33 54 47 44 42 38 40 36 35 38 39 48 55 53 42 37 36 46 37 28 21 3 0 0 2 28 50 66 65 60 53 50 53 49 48 36 41 55 55 47 38 45 65 74 60 16 0 0 5 32 54 50 36 39 45 38 48 39 39 51 54 46 51 57 61 34 22 17 8 0 5 19 37 60 70 70 74 68 47 51 49 36 10 16 30 38 50 46 41 24 3 0 0 4 4 0 3 34 62 43 26 15 21 35 46 39 51 47 36 24 13 8 10 3 0 8 14 18 28 25 22 33 42 32 20 20 27 40 48 43 31 23 29 30 27 29 41 65 77 84 73 50 13 0 1 1 0 1 0 0 11 25 27 20 6 2 23 28 38 63 63 52 7  146 148 150 153 157 161 164 165 160 156 151 144 141 136 129 123 116 114 112 117 119 122 125 124 121 117 112 111 102 92 88 86 94 115 119 117 116 115 117 115 115 114 112 108 111 115 119 125 127 123 115 109 112 108 105 105 107 111 118 115 103 100 99 102 105 109 114 117 116 118 124 133 167 200 186 154 140 144 153 164 189 201 196 185 121 26 31 55 113 161 179 174 158 147 109 91 148 150 149 142 125 102 78 65 57 46 64 109 68 69 97 87 93 77 69 56 39 57 70 84 120 122 121 122 121 119 122 118 118 117 108 112 109 103 98 92 93 85 66 37 28 17 12 0 48 68 54 53 63 66 72 69 60 64 43 34 32 27 9 4 61 116 128 143 144 145 138 116 58 41 61 78 94 85 51 55 80 99 103 83 76 83 95 105 112 113 118 116 121 126 123 118 115 105 110 100 95 92 88 64 60 78 101 108 113 108 107 105 107 118 119 124 119 119 125 121 117 112 119 140 151 138 101 69 65 83 98 98 79 61 73 84 90 121 122 126 131 127 122 123 118 107 67 48 78 73 55 89 104 108 110 117 122 125 111 90 105 96 90 77 85 81 80 94 103 109 104 120 163 178 165 96 60 70 88 119 123 111 86 79 92 103 119 153 148 141 127 107 92 87 79 69 77 82 87 93 92 93 112 123 107 85 81 90 117 150 158 144 116 97 91 91 91 101 129 146 151 132 106 78 69 70 74 74 78 93 93 105 111 104 93 84 86 103 110 119 128 126 119 77 65  164 162 163 167 173 177 179 182 180 177 174 170 168 167 164 161 156 155 156 158 160 158 162 166 165 165 167 169 164 160 158 155 157 167 167 165 165 166 166 167 166 166 165 165 167 169 171 175 176 175 169 167 164 163 163 165 164 164 171 171 166 165 165 165 165 164 164 166 166 169 172 178 173 160 157 145 152 164 175 177 154 130 110 108 80 25 34 55 120 175 195 188 171 160 124 106 163 166 164 155 139 117 97 87 75 61 64 97 74 87 120 106 109 97 86 79 61 72 87 109 158 164 160 158 158 152 156 155 156 154 146 146 145 141 139 136 132 116 90 53 36 26 13 3 67 89 75 77 100 109 116 115 104 98 62 47 38 32 13 10 74 133 146 160 164 167 162 133 70 55 80 95 112 104 70 72 105 126 125 103 98 106 119 126 133 135 138 137 142 148 147 145 138 125 131 124 119 120 111 80 80 102 127 137 142 134 133 129 130 141 144 147 142 142 150 149 143 129 129 143 152 145 120 88 82 110 131 126 100 79 92 108 110 142 146 147 154 152 148 149 143 126 84 64 100 93 65 101 118 126 134 142 145 149 130 107 125 121 113 99 104 101 105 121 125 124 114 89 78 76 77 49 62 91 117 149 145 126 108 102 121 134 151 182 180 177 171 162 154 146 138 134 135 138 143 145 147 153 167 173 161 146 141 144 157 173 175 168 161 154 145 140 141 157 181 192 196 181 161 140 134 134 135 133 144 159 160 168 170 162 153 149 153 165 169 173 177 173 168 145 142 
0 79 81 82 83 86 89 88 85 84 82 74 68 66 62 56 48 46 49 47 49 53 51 50 52 49 40 28 22 15 3 0 1 0 5 49 75 76 71 68 67 65 66 59 52 48 47 48 53 54 59 54 42 31 28 24 23 25 22 21 18 6 0 0 6 23 35 45 45 42 45 54 63 62 18 5 0 2 17 17 7 0 1 2 3 9 7 10 7 40 85 109 104 86 62 10 2 41 49 49 22 4 23 67 30 22 37 57 65 29 0 39 95 75 40 25 3 0 1 0 3 8 5 6 7 5 2 0 1 1 0 0 0 0 0 0 0 0 0 6 13 5 6 6 1 0 0 0 0 0 0 0 0 0 0 1 0 7 19 24 7 51 84 90 98 95 87 86 48 0 2 2 2 4 1 0 0 0 13 31 1 0 1 4 8 13 16 24 38 43 44 53 63 71 68 47 10 5 3 0 0 0 1 5 27 26 11 9 12 9 21 21 19 41 64 64 66 73 93 119 137 143 103 32 0 1 0 7 18 2 1 2 1 0 16 33 51 65 70 78 86 102 64 0 0 3 0 6 29 43 29 15 34 55 67 71 69 52 42 20 7 9 43 82 83 64 48 10 1 3 3 3 0 7 39 57 32 8 9 23 43 45 30 29 50 53 55 55 47 32 15 1 0 8 17 20 28 25 19 33 41 31 16 26 44 47 46 34 17 17 31 32 24 25 25 52 74 84 83 68 37 4 0 1 0 17 15 0 1 3 18 23 14 7 10 15 31 61 61 54 24  147 149 147 152 158 161 162 160 155 149 144 140 140 135 124 121 118 116 117 121 123 123 125 126 123 118 114 114 113 106 93 87 86 96 112 118 118 117 117 115 115 116 113 108 105 107 111 120 124 127 123 116 111 107 106 105 106 109 117 113 105 99 98 102 107 113 119 120 119 121 130 137 132 121 121 86 104 122 115 102 125 147 132 100 69 36 27 24 77 157 184 174 159 138 38 11 103 127 122 90 59 74 108 74 79 114 144 151 112 74 103 127 120 101 83 58 37 46 49 47 52 47 52 55 57 53 56 56 50 49 50 51 52 51 50 47 51 61 73 77 48 29 27 39 57 50 44 39 31 32 31 29 31 35 43 53 89 108 81 25 104 158 163 169 166 156 152 81 0 7 3 24 78 71 45 33 42 73 72 13 10 10 16 30 63 107 117 126 130 129 128 130 131 121 79 25 27 62 84 51 50 59 81 97 53 24 24 30 28 65 103 114 132 142 140 137 143 163 188 204 207 175 113 54 51 61 87 64 7 5 6 8 5 75 127 140 148 144 145 145 149 87 1 12 66 69 93 107 111 110 87 98 117 121 123 121 102 92 85 76 74 88 108 106 98 90 26 15 49 65 34 10 61 91 97 76 66 67 67 88 96 91 117 163 162 162 158 147 126 104 90 79 83 86 88 92 90 92 109 121 108 81 89 124 151 159 148 119 95 96 94 85 88 89 116 141 150 144 124 95 73 73 74 74 91 102 91 85 89 89 86 85 86 92 99 110 125 125 122 97 66  167 164 165 170 176 179 181 180 177 173 169 165 164 163 161 159 158 158 158 161 163 164 164 166 168 166 163 166 169 166 161 157 156 157 163 165 166 166 167 166 166 166 167 165 164 166 167 171 174 175 174 170 166 165 164 163 164 165 170 171 166 166 164 162 164 163 163 165 166 169 173 177 168 122 111 84 106 137 136 119 108 91 68 53 51 35 30 30 93 173 198 187 172 149 51 23 118 142 137 107 72 84 125 100 95 110 133 149 121 85 122 148 140 120 104 79 50 57 68 77 88 84 85 89 90 87 90 88 84 82 80 81 84 83 82 84 88 96 101 101 63 41 38 51 78 76 73 73 70 69 68 68 70 71 76 82 106 124 94 33 114 175 183 189 185 175 168 94 2 9 7 31 93 88 66 57 70 98 91 20 15 16 23 38 76 125 137 147 151 151 154 158 156 144 98 35 37 80 103 70 69 80 104 120 66 34 32 39 38 77 123 136 154 166 164 160 162 176 190 202 211 183 125 70 69 80 108 80 16 9 11 15 12 90 146 160 169 169 171 174 175 102 5 19 83 84 106 118 122 116 98 118 141 143 147 144 125 112 104 96 96 114 138 138 121 104 36 16 30 35 21 15 76 117 130 103 86 90 90 116 131 128 149 182 182 184 183 178 170 160 151 145 145 144 145 146 147 152 168 173 161 142 145 161 175 178 170 159 151 152 149 140 139 148 172 188 197 192 172 151 135 133 134 137 152 161 160 158 156 150 145 145 148 155 161 168 178 176 171 155 141 
0 76 77 75 78 81 85 79 76 76 71 67 65 65 56 50 55 58 57 54 52 51 51 51 51 47 43 36 30 27 22 7 0 1 0 9 50 70 72 70 69 66 65 58 53 48 42 41 44 43 50 56 52 41 32 28 26 28 27 26 19 4 0 0 7 29 46 52 49 48 50 57 63 65 62 62 55 25 0 1 3 3 2 4 5 8 20 49 80 92 82 92 80 50 23 0 5 56 63 43 24 0 43 81 52 84 99 92 60 19 0 51 124 93 48 16 1 1 0 0 0 0 0 0 0 0 0 0 0 0 0 0 0 0 0 0 0 0 0 0 2 5 6 2 1 0 0 0 0 0 1 1 0 0 0 0 0 8 41 56 69 93 95 99 99 98 89 86 37 0 9 4 4 0 0 0 0 0 0 3 2 2 1 1 3 0 16 42 63 81 84 88 88 89 67 4 0 3 5 0 0 0 0 0 8 6 0 1 1 0 0 4 46 65 78 82 99 121 143 163 170 157 118 63 17 21 7 0 9 6 3 4 1 0 14 71 82 95 104 111 110 115 61 0 5 4 2 27 64 69 66 43 17 44 68 73 51 30 22 7 0 5 52 93 110 105 89 27 0 1 0 0 11 34 47 24 3 0 1 26 48 30 22 19 17 13 26 43 55 61 50 25 2 0 7 12 17 19 22 34 41 35 29 43 50 42 35 22 11 15 28 33 24 22 21 37 68 82 88 80 59 19 0 0 6 35 34 5 0 0 10 19 16 15 8 6 17 55 67 62 50  142 144 143 145 151 150 149 149 146 139 136 136 134 128 123 124 126 124 122 121 121 122 123 125 125 121 117 114 115 116 109 94 89 88 96 111 113 113 117 116 116 116 115 112 109 104 104 110 115 120 125 124 117 111 108 109 109 111 115 113 105 98 99 103 110 118 122 123 122 126 133 137 140 135 132 122 99 45 29 18 22 29 21 18 21 39 68 90 100 119 151 148 121 76 23 28 92 93 82 76 49 64 105 99 143 172 166 142 123 84 94 141 127 103 73 48 33 35 36 36 34 35 39 39 40 42 42 42 44 47 50 49 53 50 50 49 44 46 50 57 71 76 64 60 47 37 42 40 41 41 39 42 45 43 39 44 76 118 129 136 164 169 171 168 167 159 155 67 3 17 12 64 78 68 51 21 20 24 34 32 35 44 35 12 0 79 134 146 162 158 155 148 145 102 9 5 6 64 68 34 24 29 32 53 34 29 26 9 0 0 29 124 145 157 161 169 189 209 218 220 217 193 143 94 87 65 52 70 70 56 36 6 0 44 145 154 166 173 174 167 163 78 0 43 91 91 107 120 123 127 106 76 100 117 119 107 91 80 62 55 74 97 114 123 124 114 36 0 1 0 8 55 82 82 39 9 4 8 46 80 70 88 114 138 135 145 160 174 175 157 126 97 94 96 95 93 92 94 109 120 108 100 125 151 157 146 121 92 85 94 99 86 82 83 98 131 147 150 138 114 82 74 76 81 108 117 101 84 82 81 84 85 85 86 91 98 117 127 125 117 77  169 167 167 172 174 178 177 175 170 166 163 162 163 161 158 158 160 161 163 163 162 165 166 166 169 167 165 166 167 171 167 161 158 155 157 163 165 166 166 165 167 168 167 164 162 163 164 168 171 173 174 173 170 166 164 163 162 164 168 169 166 165 163 161 164 164 167 168 167 170 174 178 179 172 166 155 128 63 39 30 31 32 27 25 26 43 75 110 122 137 164 161 135 91 32 35 104 115 106 96 63 70 122 116 150 169 166 155 140 97 106 154 149 124 89 59 42 48 58 65 72 78 80 82 87 86 86 90 92 93 95 93 92 93 94 94 91 91 92 98 103 103 93 90 82 77 77 78 79 77 77 78 79 78 77 81 98 133 145 153 179 186 188 188 185 175 171 78 5 19 15 75 95 85 71 55 57 61 74 62 53 55 43 17 0 93 153 165 181 180 179 175 170 122 18 7 10 77 84 54 56 59 66 79 48 38 32 14 1 0 36 144 167 179 184 192 206 221 228 229 228 206 154 112 113 83 67 85 83 68 44 11 0 53 164 177 189 197 199 193 189 95 3 52 110 116 134 137 134 137 118 92 121 136 136 125 111 98 86 74 94 125 143 152 151 134 45 0 2 1 16 65 101 108 60 18 11 20 64 103 101 122 146 169 169 173 179 186 187 179 167 158 156 155 154 153 151 156 169 174 162 151 162 175 180 174 159 145 145 152 152 142 138 141 160 183 194 199 184 163 142 136 135 147 165 169 163 157 150 141 142 144 146 148 152 159 172 178 177 170 147 
7 74 75 76 76 79 77 72 70 68 61 57 56 56 56 58 64 62 60 56 53 50 46 52 52 46 45 43 39 35 34 29 13 0 1 0 9 46 68 72 74 72 66 59 52 44 39 33 33 39 42 49 58 55 47 38 30 30 25 24 20 4 0 0 9 35 52 53 55 52 54 60 65 63 63 68 70 62 29 9 7 6 9 13 17 43 90 106 121 125 114 92 56 24 11 0 28 114 100 59 31 11 54 38 88 120 104 95 80 49 17 61 101 80 37 3 1 4 5 6 4 9 12 18 20 14 12 12 11 12 15 11 11 18 21 20 20 20 17 9 9 7 6 2 0 0 0 0 0 0 0 1 3 4 1 1 0 1 25 62 77 85 95 98 98 96 85 80 43 0 0 11 31 22 7 0 0 0 0 0 0 0 0 12 31 21 70 95 100 108 111 104 97 98 51 0 3 7 13 3 0 0 0 0 0 2 1 1 10 18 15 6 74 94 95 110 128 140 142 140 132 127 120 88 36 13 3 0 0 0 4 20 32 13 28 95 103 112 119 119 113 111 56 0 24 26 34 52 50 79 87 77 31 9 36 36 21 10 4 1 0 3 34 73 97 106 109 91 42 25 30 26 31 31 14 2 3 3 1 5 11 1 15 22 7 8 15 16 24 44 66 69 38 5 0 2 5 6 14 30 38 45 47 46 42 34 25 17 14 12 21 32 26 18 18 21 55 80 88 90 72 40 6 6 30 46 35 9 0 0 2 17 21 23 16 9 8 37 64 69 69  140 142 145 143 146 142 139 137 134 129 127 127 127 126 128 130 128 126 124 122 121 121 126 125 123 122 121 118 116 118 120 108 94 90 88 95 106 108 113 117 117 116 116 114 109 103 102 103 108 114 118 124 125 119 113 110 111 111 114 114 109 100 96 104 113 121 125 127 126 130 134 138 138 140 143 146 140 102 57 34 31 39 53 56 82 113 119 126 132 129 119 98 70 53 40 67 139 130 100 87 60 65 61 143 172 165 157 150 134 100 88 119 120 100 68 60 54 54 63 66 73 76 77 82 79 79 79 78 78 77 79 78 85 88 88 87 87 87 81 78 78 82 72 67 65 66 65 62 65 68 69 71 77 72 68 59 67 94 132 148 161 169 170 169 167 157 154 82 9 2 33 103 97 76 42 38 40 39 41 46 44 62 103 95 53 131 167 169 174 178 171 160 157 77 4 5 35 92 74 40 21 23 20 20 29 42 77 84 60 45 29 138 163 169 178 190 203 210 210 207 205 199 173 136 104 77 55 35 64 97 108 83 36 73 165 171 180 183 184 177 168 86 7 80 107 106 112 112 129 131 132 83 50 92 91 77 64 51 41 43 63 90 103 114 128 133 120 66 49 63 74 76 67 27 6 9 10 7 13 21 4 73 123 112 102 107 119 139 163 180 178 141 105 97 101 99 95 97 112 119 121 131 149 151 139 117 93 81 84 90 97 90 80 80 88 121 145 153 152 130 98 73 77 99 119 121 103 90 85 80 82 85 89 85 87 88 102 124 131 134 110  170 170 170 172 173 173 171 167 163 159 156 158 160 158 158 162 165 163 164 162 162 163 165 167 168 168 167 168 168 169 170 167 160 158 156 157 161 164 165 167 169 169 169 166 164 164 163 165 168 170 173 174 174 171 166 162 162 163 165 167 166 165 161 161 164 165 169 171 169 172 176 178 177 178 179 182 175 124 70 45 41 46 62 66 94 131 144 153 156 152 138 116 90 75 52 77 151 151 125 105 74 71 70 157 186 176 168 163 148 115 95 128 137 119 84 73 65 65 82 92 103 108 111 114 113 111 112 114 116 115 117 118 118 118 118 118 117 116 112 111 109 109 105 102 97 95 94 97 102 104 102 104 103 99 98 95 95 114 150 166 177 184 184 184 181 173 171 94 12 4 40 116 112 96 74 73 79 81 80 83 82 91 120 108 62 146 186 188 196 197 188 179 179 90 7 7 44 107 91 66 57 58 57 58 63 70 95 99 70 52 36 155 184 189 203 217 225 226 225 223 222 214 184 156 134 101 78 60 83 113 126 95 43 86 186 195 204 208 207 198 190 102 22 106 143 146 152 147 155 149 143 104 79 115 109 91 80 67 57 54 77 115 130 139 151 157 136 75 60 72 89 95 87 44 11 13 13 8 17 28 20 103 155 159 154 154 160 170 178 181 175 167 158 160 162 162 160 161 169 170 169 170 174 175 171 158 145 140 144 153 154 147 139 137 148 175 191 199 195 177 156 137 141 160 172 173 163 158 153 144 143 144 144 145 149 152 163 176 180 179 162 
38 73 75 80 79 76 72 66 64 59 48 45 49 56 59 61 62 60 55 52 53 47 44 46 48 47 47 46 45 46 47 42 37 18 1 1 0 9 39 62 73 72 68 61 51 45 37 28 21 27 37 47 54 58 56 54 42 33 30 26 23 7 0 0 10 41 55 56 56 54 55 60 62 62 62 65 65 65 63 39 35 46 48 51 53 67 106 128 126 118 101 53 41 25 11 0 42 144 104 71 16 20 51 14 68 87 93 99 87 58 34 78 40 58 30 0 0 7 8 23 32 28 20 40 39 30 34 31 33 26 24 22 18 26 35 33 25 31 24 22 21 17 15 4 3 8 13 0 5 3 1 2 9 9 4 4 8 14 13 35 65 79 92 93 97 93 84 84 87 60 31 51 57 33 5 0 0 0 0 0 0 0 0 8 51 85 99 102 105 106 106 108 99 98 55 0 6 33 36 12 0 0 0 0 0 0 0 0 15 46 69 80 101 108 109 113 123 127 117 108 103 102 100 84 52 38 42 46 27 5 1 25 56 74 86 102 108 114 114 112 105 99 86 70 71 70 62 68 62 62 84 93 47 0 6 11 5 2 0 0 0 1 6 47 81 107 116 115 104 90 79 72 63 28 0 0 1 2 1 5 1 3 21 21 4 12 24 27 23 26 43 70 79 45 3 0 0 0 2 17 27 39 43 44 33 24 24 20 18 15 21 28 27 19 17 13 42 77 87 94 90 66 40 36 49 46 25 3 0 0 1 18 23 23 23 21 17 25 52 68 73  140 144 145 144 141 139 133 127 121 118 120 123 128 134 133 133 131 126 123 124 120 119 124 122 121 122 122 119 122 121 119 120 110 96 90 89 95 104 107 116 119 121 120 115 109 105 103 99 103 110 115 121 127 126 121 115 113 113 115 118 111 102 95 104 117 126 129 129 132 135 136 135 136 136 140 140 140 139 118 106 109 121 131 131 127 131 138 142 141 123 77 74 71 56 30 68 163 136 116 79 64 64 67 137 138 149 157 152 139 102 87 67 112 97 62 58 72 73 86 91 87 82 93 92 87 91 92 92 87 86 87 82 89 94 92 89 91 88 90 84 77 78 71 68 74 82 66 69 66 66 64 69 69 68 69 67 72 69 100 142 159 169 169 168 162 152 148 148 108 72 109 119 98 52 31 37 38 36 42 41 35 43 82 130 151 163 172 172 168 172 173 165 161 92 0 19 91 111 74 34 39 39 43 39 40 41 59 102 126 138 141 163 171 175 185 195 195 192 186 182 187 191 185 168 146 130 115 94 73 86 112 133 145 157 171 179 186 187 183 172 156 130 117 128 130 127 127 121 120 127 135 101 64 79 95 78 39 33 38 41 39 44 90 108 122 132 137 131 117 105 98 88 40 2 5 5 3 5 11 7 23 92 109 95 88 92 96 101 114 144 179 181 143 101 97 98 96 98 109 115 124 138 144 130 105 93 84 84 83 88 96 94 81 77 80 105 141 153 157 151 126 97 98 116 123 112 91 88 87 84 84 86 87 85 87 90 94 114 131 139 141  173 173 173 174 173 172 168 163 158 153 153 156 159 161 162 165 164 163 162 161 162 163 164 165 166 167 168 169 171 171 168 171 167 161 158 156 156 161 163 168 170 169 168 168 167 164 162 161 164 168 171 173 173 174 171 166 162 162 164 166 166 167 162 160 164 167 170 172 171 173 177 178 179 177 178 178 177 170 143 129 129 139 150 149 148 155 166 170 168 151 101 93 88 73 40 78 184 164 140 99 77 73 84 168 170 171 172 167 156 115 93 78 122 112 77 71 86 89 103 118 120 116 125 125 120 122 123 125 123 121 121 122 123 125 126 121 122 120 120 118 114 114 109 107 103 94 91 102 104 103 100 103 104 100 95 96 101 103 123 156 174 183 184 181 176 169 163 158 118 81 121 133 115 81 64 71 76 79 81 82 79 81 106 145 169 183 192 191 190 189 187 178 175 102 1 22 103 124 98 75 79 80 79 82 80 78 86 119 144 158 161 183 193 198 208 219 223 222 218 217 216 210 204 196 184 169 155 129 101 106 128 149 163 176 193 201 206 206 202 195 183 163 158 173 173 166 166 161 158 159 154 120 95 117 129 106 56 41 46 51 47 60 115 132 146 156 161 154 141 132 128 114 54 9 10 8 6 9 14 11 39 122 151 152 148 146 147 150 154 163 169 168 160 155 160 164 163 163 169 171 173 175 174 167 157 146 141 139 140 150 157 152 140 137 140 164 188 198 200 189 172 155 158 172 177 166 154 155 156 150 144 144 145 143 145 149 155 169 183 184 179 
70 73 76 78 77 72 67 64 59 48 42 45 51 59 62 59 60 61 56 55 52 47 43 43 43 45 47 46 46 48 52 54 50 46 21 0 1 0 7 33 54 65 69 59 51 44 36 26 22 20 28 40 47 57 60 61 55 44 35 29 25 5 0 0 13 44 57 60 58 57 59 62 62 58 62 65 65 63 63 63 47 44 48 45 42 39 38 50 56 50 36 8 6 18 9 1 31 142 113 75 21 14 44 41 63 80 78 67 56 42 65 38 9 26 5 1 3 17 32 33 32 19 26 38 45 45 46 50 49 43 44 41 36 40 42 37 40 48 37 43 40 29 23 15 20 26 23 15 21 17 10 14 5 3 5 21 18 23 36 38 43 75 75 78 86 88 84 82 79 71 59 42 27 5 2 0 0 0 0 0 0 0 1 0 28 70 83 91 99 104 105 102 94 92 84 46 57 62 42 9 0 0 0 0 0 0 0 0 3 35 69 90 98 98 94 97 103 99 95 96 96 84 77 65 31 24 48 80 91 72 50 45 48 62 75 84 93 102 107 101 99 102 100 106 97 84 85 81 80 74 71 81 49 0 1 2 5 5 1 0 1 3 0 10 38 78 104 112 93 78 90 97 96 62 3 17 15 1 0 0 0 15 29 28 2 5 21 31 36 37 34 43 70 83 46 3 0 1 3 6 10 17 24 25 17 18 25 23 20 18 20 25 26 21 21 22 45 84 98 103 106 95 84 73 62 38 11 0 0 0 0 8 24 26 25 26 25 19 38 66 80  141 142 144 141 138 132 126 122 113 111 115 123 131 135 132 132 132 129 126 123 121 117 119 119 119 121 120 120 123 123 122 123 123 112 96 89 91 98 103 107 115 122 123 118 113 109 103 99 100 107 116 121 126 130 129 125 119 115 114 118 111 102 99 107 119 129 132 132 134 136 139 138 137 139 142 141 139 139 134 114 111 125 132 133 102 58 60 68 68 56 22 28 61 56 30 49 159 139 112 84 64 91 123 122 131 136 130 126 127 108 43 45 99 69 51 61 74 84 88 89 80 85 94 98 98 100 102 105 99 99 100 96 99 103 97 100 105 97 103 99 91 88 83 85 87 85 80 86 79 74 73 70 69 70 79 74 76 86 89 107 143 150 156 163 160 155 151 147 140 132 114 100 59 46 48 50 52 53 53 49 46 51 60 98 140 151 161 166 167 168 165 159 149 137 92 113 129 112 60 27 28 28 33 34 34 36 41 66 111 135 152 162 169 179 191 196 187 177 171 169 168 176 178 166 154 151 150 146 136 122 124 130 140 153 166 173 176 171 159 151 148 148 152 145 137 140 135 129 122 119 127 105 53 50 51 63 61 40 44 52 42 3 27 71 106 127 132 118 106 112 117 117 71 14 42 49 31 14 4 16 83 107 102 84 86 89 97 99 99 103 132 173 182 137 94 89 96 108 112 109 113 122 119 100 87 88 88 83 81 88 97 96 85 81 84 104 145 158 160 164 157 143 133 131 121 99 76 76 83 82 83 87 87 87 87 88 88 101 127 142 145  173 174 173 173 173 168 164 160 153 151 151 156 161 164 165 165 162 163 162 160 162 163 161 161 164 166 167 169 170 172 170 171 171 167 163 159 158 158 160 163 169 169 168 167 166 165 164 162 161 164 168 171 174 175 174 172 167 163 164 166 166 166 161 160 164 168 169 170 171 174 177 180 180 179 180 179 178 174 164 143 138 153 157 154 122 73 79 86 89 79 38 42 78 68 36 56 176 169 140 109 83 114 165 166 168 169 161 156 150 120 51 56 113 93 82 87 102 112 115 123 120 123 128 131 131 134 134 135 133 132 134 133 130 134 134 134 136 132 134 130 126 123 119 122 120 113 115 120 112 97 97 90 88 87 96 91 97 112 111 127 159 166 172 177 176 171 165 161 156 147 131 118 84 79 83 88 88 91 94 90 88 93 95 121 158 169 178 183 188 186 182 173 165 149 103 126 142 126 91 69 73 77 77 80 79 82 81 93 130 156 173 183 188 197 208 212 210 211 212 212 208 203 202 201 200 198 197 193 182 163 152 150 159 173 184 193 199 197 193 191 191 194 196 188 181 181 175 172 165 156 155 118 60 58 65 83 77 48 54 64 51 11 41 88 126 147 153 140 130 139 144 143 86 25 60 64 45 20 10 27 102 136 148 146 143 144 145 143 144 147 153 161 160 151 149 156 162 165 169 169 170 172 168 156 149 147 143 141 139 149 157 154 145 140 144 164 192 200 204 202 193 185 181 182 176 159 143 145 155 154 147 144 144 145 142 147 150 161 180 190 188 
80 76 78 74 71 69 66 60 52 44 43 47 54 58 64 62 59 62 61 53 51 49 41 38 42 43 43 42 45 44 47 54 55 56 51 21 0 1 0 5 29 51 60 56 54 46 39 34 25 23 29 36 44 55 60 64 60 55 44 31 26 6 0 0 14 43 58 57 58 59 56 60 63 60 65 64 62 62 62 65 55 38 36 33 42 44 3 16 2 4 15 8 17 46 21 6 11 85 126 91 35 10 51 65 72 71 46 38 27 26 45 8 10 2 4 0 17 32 43 42 30 28 34 42 53 44 42 37 38 33 31 31 35 36 34 29 32 24 23 20 22 20 21 14 15 11 9 18 12 8 19 37 41 25 20 29 25 29 33 17 32 89 91 80 35 23 29 32 25 32 34 36 20 3 1 0 3 5 1 2 1 0 0 1 12 33 73 84 86 89 94 91 87 88 88 83 68 46 21 6 0 0 0 0 0 0 0 1 0 16 52 64 78 88 94 97 99 86 75 79 78 74 73 60 30 5 10 42 75 87 88 80 67 60 58 62 84 93 98 109 108 96 87 97 104 94 94 95 86 80 73 68 36 0 1 0 0 2 2 0 0 8 5 0 0 11 41 63 54 61 81 99 102 82 55 90 87 43 14 20 27 30 21 9 0 1 17 30 37 41 40 33 36 67 89 51 15 19 20 9 5 5 11 13 11 12 19 24 32 31 29 32 29 33 43 53 69 94 109 115 119 122 112 94 65 28 4 0 0 0 0 3 21 29 33 29 22 14 23 52 75  145 144 143 140 135 128 123 118 114 115 118 125 128 131 132 133 133 131 128 126 122 115 117 117 116 118 119 117 118 121 125 123 120 122 111 94 90 95 97 100 106 113 120 120 116 112 108 106 107 111 112 119 124 128 130 131 126 119 118 120 110 102 101 108 119 129 130 133 135 136 140 141 139 140 140 139 138 137 138 126 104 95 103 108 88 22 27 11 15 24 19 46 81 65 27 26 112 153 122 94 85 127 125 129 134 118 111 106 111 70 23 83 83 73 58 73 85 92 95 87 89 93 98 105 98 102 98 102 94 94 100 98 94 99 97 97 94 93 92 95 91 94 90 86 86 84 87 86 81 84 95 104 92 85 91 87 88 91 79 94 137 138 134 76 55 66 68 69 97 98 100 89 59 52 61 65 69 66 66 63 63 58 57 76 107 146 152 157 158 157 152 151 150 148 147 136 122 88 42 43 46 47 45 42 45 44 44 49 86 124 133 148 167 190 202 201 187 174 166 161 163 169 168 158 151 150 150 149 149 149 147 145 140 141 146 157 154 151 154 154 148 140 144 148 142 142 142 134 128 125 119 103 76 69 62 60 62 48 39 39 58 32 16 30 60 85 99 97 104 115 122 123 104 85 125 131 106 81 75 86 99 88 85 81 81 88 96 100 101 100 98 124 168 178 132 95 113 128 125 114 104 103 102 92 87 88 93 97 93 95 100 97 98 104 113 131 155 168 173 178 180 174 158 140 114 87 71 71 80 84 84 89 89 89 89 84 81 87 115 137 143  173 175 173 172 170 165 162 158 153 150 152 158 162 164 165 162 162 164 163 161 161 160 159 160 164 166 165 166 168 169 171 172 172 171 166 160 161 161 160 159 163 167 169 169 167 166 165 164 163 164 167 170 173 175 176 175 173 169 166 167 167 167 162 161 166 166 168 170 171 175 177 180 181 181 180 178 177 175 174 160 133 123 133 141 124 42 35 16 21 33 27 53 100 82 37 31 118 170 148 118 114 171 176 171 173 162 150 145 140 81 31 102 104 100 99 110 119 126 126 123 126 129 130 138 134 134 133 134 132 131 133 134 131 134 131 131 130 130 129 130 126 126 123 122 121 119 122 119 113 109 115 113 103 102 108 104 107 113 104 114 154 154 150 93 67 77 81 83 113 114 115 109 87 85 94 101 106 102 102 102 102 98 97 106 130 162 167 172 174 173 171 167 164 161 162 150 136 107 71 82 88 87 89 91 91 90 88 89 111 141 153 167 183 202 211 210 203 199 204 203 200 200 200 197 197 198 197 194 194 195 191 182 173 171 173 188 194 196 199 199 194 189 190 193 186 185 183 176 169 159 149 122 82 66 57 55 56 50 42 47 69 38 23 45 74 100 117 115 123 136 145 151 127 110 156 157 128 95 91 110 126 118 139 142 139 142 147 145 146 144 144 147 151 155 150 148 160 167 170 169 168 167 164 157 153 153 152 151 149 154 158 157 156 157 166 179 196 205 207 212 212 206 198 187 169 148 136 135 148 154 151 146 144 145 144 143 145 153 172 188 191 
81 72 74 71 66 63 60 54 50 48 46 51 56 55 59 60 60 63 62 56 51 48 41 37 39 40 44 43 40 40 42 49 53 55 61 56 16 0 1 0 5 24 36 46 53 50 43 38 31 27 33 40 40 50 59 63 61 61 51 36 25 6 0 0 17 43 56 57 57 58 55 55 57 63 66 64 63 61 61 62 58 49 37 43 35 45 36 25 11 4 8 11 46 82 69 24 3 26 77 76 32 37 36 50 67 51 39 35 15 16 9 7 6 4 4 1 9 26 31 32 30 25 20 31 34 21 15 11 8 4 4 3 3 2 5 8 6 0 0 0 1 3 1 0 0 0 0 1 0 1 2 8 18 10 4 1 2 4 1 1 14 53 106 102 14 2 10 3 6 55 66 78 43 5 2 0 0 2 1 0 0 2 0 0 1 0 41 74 87 92 94 96 98 91 78 60 39 33 22 6 0 0 0 0 0 0 0 0 0 4 42 53 70 93 104 106 102 92 75 62 61 67 60 36 24 15 3 6 29 49 71 76 72 61 54 61 78 92 100 95 99 93 92 102 105 94 84 86 80 71 63 57 33 6 1 0 9 13 3 0 1 2 0 1 2 0 1 5 18 55 89 117 131 111 89 113 113 90 44 28 49 52 24 0 0 0 13 28 35 37 40 37 29 33 74 92 57 35 37 32 25 26 29 29 25 17 14 25 36 41 37 30 27 36 47 59 73 87 102 114 125 134 125 106 68 22 0 0 0 0 0 0 13 29 32 29 19 12 11 33 63  142 142 140 138 131 127 122 120 120 118 123 127 126 130 132 135 133 133 129 126 121 114 114 115 116 119 118 114 116 118 120 119 118 123 123 109 94 92 94 98 99 105 111 118 119 117 114 113 111 114 115 118 123 129 129 131 128 125 120 119 109 99 100 108 120 130 132 134 133 136 136 133 139 142 139 139 138 137 138 140 135 115 101 85 86 73 58 37 30 35 50 79 102 102 54 16 48 100 116 106 124 119 122 133 123 120 118 102 105 37 66 99 88 86 81 82 88 90 92 96 92 89 92 93 89 92 91 88 86 88 89 87 85 86 89 87 81 81 80 85 85 84 81 81 84 76 75 66 64 64 72 82 70 66 64 60 65 62 63 79 108 146 132 24 7 15 7 21 96 104 123 99 58 53 52 61 66 68 64 62 68 64 63 65 67 116 148 160 163 161 159 160 156 153 138 118 107 84 53 55 59 60 63 61 64 63 57 60 65 113 126 146 172 194 205 204 194 180 165 160 163 161 150 143 145 147 148 148 142 145 146 147 144 139 140 148 154 160 153 148 145 144 149 149 143 135 133 127 120 113 108 99 85 80 76 89 89 78 63 47 45 33 33 43 42 41 40 68 103 121 136 146 130 118 140 147 140 112 103 114 109 80 80 79 77 87 97 100 99 99 96 91 116 164 168 134 134 146 138 127 118 117 115 107 98 95 107 115 111 106 105 99 105 118 131 145 156 167 177 183 189 185 170 142 106 78 70 68 76 84 84 91 90 88 89 84 79 81 98 126 140  173 172 170 171 167 163 158 155 154 151 155 162 164 164 164 163 162 163 161 160 161 159 159 161 164 166 163 162 163 165 169 171 170 171 169 164 160 162 163 162 161 163 165 169 169 169 167 166 165 166 168 170 171 173 177 177 176 174 169 169 167 166 162 163 164 167 168 168 170 174 176 176 178 181 181 178 177 176 174 175 171 148 127 113 122 106 77 50 42 48 62 98 126 117 62 23 54 111 130 129 169 172 170 177 172 162 157 144 130 45 78 122 112 110 108 111 117 121 122 125 127 125 126 131 126 128 128 126 124 124 125 125 125 126 125 123 121 122 121 122 123 120 120 118 117 113 108 99 94 91 95 105 98 93 90 87 86 88 91 103 128 165 151 36 10 17 10 28 114 124 136 114 85 88 91 99 104 105 103 104 107 101 102 101 101 137 164 174 176 175 174 174 170 167 153 134 126 102 74 89 98 101 102 101 104 102 99 100 101 132 145 163 187 205 213 213 207 200 194 195 198 195 190 188 194 198 199 193 187 188 189 188 185 182 186 192 197 206 201 196 192 192 194 192 187 181 177 170 162 151 142 117 96 87 81 85 83 75 63 54 54 39 41 54 52 51 56 84 121 141 159 170 153 144 170 174 167 136 126 143 135 113 136 139 139 141 146 148 148 149 146 141 137 147 151 152 165 174 178 177 174 173 173 166 160 159 164 164 162 160 158 160 164 171 179 189 198 207 212 215 219 215 206 186 160 140 134 132 139 151 155 154 148 146 146 142 141 144 161 182 188 
77 71 70 65 63 60 55 51 49 50 49 53 57 54 56 60 62 61 61 60 52 46 40 37 38 43 47 46 39 42 43 45 50 56 58 65 51 9 0 1 0 1 11 27 42 46 44 40 35 32 36 41 41 45 55 62 60 63 56 40 24 4 0 0 19 44 60 57 55 57 53 74 113 112 97 88 81 71 63 56 55 50 37 40 41 39 51 47 37 34 31 32 31 34 43 53 18 11 15 13 38 24 34 56 54 48 36 18 11 8 6 4 2 3 0 1 5 13 14 17 20 14 16 15 18 11 11 4 0 6 16 15 13 15 13 16 7 3 2 4 10 5 5 10 9 12 8 5 3 9 2 0 1 0 0 0 0 4 8 4 4 24 65 96 29 9 11 3 28 86 105 75 28 4 0 0 0 7 4 3 7 7 1 0 5 4 20 62 87 104 104 96 83 63 35 17 31 48 27 8 0 0 0 0 0 0 0 0 1 0 17 61 62 75 97 111 116 106 87 70 63 51 22 5 4 5 4 0 3 15 38 51 55 50 39 46 66 86 107 103 93 92 96 96 87 69 63 67 64 51 44 39 30 8 1 2 12 13 6 3 1 2 3 0 0 0 1 0 9 61 106 135 144 124 103 101 99 91 69 25 32 54 35 7 0 1 12 26 35 37 39 42 40 33 47 83 95 58 40 39 41 43 43 38 33 20 17 27 32 31 24 15 14 26 33 37 44 53 69 91 115 127 124 109 72 24 0 0 0 0 0 0 4 26 30 28 23 17 5 14 48  141 139 136 132 127 126 121 122 122 121 124 126 125 128 131 132 132 133 129 123 119 114 114 114 118 120 120 115 114 115 116 117 119 122 123 117 103 90 90 95 96 98 103 111 116 119 119 116 115 115 116 117 121 127 131 131 131 132 124 121 108 98 100 110 122 134 134 133 134 132 146 177 176 156 147 141 136 132 129 128 127 123 119 115 105 100 88 86 83 81 87 68 53 58 91 56 36 31 51 129 112 123 131 126 128 122 109 108 98 72 98 90 78 71 70 69 76 80 83 86 82 84 82 85 84 85 79 77 84 87 85 86 87 86 86 82 81 79 80 80 79 81 79 81 83 78 78 76 81 70 70 69 51 47 50 50 63 69 66 63 79 114 136 53 18 19 14 54 118 133 118 76 50 48 52 58 65 63 64 64 67 58 60 64 62 84 132 154 169 171 168 151 126 85 83 103 109 85 58 47 55 57 60 64 67 67 61 64 62 85 122 126 152 184 201 205 199 185 175 168 158 143 126 122 124 136 144 148 143 139 138 141 141 135 135 140 149 159 157 148 145 146 144 137 126 123 125 121 115 109 105 101 81 73 77 88 90 83 79 71 57 45 40 34 31 30 30 52 107 136 151 154 141 135 141 144 146 128 91 107 114 88 84 81 80 88 96 99 99 98 99 96 97 128 158 170 155 147 137 130 127 126 123 116 108 110 118 121 113 106 100 94 102 111 120 127 132 144 160 175 186 186 172 140 99 75 71 70 70 78 88 94 95 92 91 89 81 78 87 112 134  169 170 168 167 161 158 156 154 153 153 156 162 165 163 164 164 164 163 163 163 162 158 159 161 163 165 164 163 162 164 166 167 167 169 171 169 164 160 163 164 163 160 160 165 169 170 168 167 166 165 168 169 169 171 175 177 177 176 173 168 166 166 163 163 164 167 168 167 171 171 182 198 196 194 189 183 177 173 169 166 168 168 163 150 131 128 116 102 105 103 104 91 75 79 99 60 43 41 70 173 172 170 177 172 170 164 152 146 124 89 123 117 113 107 109 109 113 115 117 123 123 124 122 124 124 127 124 123 124 127 129 127 127 127 128 126 122 122 123 124 120 120 120 122 121 118 108 100 103 95 93 89 74 70 73 77 84 91 92 94 104 137 155 63 22 21 16 64 139 152 130 95 80 85 91 94 100 102 102 99 100 100 100 102 101 116 151 170 184 186 182 166 140 101 101 121 127 106 92 91 100 102 103 106 108 108 105 104 100 116 144 148 168 195 212 215 211 204 196 197 193 183 177 175 179 188 197 199 191 184 183 183 184 181 184 190 195 202 203 195 192 191 189 182 175 170 168 161 151 143 134 117 96 89 84 90 95 88 85 80 66 55 54 48 42 40 41 68 124 154 171 176 163 152 162 169 168 153 116 132 138 120 138 139 138 140 145 148 149 151 147 144 144 144 141 150 172 183 184 181 177 176 173 167 162 164 168 167 165 162 158 160 165 169 175 181 185 191 202 213 218 216 207 182 154 137 134 132 134 146 155 158 154 149 146 144 139 139 152 172 185 
72 69 65 63 60 54 52 51 51 51 50 53 54 52 54 59 63 63 61 59 53 47 42 37 36 43 46 43 39 38 40 42 47 53 57 62 69 47 4 0 1 0 0 3 17 32 36 44 42 37 38 41 43 44 50 56 57 60 59 47 28 2 0 0 22 49 57 54 55 55 50 65 90 63 30 25 21 22 26 27 25 30 26 8 10 20 30 32 37 43 34 34 11 0 0 10 24 16 13 36 38 38 54 55 51 43 21 9 1 4 7 0 0 0 0 0 0 3 4 7 12 11 13 18 19 15 9 1 2 7 9 9 14 18 16 15 12 9 11 11 17 14 14 16 11 15 16 12 14 6 0 0 0 0 0 0 0 9 10 0 0 5 30 72 86 26 13 23 72 93 84 32 1 3 0 1 4 6 10 7 8 10 8 12 16 13 6 24 65 65 58 32 11 3 0 4 57 58 21 1 0 0 0 0 0 0 0 0 0 0 8 27 58 60 87 122 130 118 102 84 69 30 0 0 0 0 0 0 0 3 6 15 22 25 22 24 36 67 90 107 87 71 67 79 61 43 39 31 28 17 18 28 33 24 12 12 6 9 18 17 6 14 14 3 0 0 0 1 0 17 67 101 118 113 119 124 108 86 66 23 15 51 41 8 3 5 13 28 40 43 46 54 58 53 45 43 78 70 36 36 38 40 39 37 32 21 18 22 20 15 6 4 9 14 11 8 10 13 28 50 89 113 118 110 79 36 1 0 0 0 0 0 0 14 30 27 23 20 10 7 36  137 131 131 128 123 122 122 126 125 124 124 124 125 125 130 132 133 132 130 124 118 114 113 114 118 120 120 117 112 115 114 115 118 121 122 122 115 98 88 92 97 95 95 97 106 115 120 120 117 117 118 117 120 125 128 131 132 133 127 122 112 102 102 114 123 130 133 132 131 128 135 157 148 124 115 111 109 108 107 103 101 96 89 88 90 94 88 91 91 89 87 57 29 23 43 74 72 60 113 128 129 132 127 129 126 114 108 99 100 105 94 80 66 63 64 66 71 70 73 78 77 81 82 83 84 79 75 78 80 79 80 84 85 86 85 83 84 85 83 82 80 82 82 80 82 85 82 87 78 64 66 56 48 56 49 60 72 69 62 58 64 88 123 131 57 33 55 114 129 124 83 51 51 53 58 63 65 69 65 67 71 69 74 75 72 67 90 129 126 120 68 33 21 2 23 114 111 76 45 48 51 55 58 58 63 60 54 50 52 68 89 121 131 170 202 206 199 192 183 171 147 124 113 111 109 118 132 141 146 142 133 130 130 126 128 131 139 150 158 147 135 129 132 124 121 120 114 107 99 96 103 105 97 88 90 91 93 96 89 79 89 75 64 49 41 33 27 25 52 103 132 147 145 149 161 153 148 129 77 91 114 104 88 87 84 88 94 102 105 105 108 118 130 141 147 172 159 129 124 121 117 113 110 105 100 105 110 105 97 91 89 90 94 92 92 95 100 112 126 157 175 178 170 139 98 76 74 73 72 77 88 90 92 94 93 90 86 80 82 100 127  168 167 165 160 157 155 154 153 154 154 158 161 163 163 165 166 165 165 165 165 162 161 160 158 160 165 166 165 163 163 164 167 166 167 170 170 167 160 158 161 164 162 160 159 164 166 168 168 166 165 167 167 167 168 169 174 177 178 177 170 166 165 162 161 165 168 167 168 169 169 178 186 174 167 168 169 165 163 162 155 151 149 142 140 138 133 122 116 115 109 105 75 43 40 58 86 88 77 149 183 176 181 179 175 170 158 153 141 130 127 124 117 107 105 105 106 110 112 114 119 118 120 124 124 125 123 121 122 123 124 124 125 127 126 127 126 123 124 124 127 122 121 122 121 119 120 120 116 108 98 96 75 58 71 67 75 91 94 87 83 89 111 144 144 67 39 60 125 145 138 99 76 83 83 91 93 95 103 103 100 101 103 108 113 110 104 119 148 146 140 85 40 27 8 30 128 131 108 89 93 97 103 106 107 106 106 102 100 97 105 121 143 146 181 214 217 213 209 203 198 185 175 171 168 167 172 186 194 196 189 182 179 178 177 179 183 190 195 203 194 184 180 180 171 168 166 160 154 142 135 131 124 112 100 99 91 95 96 91 82 93 87 87 76 63 52 45 43 71 121 149 163 161 169 178 174 168 152 101 110 137 144 146 144 142 141 148 153 153 156 158 160 163 166 158 156 173 180 180 177 172 169 166 161 157 158 158 157 157 154 154 158 160 158 157 158 161 165 178 199 211 214 206 181 152 137 135 134 134 140 153 157 157 150 147 146 141 138 144 162 181 
67 62 64 65 57 52 51 49 50 50 50 48 46 49 51 54 61 63 61 58 54 45 44 39 36 39 45 47 42 35 34 39 43 46 54 59 68 70 40 1 0 0 0 0 1 8 19 36 40 38 40 40 43 45 49 49 51 54 56 49 30 3 0 4 26 47 53 51 51 49 46 43 43 49 47 38 32 24 19 12 7 3 3 0 0 0 0 0 1 7 10 15 9 1 2 3 1 20 45 54 42 41 48 54 46 31 10 0 5 10 1 0 0 0 0 0 0 1 2 3 4 8 5 4 9 4 3 5 6 5 6 5 7 9 6 5 7 7 8 6 5 6 10 13 16 14 7 8 8 6 7 12 16 13 6 3 5 10 14 10 12 6 16 27 56 53 53 66 64 59 21 2 3 0 0 1 0 0 1 0 0 0 0 2 1 0 0 3 39 58 50 2 4 5 4 5 66 38 0 4 1 0 1 3 4 4 1 1 1 4 8 5 38 63 93 117 122 122 110 90 65 21 0 1 0 0 0 0 0 1 2 1 1 5 4 2 7 26 47 73 69 47 40 40 30 20 5 0 0 0 0 12 40 31 22 6 1 12 38 18 2 14 21 3 0 2 0 0 0 0 3 15 38 38 34 50 28 18 22 16 10 25 33 18 14 20 27 41 50 53 58 65 62 49 33 16 19 34 25 25 24 26 30 25 18 12 13 15 13 6 1 4 13 14 3 1 3 3 5 17 55 92 106 103 85 51 10 0 1 1 1 0 0 2 24 29 27 23 17 7 22  132 129 128 124 124 123 125 127 123 123 122 122 124 124 127 132 132 132 130 126 120 119 114 113 115 121 122 119 115 114 114 113 114 119 123 125 124 112 93 87 93 96 93 92 96 104 111 116 118 117 118 119 121 127 127 126 129 130 128 120 108 102 106 115 123 130 132 130 128 128 126 124 127 130 126 123 116 114 114 103 96 89 80 74 61 55 58 56 58 69 79 69 53 47 39 45 87 131 139 131 128 125 132 127 118 115 93 99 108 99 89 79 73 72 72 73 74 77 74 75 80 82 82 81 80 81 80 87 89 90 89 91 88 88 88 87 88 89 86 83 84 88 91 94 90 85 82 86 82 78 85 86 93 91 87 85 85 83 80 79 68 76 88 111 111 108 124 116 110 69 54 50 44 48 52 56 55 58 61 58 59 59 64 63 59 60 62 106 126 97 9 13 15 13 25 122 90 44 56 54 60 68 75 74 74 71 67 63 69 69 73 106 137 172 200 202 200 196 187 165 128 107 106 109 108 105 112 129 140 149 143 133 127 123 122 118 121 129 141 136 124 122 121 119 115 98 90 87 84 76 95 113 104 95 78 76 92 118 86 58 85 87 60 68 64 47 37 33 27 35 36 56 58 48 65 45 61 86 68 82 99 110 96 92 98 97 103 113 114 121 135 146 151 147 136 130 124 107 102 97 95 94 89 81 82 87 88 85 84 81 84 91 90 83 77 77 81 84 95 127 158 167 165 142 105 81 75 77 84 83 86 88 84 93 93 92 90 83 79 91 117  163 162 159 157 154 155 154 154 155 156 159 160 162 162 165 166 168 168 165 164 162 162 160 159 160 162 166 167 164 162 163 164 164 164 166 167 169 166 156 156 163 164 163 159 159 161 163 167 167 165 165 165 166 167 165 167 171 177 178 174 167 167 165 163 164 164 164 166 168 169 171 169 172 174 171 169 166 164 160 156 149 144 138 131 120 113 111 108 107 110 111 102 92 87 83 85 125 172 187 182 179 177 180 175 165 159 143 137 135 125 122 119 115 113 112 114 113 117 120 123 124 124 125 126 125 126 128 129 131 134 133 133 133 132 130 131 131 129 129 127 126 129 134 136 133 128 125 125 120 117 119 118 120 119 113 108 109 115 108 106 101 109 115 134 135 127 139 136 136 95 79 82 75 81 91 91 90 93 97 95 98 99 100 101 98 100 104 132 147 112 17 15 18 16 30 137 121 88 98 101 106 115 118 115 115 114 111 109 110 112 108 131 153 185 209 213 216 213 207 191 169 163 166 167 167 167 173 182 191 195 190 183 178 177 176 176 180 180 188 186 177 174 171 169 165 154 146 136 129 121 125 128 119 109 96 88 95 110 83 65 93 97 75 87 90 76 70 62 51 53 52 68 70 68 83 61 80 111 94 105 132 156 155 153 152 152 157 163 165 169 173 177 175 175 172 167 169 169 166 163 158 154 151 148 143 143 145 145 143 143 147 154 154 149 142 140 139 139 153 180 201 207 203 186 156 139 137 137 138 139 146 154 157 155 150 149 144 138 138 152 173 
60 63 63 62 60 58 55 53 53 51 50 47 48 47 47 50 57 57 59 58 56 49 45 42 39 42 44 48 47 42 39 40 43 46 52 60 66 67 67 27 0 1 0 0 0 0 2 18 31 32 35 38 40 45 47 46 45 46 49 49 27 2 0 14 34 45 50 50 49 43 43 45 50 52 54 57 57 56 58 58 54 43 33 31 29 24 15 8 5 2 0 0 0 0 0 0 1 39 74 61 35 36 50 47 32 11 5 26 37 46 48 48 50 49 37 39 44 44 42 38 41 43 44 43 42 42 44 48 52 49 48 50 50 48 48 51 50 49 43 40 38 36 56 74 81 68 45 32 31 33 37 41 45 38 14 14 37 40 44 70 84 69 45 45 55 49 53 62 53 44 46 18 14 28 25 21 13 8 7 8 16 21 22 14 7 6 4 7 11 41 56 8 6 7 2 21 36 4 0 1 0 0 0 1 1 4 0 1 1 3 0 3 16 55 93 108 111 120 116 97 61 15 0 0 1 1 0 0 0 0 0 1 0 0 0 0 0 0 19 42 46 33 17 6 1 0 7 3 0 1 0 22 44 42 32 20 15 13 34 22 1 0 28 26 3 4 0 0 0 1 0 20 9 0 18 19 12 5 5 24 18 29 32 29 31 36 34 41 47 55 61 60 50 32 14 5 0 4 12 20 18 25 30 23 16 8 9 12 10 8 8 9 14 14 8 4 3 3 4 5 24 71 92 98 91 66 29 4 1 0 2 2 0 0 7 31 35 30 22 12 24  131 128 128 126 127 129 127 127 124 122 121 121 120 120 122 127 131 132 129 125 120 118 117 114 117 121 122 121 119 115 113 113 114 119 123 126 125 124 109 89 86 96 94 95 94 95 100 105 113 115 116 118 120 124 127 123 124 126 128 120 106 101 109 118 124 130 129 128 125 124 128 128 127 129 131 131 132 136 140 134 128 128 127 120 108 97 85 76 62 53 61 54 39 39 36 43 108 144 141 123 122 134 132 123 114 92 103 120 131 135 140 142 136 126 126 127 123 121 119 119 120 123 123 122 123 125 127 133 135 132 132 130 128 128 128 128 126 123 119 114 110 127 149 158 141 120 109 107 113 118 120 130 137 120 111 118 116 119 141 147 125 107 113 116 115 118 124 118 108 113 85 90 99 97 94 90 89 88 89 99 105 99 92 86 83 74 79 83 111 107 21 13 13 11 67 102 62 49 51 53 59 64 68 69 69 68 69 68 69 66 70 83 130 176 193 195 201 200 184 144 97 83 90 98 103 107 108 115 126 139 146 142 131 126 123 119 119 125 133 135 125 117 107 101 96 101 95 90 85 86 107 114 109 103 97 88 93 115 80 50 62 96 86 75 77 64 54 40 40 49 56 17 7 22 23 20 16 43 82 89 105 107 110 108 107 108 112 120 133 147 157 155 143 127 111 96 92 92 92 89 90 89 84 78 77 77 74 73 80 83 83 90 90 82 75 74 75 76 78 99 139 158 159 149 119 89 78 82 83 79 84 86 84 88 97 99 95 88 82 91 110  159 157 156 155 154 155 156 154 154 155 158 160 160 160 163 165 166 166 165 164 161 162 161 161 161 162 166 168 165 165 164 162 161 164 167 168 170 172 167 156 156 162 164 162 160 158 160 163 164 165 164 164 166 167 164 163 165 171 175 174 169 167 168 166 163 162 163 166 168 169 169 172 174 175 176 175 172 172 174 175 174 173 172 165 157 147 136 125 116 109 112 105 97 95 92 98 156 191 188 181 178 184 179 171 162 146 148 157 166 171 179 184 183 176 171 169 167 165 165 166 167 168 170 168 169 171 172 172 174 175 174 171 165 163 163 163 162 157 154 155 157 172 188 196 189 173 163 159 162 167 169 179 183 171 163 165 165 169 181 186 171 152 149 151 148 148 152 147 145 150 136 137 139 141 142 142 139 137 136 139 143 140 134 129 127 121 120 119 139 126 28 16 18 18 79 127 104 97 97 101 105 110 112 111 114 112 113 112 113 107 109 114 151 193 207 210 216 216 204 169 134 130 140 148 157 163 167 173 180 187 195 191 182 181 180 177 177 178 180 180 178 173 162 149 137 135 133 126 122 121 127 128 122 116 111 101 101 118 89 66 77 109 102 95 99 87 84 78 72 76 70 25 15 28 27 23 23 62 104 122 155 160 162 164 163 164 166 172 178 183 185 182 176 170 163 158 158 157 155 152 148 146 142 139 134 132 133 133 139 139 143 153 154 147 138 135 134 132 136 162 189 200 202 192 167 145 139 139 140 139 138 149 155 154 155 152 147 142 138 150 167 
51 58 58 57 57 60 60 60 58 50 47 43 45 45 44 44 53 59 60 58 59 54 45 44 43 43 46 48 49 45 43 37 40 47 52 60 68 69 66 54 12 0 1 0 0 0 0 2 13 22 30 37 40 45 47 43 41 44 42 40 19 0 0 15 42 52 49 50 48 43 44 45 46 48 52 53 50 49 50 45 46 44 44 51 56 58 57 56 59 56 49 40 32 28 32 15 53 92 82 60 44 47 45 29 13 0 1 5 10 18 30 43 50 53 51 62 71 74 72 68 66 63 63 64 62 62 63 64 68 66 63 64 67 67 66 66 65 65 62 58 55 58 80 96 101 90 66 49 46 46 44 46 36 14 12 32 45 44 42 57 82 91 69 44 45 44 51 50 40 45 65 30 20 49 46 38 29 26 22 23 43 53 54 45 29 23 25 21 25 39 53 35 19 10 26 46 50 36 28 22 17 14 13 10 8 6 7 3 2 3 1 0 6 43 89 101 107 121 118 93 33 0 1 0 1 2 9 6 5 3 0 0 0 1 0 0 0 0 5 34 32 7 0 0 0 0 12 24 7 0 12 34 42 34 18 21 19 13 29 16 3 0 0 4 4 1 5 0 0 1 0 38 74 52 21 18 22 19 10 28 40 34 31 34 36 40 40 45 49 47 46 42 31 15 4 1 0 3 12 22 24 27 31 26 21 17 13 13 10 7 13 12 15 13 9 8 4 2 5 2 6 51 81 92 94 77 43 10 0 1 2 4 1 0 0 16 37 32 22 26 46  127 127 126 129 132 133 130 128 124 122 118 118 118 118 119 124 128 128 127 125 121 118 118 117 119 123 123 123 121 118 114 114 117 119 120 124 127 124 120 110 87 87 96 99 99 93 95 99 105 110 114 118 123 124 124 122 122 123 125 117 104 100 109 121 125 125 127 124 123 124 125 125 127 129 130 130 130 129 129 129 128 132 139 143 143 141 139 143 136 127 119 110 99 102 83 116 154 147 136 128 133 134 123 113 76 52 59 69 80 92 111 122 130 130 135 142 144 141 141 141 140 141 139 139 138 141 145 146 147 141 141 140 140 141 140 137 135 133 131 127 123 139 162 170 156 132 120 112 114 117 121 127 120 110 115 118 116 113 124 140 144 124 109 110 110 117 114 110 113 130 100 104 127 124 122 119 115 115 115 132 144 144 134 121 118 112 104 108 115 124 92 61 48 85 119 116 105 97 93 87 84 81 81 81 81 80 74 70 70 69 68 80 126 175 187 191 201 199 169 109 65 63 74 82 88 94 101 107 115 125 133 139 135 121 115 114 116 126 141 129 105 93 85 85 90 104 109 103 97 105 109 108 98 90 96 88 89 106 81 77 72 64 76 79 72 67 58 55 51 55 88 98 65 32 26 29 29 26 76 108 111 107 111 114 118 127 136 144 153 155 149 137 118 100 88 81 86 89 92 93 91 94 88 81 77 75 74 73 77 81 79 85 91 83 76 74 74 77 76 84 123 149 156 152 130 101 81 85 84 80 80 82 83 81 93 106 102 94 94 108 114  154 152 152 153 154 155 155 153 154 155 156 158 159 160 161 163 164 166 167 165 163 162 162 163 162 164 165 167 167 165 164 162 162 164 168 169 171 170 170 167 156 158 164 165 165 161 157 159 160 160 161 162 164 164 163 162 160 164 172 172 168 166 167 170 167 162 163 164 165 167 168 169 171 170 171 172 171 170 171 171 173 177 181 184 185 184 178 177 175 172 165 159 152 148 132 162 201 194 186 182 183 182 175 165 135 114 122 126 136 149 159 170 176 178 181 186 188 188 187 188 188 188 188 187 186 185 187 187 186 186 184 184 180 177 178 177 176 172 171 171 172 185 199 206 201 186 175 168 168 170 170 177 178 170 167 168 169 169 177 188 188 173 157 150 150 153 152 150 153 169 159 159 169 172 175 176 175 171 169 177 186 191 186 177 170 165 155 154 156 154 112 73 64 105 148 153 147 143 137 131 130 129 126 127 129 127 121 116 116 114 113 114 149 198 208 208 216 216 194 140 107 109 114 124 131 139 148 157 164 175 184 190 189 181 177 176 177 180 189 176 153 131 109 98 104 122 132 129 127 129 129 125 120 109 111 102 101 115 95 96 88 84 99 104 98 89 80 83 84 89 108 109 79 37 29 32 32 36 100 143 164 167 168 171 174 178 180 184 187 185 180 175 166 157 151 149 150 152 155 151 147 147 144 140 137 135 133 134 140 140 143 151 154 149 140 136 133 132 134 149 177 193 200 196 179 155 142 140 139 139 137 142 151 153 156 155 151 146 149 160 166 
51 48 52 54 58 62 64 61 54 48 41 40 43 48 46 44 49 56 59 60 62 57 49 49 51 49 49 46 45 46 47 41 39 43 48 54 62 69 72 79 79 21 0 1 0 1 0 0 1 10 24 35 45 44 41 39 42 43 40 31 10 0 0 14 42 58 58 52 49 47 46 44 44 48 51 52 52 51 51 48 45 42 42 49 58 62 65 66 72 75 73 68 65 67 67 76 85 82 74 61 56 43 35 16 6 1 0 0 0 0 0 0 0 0 3 14 23 33 44 52 62 67 73 78 79 79 80 79 81 78 76 74 74 74 72 71 74 76 75 72 72 78 99 116 119 109 87 69 64 63 63 56 21 3 29 58 61 58 56 58 70 87 87 62 42 40 39 37 33 38 63 34 16 41 35 26 22 24 30 35 41 53 50 38 25 19 20 20 22 33 44 52 53 42 52 62 61 60 52 46 42 39 38 38 34 25 24 20 20 18 16 23 25 48 82 98 110 118 103 71 14 0 0 0 0 0 0 0 7 12 10 4 2 0 0 0 0 0 4 24 4 0 1 0 0 0 0 17 28 18 26 28 20 20 4 1 0 1 4 1 1 0 0 0 8 14 13 8 4 3 0 24 86 107 78 29 9 10 14 8 31 36 41 47 44 46 48 44 37 28 22 17 12 7 7 4 0 2 7 17 21 17 19 17 17 13 10 12 9 7 15 14 15 15 12 10 6 5 5 0 4 34 72 88 95 88 59 25 6 3 0 0 2 0 0 2 25 34 35 49 61  124 125 127 133 135 134 130 124 121 119 114 115 119 118 117 119 124 126 127 127 124 120 120 121 122 126 126 121 121 121 117 114 115 118 120 124 130 131 133 151 128 88 92 97 105 101 95 95 100 105 111 116 124 124 121 121 121 122 120 113 103 98 108 122 129 129 126 123 123 126 124 126 128 127 126 130 130 127 126 128 129 130 132 138 141 142 140 141 145 148 148 145 146 147 149 149 146 140 135 137 130 129 120 98 67 63 57 52 50 48 51 52 59 66 75 82 94 105 117 127 136 147 152 153 154 161 160 161 161 158 157 154 153 153 153 150 149 151 150 148 151 166 184 190 177 157 145 136 134 137 136 124 111 120 132 132 130 127 124 133 142 140 121 107 104 103 101 100 106 125 98 100 122 117 113 111 108 111 114 119 136 142 128 112 105 100 100 104 111 118 124 129 120 127 126 125 124 116 108 105 101 101 102 105 104 102 97 98 97 97 102 107 142 176 184 191 199 189 152 92 71 68 71 75 75 77 79 87 93 102 113 126 129 125 117 110 109 123 126 96 89 88 88 87 91 95 109 111 110 111 105 94 88 75 65 45 51 85 70 76 87 82 74 83 84 73 65 59 61 55 75 108 113 86 38 20 23 22 29 100 118 125 133 140 150 158 160 158 152 141 127 109 95 88 84 83 86 88 92 94 89 89 87 83 82 79 80 78 80 84 84 88 89 86 81 76 76 77 75 79 106 139 153 154 141 114 89 85 85 78 79 79 78 80 83 101 103 101 109 126 127  148 149 150 153 155 156 155 153 154 155 156 157 158 160 160 161 164 166 167 165 164 164 164 164 165 166 165 165 167 166 164 161 160 161 165 169 171 173 178 192 179 158 165 165 167 164 162 161 159 159 161 163 163 162 160 160 161 163 167 170 166 165 166 170 172 166 163 164 164 165 168 168 169 170 171 170 170 172 172 171 171 172 177 184 188 188 183 182 187 190 192 193 193 192 197 198 196 191 185 189 183 176 170 154 125 121 116 112 115 114 115 118 121 127 132 138 146 157 166 174 182 190 196 199 201 200 202 201 200 200 199 197 194 194 193 192 192 191 190 190 192 201 213 217 213 201 191 186 185 187 185 182 178 179 182 183 183 180 180 186 188 185 170 155 152 150 146 144 148 164 155 157 170 171 169 166 164 162 161 166 179 182 180 172 162 156 154 155 159 163 166 166 158 163 166 169 168 163 156 151 150 151 151 152 155 153 152 151 148 147 148 145 171 202 206 209 218 215 183 130 112 115 116 119 119 119 122 127 134 146 161 179 189 187 180 173 171 176 165 122 108 102 98 95 98 107 127 131 131 129 126 115 110 96 81 57 63 98 86 94 106 100 96 103 111 104 92 87 98 97 106 125 133 101 49 28 28 26 49 137 167 174 177 181 186 188 187 183 179 175 168 160 152 148 147 146 149 152 154 152 148 148 148 144 142 139 138 139 139 144 146 151 154 151 143 137 134 134 136 141 166 189 197 199 188 165 146 140 140 140 139 138 146 151 153 155 154 156 163 171 172 
57 70 65 63 60 55 59 54 45 39 33 31 37 41 41 40 42 49 56 59 63 57 53 53 55 55 54 48 46 47 46 39 40 53 64 77 90 107 119 111 94 52 3 0 16 31 15 1 0 1 14 32 46 51 44 37 39 40 37 28 4 0 0 15 45 61 61 54 50 46 44 45 49 50 51 53 56 55 57 55 54 54 56 56 61 72 75 69 68 78 78 67 62 63 77 89 76 83 79 69 55 32 9 34 68 56 48 34 22 14 8 4 0 0 0 0 0 0 0 1 7 13 22 33 48 52 60 66 73 75 77 82 83 84 82 82 83 84 84 83 86 93 111 128 133 122 103 87 77 76 74 49 9 20 59 75 77 75 73 73 74 81 90 85 63 57 56 56 55 53 67 36 6 35 33 26 22 31 44 44 52 73 76 55 33 18 13 15 20 27 38 46 51 57 61 64 60 52 44 40 39 40 37 38 37 33 28 21 21 19 21 23 27 58 89 107 111 98 68 36 18 18 25 30 34 41 40 16 2 6 5 0 18 17 0 0 0 0 19 8 0 0 0 0 0 1 0 1 15 24 22 14 15 24 7 2 0 0 0 0 1 0 0 1 13 15 23 30 19 20 8 8 62 96 99 94 64 40 28 12 20 27 34 45 43 41 37 27 22 15 9 6 11 10 5 5 1 0 5 13 16 10 9 8 10 5 2 6 3 2 6 9 12 13 10 9 4 5 4 3 4 20 62 87 95 93 76 45 17 3 3 1 0 8 4 0 5 30 54 60 63  133 133 133 135 135 131 130 123 115 113 112 114 118 118 117 117 121 124 126 125 123 119 121 123 123 126 124 121 122 120 116 117 122 129 138 142 148 156 157 167 159 114 96 106 111 110 103 98 100 103 107 113 123 123 120 120 119 121 119 109 102 100 107 119 129 133 127 124 123 123 124 125 126 127 128 129 130 130 131 134 134 138 144 150 157 160 151 142 145 150 149 145 144 145 147 148 148 139 141 135 128 118 131 154 148 139 128 112 95 83 74 67 58 52 52 50 49 58 63 72 81 88 101 113 119 124 131 139 144 149 154 157 160 163 165 164 165 165 165 165 172 184 197 202 195 178 165 154 153 155 143 119 122 144 152 153 150 147 147 147 142 144 141 120 121 124 119 119 119 128 102 94 119 116 106 101 109 116 116 122 144 160 147 124 105 93 95 101 109 116 118 124 126 127 126 122 118 109 100 100 99 99 98 103 103 101 99 99 100 102 103 112 150 179 191 195 191 170 130 96 92 93 98 101 107 104 91 92 96 98 98 122 133 124 121 113 122 132 101 89 92 92 93 93 92 97 100 109 112 107 98 90 89 77 62 48 52 65 80 62 60 74 88 96 90 89 86 78 81 68 63 90 109 110 104 82 70 58 45 87 109 123 146 158 161 160 153 141 127 112 98 93 88 85 86 88 85 87 90 91 89 85 83 83 83 80 81 80 80 82 86 88 88 88 85 79 81 82 80 82 96 130 151 152 148 126 99 85 81 78 77 75 81 84 80 87 106 118 123 132 134  160 158 156 155 154 156 154 150 148 150 152 154 155 157 158 158 159 163 166 165 165 165 164 163 165 167 168 166 164 164 161 162 164 168 177 182 191 201 204 210 204 171 163 169 168 167 167 165 164 162 163 166 167 163 159 159 161 164 167 168 166 164 163 169 173 172 167 165 166 166 167 169 171 171 170 171 171 174 175 177 179 182 184 191 198 199 192 187 189 192 193 193 191 194 198 198 199 192 190 186 181 170 179 197 195 185 171 159 147 136 131 125 119 117 117 117 117 121 127 131 136 143 152 160 167 172 180 185 190 195 198 201 203 204 204 206 207 206 205 206 208 215 220 222 220 212 205 201 200 198 190 181 184 193 198 197 197 197 195 195 191 189 184 170 169 170 166 163 164 170 157 157 174 172 167 162 160 161 160 166 183 189 182 170 162 156 154 155 159 164 168 170 170 169 169 167 162 157 153 148 147 148 149 153 154 152 152 152 152 152 154 161 189 208 209 213 215 205 172 144 139 142 143 146 150 144 133 133 138 138 139 167 185 184 184 178 177 178 131 106 108 109 108 105 108 116 121 127 129 125 119 111 110 98 77 63 66 82 92 77 80 96 108 113 116 122 119 111 113 107 96 108 126 129 123 100 81 65 65 124 152 166 177 184 186 184 178 170 164 159 154 150 150 150 150 149 149 151 154 152 150 150 149 146 145 144 144 142 141 146 149 152 156 151 145 142 140 139 141 143 156 182 193 199 195 176 153 143 142 139 139 136 141 149 153 154 162 168 171 177 178 
57 132 133 129 121 117 112 105 95 81 69 63 58 53 51 48 45 46 51 56 60 59 56 58 61 67 70 72 73 81 89 98 108 116 121 121 106 86 72 55 33 47 44 8 26 59 57 30 3 0 4 26 53 72 77 59 43 40 37 23 2 0 2 20 46 61 59 59 55 51 52 54 58 58 58 59 60 63 62 59 58 58 56 58 69 81 79 71 62 64 72 74 64 65 88 76 49 58 75 61 37 11 38 64 59 60 62 62 65 68 70 81 80 59 32 14 9 5 1 0 0 0 0 0 0 0 0 3 8 12 15 25 35 42 47 54 63 69 77 81 89 101 122 138 141 128 109 91 83 79 68 33 6 39 74 78 78 78 79 79 80 76 80 92 84 69 73 75 74 73 76 38 6 43 52 48 48 54 58 61 82 103 107 85 52 35 24 15 15 28 42 52 54 57 60 61 59 49 41 40 37 36 36 35 33 35 33 25 25 24 20 14 23 64 93 107 95 66 33 9 13 22 34 52 68 69 48 23 12 9 11 10 27 58 22 1 0 2 7 0 3 3 0 0 0 0 0 0 0 1 2 0 2 2 1 1 0 0 0 0 0 0 1 1 3 6 6 14 19 35 33 25 32 78 93 101 102 92 77 74 39 32 39 34 33 33 22 14 6 1 3 8 7 6 6 6 1 0 3 9 13 10 8 10 5 2 1 2 2 0 1 4 9 6 5 4 3 3 4 8 7 11 43 79 91 95 90 63 26 8 12 8 9 28 29 9 0 21 56 61 56  157 158 156 156 154 152 150 144 136 132 129 128 125 125 122 120 122 124 125 126 126 124 125 127 130 132 133 135 137 140 144 148 153 156 157 151 146 144 147 145 151 149 119 112 118 118 115 106 103 106 109 122 138 141 133 121 121 123 119 110 103 103 109 119 130 132 128 127 125 125 126 129 132 133 136 137 137 138 140 139 140 144 148 158 173 174 162 143 137 142 145 143 142 148 149 138 135 144 139 129 122 128 142 142 143 143 148 151 152 157 166 167 144 116 99 86 76 74 68 66 68 66 69 71 76 81 79 79 82 85 93 102 108 115 122 128 134 143 152 160 175 190 204 207 201 187 173 163 159 166 149 124 140 157 159 161 161 160 163 166 155 143 145 134 131 148 149 145 145 138 104 97 127 130 121 118 123 126 127 145 168 178 167 142 123 107 98 97 105 119 123 128 129 128 125 123 114 108 102 101 101 99 100 104 106 104 103 102 102 101 98 119 157 179 193 191 174 147 113 94 92 96 108 118 115 108 118 125 126 126 115 125 151 134 122 116 122 117 93 96 94 93 93 94 92 93 91 93 93 93 89 77 59 61 59 46 53 58 67 70 66 70 70 81 86 89 88 89 93 86 82 74 112 123 123 123 124 119 123 103 108 114 119 136 143 135 120 103 91 87 86 86 88 89 88 86 85 87 90 90 88 89 85 83 84 80 81 81 77 78 84 84 87 88 84 77 82 83 83 82 86 116 145 151 154 142 113 88 82 83 81 81 92 100 91 88 106 125 131 132 128  195 194 193 193 190 188 184 176 168 166 163 163 163 160 159 158 158 162 164 165 166 166 164 166 169 171 173 176 177 180 185 191 196 201 201 200 197 195 197 196 198 195 173 168 172 175 172 165 165 166 167 172 180 180 171 162 160 164 169 169 166 163 160 168 174 175 173 169 169 168 169 173 175 178 179 179 182 184 184 185 187 188 191 196 204 205 199 191 188 192 194 192 191 198 198 192 190 193 187 181 175 180 195 192 194 195 197 198 197 197 201 199 187 167 153 142 134 131 128 128 130 129 132 130 134 139 139 138 142 144 150 155 159 168 174 179 185 192 199 206 212 220 225 226 224 220 213 208 206 203 188 179 189 203 206 206 205 206 206 205 201 191 188 181 182 192 193 191 190 183 158 156 184 186 179 175 173 172 174 185 198 201 191 172 166 161 156 157 160 164 170 173 173 171 169 165 160 155 152 149 148 148 150 152 154 153 153 154 154 152 151 165 198 211 213 215 208 190 160 143 141 144 153 162 160 155 158 166 168 165 157 168 192 184 182 179 180 168 136 127 120 115 113 112 110 112 111 114 113 112 108 97 81 79 75 65 69 75 84 87 87 91 96 105 112 117 120 122 126 124 110 86 118 132 137 140 135 131 140 141 153 157 163 174 175 167 159 150 145 144 147 149 149 150 153 152 149 151 153 153 151 150 149 147 147 146 145 145 142 143 148 151 155 153 149 146 145 146 147 148 150 174 191 199 199 186 164 148 146 144 142 143 148 152 156 157 162 174 177 178 176 
51 81 88 99 104 107 113 124 130 132 135 134 131 132 131 127 118 118 120 116 121 129 127 127 131 132 128 128 126 122 117 107 91 74 66 54 42 33 30 26 26 34 43 26 13 35 64 74 49 15 3 20 59 94 108 96 69 49 36 17 0 0 4 24 48 63 67 69 67 64 65 63 63 64 63 63 62 62 59 57 55 53 53 59 76 85 81 70 52 48 58 63 65 85 86 62 37 48 62 41 14 39 99 70 42 40 39 43 46 53 74 97 105 95 71 47 45 40 34 28 18 15 11 6 3 1 0 0 0 0 0 0 0 0 0 0 2 5 12 19 25 36 64 72 76 74 69 66 64 65 55 27 20 50 67 65 66 68 69 71 75 70 64 77 94 82 79 82 79 79 83 40 11 60 70 70 74 72 74 86 110 130 130 108 72 51 44 30 23 29 39 50 56 59 58 59 56 47 42 38 38 33 34 33 30 32 34 30 29 27 22 17 35 71 85 92 72 40 14 6 9 25 55 67 51 27 12 10 13 17 21 4 37 73 44 22 1 0 0 9 33 35 35 36 32 23 12 9 5 1 2 8 10 8 3 0 0 0 0 0 0 2 7 9 11 14 6 16 17 13 20 24 16 31 60 68 75 80 73 62 42 26 33 34 31 32 28 16 1 0 4 11 9 6 6 5 1 0 3 8 10 12 12 8 1 2 1 0 0 0 0 1 5 3 2 4 9 11 8 10 8 6 22 65 85 97 100 78 38 13 12 16 28 36 43 37 10 9 42 56 53  143 143 146 150 149 154 154 156 156 159 159 157 157 159 158 152 150 153 153 153 156 156 155 158 158 157 157 159 156 154 153 148 142 141 138 135 133 129 130 127 129 138 129 114 109 114 121 120 113 112 120 137 154 159 148 131 121 121 115 106 100 104 109 119 132 137 140 136 134 138 136 138 139 139 141 142 140 142 144 143 144 145 145 158 169 170 163 144 133 132 135 138 149 156 145 127 137 144 133 121 126 150 133 123 125 123 125 127 130 145 169 180 171 151 136 131 126 118 112 105 99 93 88 82 78 77 75 72 72 71 73 77 80 80 83 83 86 91 93 102 109 126 132 138 138 137 137 135 136 148 141 127 139 148 150 150 151 153 154 160 159 144 137 142 135 151 163 162 163 150 108 100 147 152 150 149 147 148 157 176 194 196 182 159 144 127 112 104 101 111 121 125 127 127 124 118 109 107 102 100 100 100 102 104 103 102 104 106 106 101 101 132 164 174 180 176 160 134 104 90 97 112 117 110 111 123 129 121 118 111 93 130 158 141 133 123 117 115 118 127 124 120 120 115 109 103 101 99 95 90 90 82 78 76 71 55 56 54 61 73 74 77 76 77 79 80 85 89 87 85 86 72 84 106 112 112 117 114 117 105 103 112 115 115 120 126 108 80 70 75 82 85 87 85 87 85 85 87 88 89 89 92 88 83 81 80 80 79 78 81 82 83 86 86 86 87 87 85 84 87 86 100 134 148 153 150 127 98 84 82 85 93 102 111 113 105 96 113 131 129 122  187 190 191 193 195 200 201 199 200 200 198 198 198 197 195 192 191 193 192 192 196 195 196 195 198 199 199 200 202 203 201 197 196 194 191 191 189 184 184 183 182 183 178 170 167 171 174 171 167 167 173 183 196 199 190 175 166 168 171 171 166 161 160 166 175 179 181 180 179 178 179 183 185 187 187 187 188 187 187 187 188 189 193 200 206 205 198 187 182 183 187 188 198 203 200 187 190 191 183 176 177 198 190 182 179 179 178 179 182 192 206 214 212 201 187 182 176 171 165 158 153 149 145 141 137 134 133 136 135 133 135 138 138 142 144 144 146 150 154 158 164 172 177 182 184 185 188 187 188 189 177 175 189 197 201 202 202 204 205 207 206 193 185 186 186 196 207 206 204 193 161 159 195 201 198 196 194 193 197 207 216 214 203 182 174 171 164 163 163 165 169 172 174 171 167 165 158 153 149 149 148 149 152 152 154 153 154 155 155 154 152 173 205 209 210 211 203 183 154 141 144 154 159 157 158 164 169 167 163 156 139 171 197 185 184 183 180 174 176 178 170 164 158 153 143 131 129 127 125 124 127 118 111 98 88 71 71 69 80 92 95 96 98 101 105 110 119 122 119 125 121 103 103 119 123 124 132 137 148 144 147 157 164 166 169 168 153 139 133 138 143 144 146 148 153 151 149 150 152 151 150 150 149 147 145 144 146 145 142 141 145 149 151 152 152 151 151 150 149 151 150 164 188 197 199 194 177 156 148 148 148 149 154 159 163 161 158 170 177 175 170 
46 37 39 46 57 57 56 63 65 64 73 75 77 82 86 91 90 94 88 86 92 98 97 100 98 87 79 74 63 52 50 49 42 38 35 26 27 26 24 33 39 41 37 26 14 13 29 65 83 61 32 25 52 87 102 96 75 52 32 11 0 0 8 26 49 67 77 78 73 68 65 62 58 59 58 57 58 53 52 53 51 51 53 63 75 73 72 63 48 49 53 64 91 93 81 57 56 42 40 20 16 71 92 88 59 33 32 37 38 42 68 87 88 77 50 35 40 40 42 44 40 38 39 37 34 30 26 19 14 12 10 8 6 3 0 0 0 0 0 0 0 0 0 0 0 0 1 5 6 9 12 8 10 24 30 34 35 42 47 51 56 59 55 61 84 91 83 79 80 87 99 57 22 69 85 86 86 87 93 106 129 149 147 123 91 63 52 47 48 51 54 59 63 65 63 62 52 42 36 35 35 28 30 31 29 30 31 30 33 30 25 22 48 81 90 85 58 31 6 7 37 59 54 32 20 15 16 22 26 18 5 0 53 80 46 24 1 0 0 0 11 22 35 47 51 50 48 38 25 16 29 47 56 52 41 20 0 0 0 0 0 4 10 15 14 20 31 40 36 47 31 22 20 4 5 8 7 8 10 8 26 37 34 43 41 38 42 42 29 9 1 5 9 7 10 6 4 3 10 13 13 19 14 6 7 2 1 2 0 0 0 1 1 2 0 6 14 14 7 7 3 3 12 49 78 93 102 90 54 24 18 26 32 37 41 54 36 1 14 47 48  118 120 125 134 134 134 135 134 134 137 138 138 140 144 149 147 145 147 149 145 146 146 148 146 140 140 139 137 138 136 134 131 128 125 123 123 118 115 118 120 119 120 115 110 109 109 117 123 123 122 127 142 156 163 153 136 125 122 117 108 106 106 110 124 138 147 150 146 140 141 140 141 143 141 139 139 138 139 139 138 138 137 142 153 156 152 147 136 133 131 132 152 159 154 135 140 135 137 128 119 137 146 144 126 117 117 118 119 122 139 160 165 151 128 121 120 118 116 118 119 120 122 124 122 119 118 114 107 101 97 93 86 84 80 79 76 81 84 84 84 86 88 87 90 93 97 100 99 102 105 107 108 112 116 121 121 123 125 131 133 140 137 126 135 139 142 157 162 165 164 131 111 158 167 165 166 166 168 177 194 207 205 189 170 154 136 124 121 115 115 120 126 127 126 123 116 108 106 104 101 99 100 103 104 103 104 103 106 108 102 108 144 172 174 171 162 152 127 100 107 117 114 118 125 126 124 122 117 96 76 69 144 163 140 131 123 125 124 125 131 127 121 125 124 122 123 131 135 120 112 121 130 131 124 103 59 54 64 64 59 70 75 80 79 80 88 90 90 100 90 87 81 65 61 65 67 67 74 85 103 112 112 113 117 121 128 129 118 91 74 75 81 84 85 89 88 86 88 90 90 92 88 86 81 77 76 78 76 76 77 79 81 83 85 87 93 93 89 87 88 88 91 122 147 152 152 140 109 91 93 94 99 108 116 128 120 92 92 117 120 111  165 170 173 178 181 184 186 185 186 187 185 185 188 191 190 193 195 194 194 193 195 192 194 194 191 192 192 190 191 192 190 188 188 186 184 180 175 170 171 170 167 164 163 165 168 167 169 176 176 173 175 187 201 205 197 184 175 175 175 171 166 162 160 167 180 187 190 190 187 189 188 188 187 188 189 189 188 188 188 188 188 187 192 199 199 197 191 181 178 177 184 200 206 205 192 192 187 185 179 172 184 193 194 182 171 169 169 170 172 184 199 203 199 185 174 173 171 171 171 171 171 171 171 171 168 164 159 157 152 149 147 145 142 142 141 140 143 146 146 145 145 147 148 150 152 152 154 156 158 159 158 159 165 169 174 176 180 184 185 189 192 188 180 182 184 190 202 207 206 196 175 168 202 211 210 209 208 208 214 219 223 223 213 196 184 178 173 172 173 174 175 176 175 171 169 162 156 152 149 148 148 151 152 152 154 155 156 157 155 152 155 186 213 209 207 206 198 179 152 151 159 159 160 170 174 171 167 159 146 131 118 183 200 183 184 182 184 185 188 189 181 175 173 170 168 167 164 159 154 156 164 172 177 170 144 87 77 81 81 78 88 95 103 102 109 119 124 128 134 125 123 119 107 104 101 99 107 119 132 148 157 157 162 167 171 174 173 164 145 136 137 142 144 148 152 147 146 149 149 149 149 149 147 145 141 141 142 141 140 141 143 145 149 152 153 156 155 150 150 152 149 153 178 192 198 197 185 164 151 153 155 157 161 164 171 167 156 161 169 168 160 
35 42 39 39 44 43 37 37 33 30 32 35 32 23 25 35 31 24 18 21 26 34 37 32 31 31 30 31 30 32 29 23 22 28 29 30 41 47 50 55 57 51 48 41 30 25 23 34 60 82 73 49 39 52 67 66 50 39 29 13 0 0 11 30 52 70 74 76 72 66 62 62 57 54 54 53 55 52 50 48 48 45 51 65 67 61 59 50 50 55 58 94 95 80 66 61 57 36 25 19 42 51 71 92 91 60 37 37 41 48 72 85 81 65 41 39 43 42 40 41 40 41 42 41 40 39 41 36 34 33 34 35 36 36 36 32 26 26 24 18 15 16 18 15 7 3 0 0 0 0 0 0 0 0 0 0 0 2 5 7 11 15 18 21 30 47 46 43 48 57 67 57 36 62 79 80 83 91 102 120 140 155 149 126 99 73 59 55 58 63 73 76 78 79 78 74 65 56 49 43 37 31 32 30 29 34 34 32 33 29 31 43 65 87 97 86 50 24 14 47 61 35 22 16 18 26 33 25 7 0 0 1 68 81 47 20 0 0 9 6 0 0 5 18 35 44 49 43 39 37 50 59 55 44 29 19 9 7 9 7 2 0 2 7 11 16 27 32 28 36 32 32 35 23 6 0 0 1 12 12 20 33 46 57 54 46 47 45 52 40 18 6 6 11 15 13 11 9 13 17 18 21 18 13 10 3 1 2 1 0 0 2 5 5 3 7 12 17 7 3 3 3 1 28 68 88 101 97 71 43 30 32 34 36 40 53 51 17 0 24 35  120 118 120 123 122 121 120 116 117 118 117 115 115 117 122 121 123 125 130 131 134 137 135 127 123 123 121 119 123 120 114 110 112 112 114 119 124 126 125 127 126 123 118 114 115 117 118 119 123 127 128 136 149 154 148 135 128 126 122 114 109 112 116 128 145 152 152 147 143 138 139 140 139 136 134 136 137 135 131 132 130 132 143 147 142 138 135 133 136 138 154 158 156 140 140 142 134 132 122 129 129 136 148 145 128 116 118 119 122 141 157 156 140 123 121 122 119 116 116 115 117 121 120 119 121 123 121 120 119 120 118 115 114 116 117 112 109 108 104 102 104 105 108 104 101 98 97 95 95 101 103 104 104 107 109 107 108 107 111 108 105 110 108 111 117 113 114 120 125 137 142 128 150 161 161 165 167 173 187 199 207 207 192 175 158 138 126 126 130 130 131 138 141 137 131 124 119 113 109 102 101 102 104 105 105 108 107 104 107 110 129 160 175 176 169 153 142 124 115 118 119 127 132 128 124 120 102 81 70 63 84 164 162 141 128 118 123 130 132 134 134 123 117 118 117 118 133 145 142 139 141 137 124 110 98 80 79 85 83 69 61 56 64 76 75 82 86 82 86 88 89 90 85 72 64 65 71 79 82 90 106 124 128 124 121 125 126 133 129 113 94 81 81 88 93 89 87 89 90 90 90 88 85 78 75 74 74 78 76 78 77 79 82 84 91 96 95 91 86 83 84 80 102 138 150 154 148 123 105 104 104 105 111 119 131 134 105 82 96 106 100  155 155 155 158 159 159 160 163 165 166 167 167 169 173 175 177 177 178 180 180 181 183 183 182 181 181 180 180 178 177 174 170 167 166 167 168 168 170 168 167 166 164 164 160 162 171 173 172 176 179 179 181 192 196 191 184 179 180 179 176 170 164 165 173 187 192 194 193 189 189 187 187 187 185 185 185 184 185 183 181 180 182 188 191 191 188 180 176 175 180 201 206 207 194 191 193 186 182 174 176 177 186 192 190 179 170 168 168 173 183 196 200 193 178 172 169 169 168 167 166 166 167 169 170 169 168 167 169 167 165 164 165 165 164 165 165 164 163 159 157 158 160 163 161 159 157 154 154 155 160 160 159 161 162 164 164 165 167 166 166 166 166 164 166 166 165 172 177 179 180 179 175 196 206 207 208 211 215 219 224 225 224 218 206 194 184 178 176 180 183 186 188 185 183 179 172 166 161 155 152 152 152 153 154 156 156 156 157 155 156 174 203 215 212 207 201 195 176 161 161 161 168 172 170 168 161 150 135 126 120 127 199 201 185 183 179 179 188 193 195 193 182 173 168 166 165 163 165 168 172 176 176 173 167 157 132 128 131 127 100 81 77 90 100 107 115 121 125 126 125 127 125 122 114 107 110 117 125 129 139 154 164 170 170 170 174 176 180 174 161 149 143 141 146 151 150 148 151 150 147 147 149 145 142 136 133 136 134 135 136 138 142 146 151 155 156 153 149 148 148 146 148 166 189 196 198 192 176 162 161 164 163 163 167 174 171 159 155 160 158 150 
28 44 45 47 49 54 56 49 42 36 34 34 32 27 27 30 30 26 29 35 39 42 51 54 50 47 48 49 51 49 42 40 43 49 49 51 57 59 54 52 54 52 47 45 46 40 31 30 35 56 89 79 53 36 32 32 32 35 35 23 5 3 14 33 57 68 68 67 61 55 56 57 54 48 49 46 47 50 48 46 50 55 64 67 63 58 49 49 55 61 92 106 75 62 59 58 33 21 27 43 46 45 54 75 94 87 53 35 42 52 74 84 74 52 35 39 42 41 42 41 40 42 42 40 40 39 34 33 35 35 34 36 35 35 42 46 46 48 51 50 50 60 80 85 75 56 40 35 15 0 0 3 7 3 1 0 0 0 0 0 0 0 0 0 0 0 0 0 0 10 29 32 21 44 64 66 68 80 96 120 140 145 136 114 89 66 53 48 52 59 71 80 85 88 86 86 82 77 75 71 64 57 55 51 48 44 39 36 36 48 64 67 67 78 96 93 62 33 38 44 29 21 24 31 41 34 14 1 0 0 3 48 77 69 53 24 0 1 25 39 22 2 0 0 4 24 49 62 66 61 59 57 44 28 16 16 16 13 13 14 13 7 2 0 0 5 10 20 27 28 22 26 30 26 21 15 5 12 32 36 38 40 47 47 38 41 53 52 53 53 22 15 20 15 17 17 14 17 15 19 20 21 19 17 11 1 0 0 1 1 0 1 8 11 10 15 16 14 7 2 3 2 0 12 56 84 96 101 86 54 32 29 30 32 37 46 51 35 5 2 23  126 125 127 125 125 126 123 119 117 118 114 110 112 110 111 113 113 117 123 122 123 125 128 126 123 121 119 121 119 115 114 114 118 120 122 123 125 125 123 124 124 118 118 119 117 118 119 122 121 129 129 127 134 138 137 130 129 134 132 124 120 118 120 137 151 153 148 139 134 133 134 134 130 129 127 129 132 127 128 132 132 139 144 141 136 129 131 133 136 155 164 156 145 140 142 130 130 127 128 126 124 125 135 148 144 124 117 118 124 143 155 151 130 118 119 121 120 120 117 117 119 117 119 118 120 118 116 116 114 115 112 111 112 111 114 117 120 126 128 127 133 154 167 163 144 129 125 119 105 95 95 96 95 97 96 96 99 99 107 116 113 113 110 109 110 104 101 107 115 132 139 126 128 137 143 148 153 165 185 199 202 197 186 168 151 133 120 118 123 130 139 148 153 153 151 147 143 138 132 123 120 118 115 115 112 110 108 107 121 138 154 167 170 175 169 153 139 126 124 129 136 133 128 125 111 92 77 69 70 90 148 171 154 145 132 121 120 125 136 141 141 139 127 117 114 120 147 163 164 158 145 127 111 99 92 90 89 89 89 91 83 63 55 61 65 72 82 86 85 82 82 83 83 86 88 82 84 92 97 99 103 113 120 121 124 128 127 126 132 123 121 113 100 92 93 91 90 91 90 89 89 86 82 77 74 71 73 75 77 78 76 77 83 87 90 96 94 87 82 80 80 74 83 126 150 156 154 138 115 106 109 106 109 116 125 130 119 89 83 97 92  157 158 156 156 156 156 154 153 152 151 153 153 153 155 156 157 159 161 164 164 163 167 170 171 171 169 170 171 168 165 165 166 165 164 164 165 167 168 166 165 165 162 163 163 161 166 171 176 175 179 183 180 181 185 185 183 184 185 185 182 176 170 172 182 190 193 195 191 184 184 182 181 180 178 176 177 176 177 178 175 177 185 189 188 187 181 175 172 175 198 210 205 198 192 192 186 183 178 177 175 173 176 184 191 189 176 168 169 174 186 195 196 186 173 170 167 168 168 167 165 167 168 167 168 167 166 164 165 163 160 160 161 163 164 166 170 174 176 178 180 182 194 201 202 191 178 175 172 166 160 154 152 154 154 153 156 160 163 168 170 169 167 166 167 166 163 161 164 168 176 180 176 183 190 193 196 201 208 217 222 223 222 217 205 194 184 178 177 178 184 190 193 195 196 194 191 186 182 178 173 171 167 164 163 163 159 157 159 168 182 200 211 209 211 208 199 193 176 163 166 173 172 169 166 157 141 130 125 123 134 183 208 195 189 183 179 178 180 190 195 197 196 187 175 168 166 173 181 185 184 181 173 161 152 148 146 145 146 148 146 128 100 85 87 100 104 115 123 122 122 125 123 122 124 126 123 127 135 140 147 150 156 164 169 175 176 174 177 180 172 168 163 153 150 152 153 152 152 150 149 147 147 144 139 135 131 131 134 132 133 137 140 145 151 155 154 150 147 145 142 142 142 151 180 192 197 197 185 170 164 165 162 159 165 170 171 162 155 155 155 148 
25 35 37 39 37 41 47 52 44 38 39 36 32 31 30 34 41 41 45 50 49 52 57 63 71 70 69 71 73 67 59 50 49 50 46 45 48 52 49 48 51 52 46 43 46 47 43 41 37 33 55 81 81 58 28 16 29 45 54 43 27 24 22 40 59 59 59 57 48 50 51 52 52 51 49 48 49 53 55 55 61 68 72 65 57 46 39 49 57 90 104 86 59 53 57 40 20 28 56 57 46 42 38 50 78 93 81 51 44 58 76 78 68 45 33 37 40 41 41 40 37 38 39 38 38 36 33 32 33 35 36 40 38 33 32 33 32 33 39 43 45 56 78 87 80 63 57 51 19 1 9 31 39 34 30 22 15 12 8 6 5 6 7 4 0 0 0 6 7 13 32 10 0 11 39 49 51 62 84 110 129 128 111 89 72 52 35 28 28 36 49 62 77 87 88 89 90 90 86 86 84 80 79 76 72 68 64 68 79 84 76 59 52 70 100 106 82 50 34 26 28 32 39 44 26 3 0 1 0 19 64 60 46 47 44 26 5 4 27 49 63 40 12 3 0 0 19 61 81 72 53 43 30 17 13 12 13 15 12 14 21 19 12 10 4 0 2 6 18 27 24 27 25 22 21 17 10 15 24 33 47 61 61 46 36 30 31 44 52 59 30 12 26 24 18 24 22 16 14 15 17 18 19 17 10 4 1 1 1 1 1 4 7 14 16 19 18 14 8 5 6 6 3 8 43 78 94 104 97 67 34 21 19 20 29 38 37 39 16 0 9  117 118 121 121 119 120 123 119 117 116 115 111 111 111 115 117 116 120 123 123 121 123 129 138 136 133 135 135 128 122 118 118 120 118 118 119 121 122 120 121 122 119 117 118 117 119 121 124 125 126 128 130 130 126 126 126 137 145 145 138 132 125 129 144 150 148 140 130 129 129 129 129 128 127 125 128 132 132 132 134 141 148 143 136 126 123 126 132 152 159 163 149 141 143 133 130 128 129 128 123 120 117 120 134 151 144 125 121 128 145 151 142 122 115 116 117 117 118 116 115 117 116 117 117 117 119 117 115 113 113 113 110 108 106 106 106 108 114 118 119 126 146 158 155 142 138 138 128 111 107 111 112 110 105 100 97 95 92 91 96 101 106 108 108 109 108 109 113 118 137 122 98 105 115 120 121 131 152 177 192 190 181 170 153 136 124 114 107 108 116 127 142 154 159 162 160 160 158 155 151 148 146 143 140 133 129 136 143 153 161 162 159 167 177 173 156 142 132 132 136 131 127 120 95 73 72 77 83 109 153 156 145 145 143 133 123 123 123 128 139 142 141 141 130 116 118 148 171 171 157 133 110 98 91 89 90 89 89 89 98 98 90 88 76 65 64 67 81 87 86 84 82 84 80 82 86 96 100 102 106 115 116 111 108 111 124 133 129 128 118 116 124 121 117 108 95 92 94 94 91 90 89 85 77 74 72 72 72 76 74 80 82 84 90 94 97 94 85 79 79 77 76 81 114 144 153 157 149 126 110 106 103 100 108 115 114 114 97 81 90 93  156 157 155 155 153 153 155 154 153 153 153 154 153 154 155 157 158 158 158 160 159 161 164 171 174 174 175 177 174 168 167 167 165 163 162 162 164 164 161 162 163 163 161 162 163 164 166 173 178 178 179 182 180 179 178 179 187 193 194 189 183 178 181 189 193 192 187 181 177 175 175 175 171 171 169 171 171 176 175 177 183 187 190 188 183 175 172 175 198 209 210 201 194 195 190 184 179 178 177 172 171 171 172 183 191 188 174 169 178 190 195 191 178 168 165 165 165 165 165 166 166 167 167 167 166 164 163 163 162 160 161 160 159 158 160 160 163 167 170 172 178 191 201 203 193 187 186 183 176 165 159 158 156 154 150 148 149 150 150 151 157 162 165 166 165 165 166 168 171 182 174 161 166 172 174 179 186 196 210 219 219 215 206 194 185 179 173 171 172 176 184 190 196 202 205 204 202 200 197 194 192 189 186 185 182 179 182 191 201 207 208 203 203 211 212 203 194 175 165 170 169 167 158 148 136 128 129 133 151 193 201 190 188 188 183 181 181 177 179 188 191 195 199 190 177 172 183 193 192 187 175 162 150 142 142 142 142 143 143 144 148 145 134 115 102 98 102 117 123 124 124 123 122 123 124 129 138 142 145 151 158 154 151 155 165 171 176 177 178 170 172 175 171 164 160 154 151 150 149 150 146 146 143 137 135 133 132 131 133 137 137 141 147 153 157 154 149 147 140 137 137 138 144 171 192 199 199 192 175 161 157 155 155 160 163 163 161 154 154 157 151 
23 35 31 30 28 33 37 46 48 41 34 30 28 26 28 33 40 39 45 51 51 52 54 58 62 67 69 70 73 69 57 49 46 47 45 42 48 50 55 57 52 48 44 39 41 46 49 48 45 38 33 51 82 78 43 21 42 63 70 60 44 35 34 50 57 52 49 46 50 57 57 58 60 58 54 53 51 54 59 61 69 72 67 57 48 38 40 46 72 83 66 57 51 51 29 24 25 48 64 66 56 41 37 41 56 83 97 85 57 67 79 73 62 38 33 38 40 39 38 38 38 35 36 35 35 32 29 29 30 29 35 37 38 34 32 32 30 31 30 31 33 50 71 73 65 52 44 29 9 19 44 53 42 39 35 34 32 29 25 28 32 33 31 26 17 18 27 54 69 58 37 3 0 0 17 30 32 39 66 99 112 106 79 57 48 39 35 28 23 22 29 39 56 70 77 80 82 84 86 91 91 91 90 88 87 88 95 95 86 66 48 43 54 80 109 116 97 66 40 31 39 41 24 7 0 0 0 9 43 67 41 18 20 37 41 19 10 14 29 42 63 71 53 20 4 2 0 10 31 46 53 47 37 32 23 14 12 16 13 12 24 26 13 19 22 16 5 1 2 14 19 23 24 20 8 0 1 0 4 25 38 51 58 59 46 27 12 19 36 55 45 36 46 48 44 52 73 61 39 35 35 38 33 24 15 8 1 0 2 1 2 3 5 15 23 27 19 17 14 8 10 12 16 17 32 71 92 104 106 85 42 20 16 16 26 30 31 32 24 4 0  113 113 111 113 114 112 117 118 114 113 111 109 105 108 115 117 115 120 122 122 121 124 129 131 133 134 136 135 129 123 121 121 119 118 116 119 120 124 127 124 119 115 115 116 118 121 122 125 126 128 127 131 129 121 121 130 141 148 149 144 138 132 137 143 142 136 130 131 132 131 130 129 129 127 126 126 129 134 134 139 145 145 138 128 120 121 125 140 147 152 150 142 144 133 131 129 127 129 128 126 118 116 115 121 140 153 142 125 135 150 147 135 116 115 114 114 114 116 114 114 115 117 115 115 115 116 113 110 109 108 110 109 106 109 108 106 108 107 109 111 122 139 147 141 135 138 134 118 115 122 117 109 104 100 99 102 99 98 100 102 106 111 117 120 125 120 120 129 123 116 106 86 92 103 105 106 107 133 165 178 175 161 148 136 125 125 121 114 110 110 112 124 134 144 154 158 161 163 166 165 163 165 162 160 160 162 163 163 161 156 151 155 170 183 179 160 147 136 129 128 119 98 82 77 77 85 99 124 150 143 127 125 139 141 131 124 126 125 127 132 138 138 131 137 133 122 121 132 138 140 133 118 107 100 93 93 95 96 95 111 122 102 101 101 98 85 75 78 83 86 88 89 88 80 74 79 83 95 110 114 120 118 116 111 102 105 118 129 137 128 122 128 130 132 136 137 120 109 108 110 112 107 91 80 77 74 71 73 75 79 80 83 88 94 99 95 89 84 78 76 82 85 89 106 139 153 156 156 137 112 102 100 95 100 103 103 104 94 84 84 94  153 154 153 153 153 150 152 153 152 151 152 152 153 153 154 157 158 158 158 158 159 162 163 167 173 175 175 178 176 168 167 166 164 162 162 162 163 164 164 163 161 161 161 159 161 163 165 167 172 178 178 182 181 177 174 179 190 196 199 196 189 184 189 191 189 186 178 173 172 173 173 171 168 168 169 170 170 173 177 182 187 189 187 183 177 171 171 189 200 203 201 196 195 187 185 183 177 180 180 175 170 168 166 173 184 192 185 174 181 191 193 187 173 165 163 164 164 164 165 166 166 165 164 165 163 162 162 160 160 162 161 161 161 159 157 158 158 160 161 162 171 184 194 196 189 188 185 179 175 171 166 160 154 151 150 149 148 149 150 152 155 160 162 161 163 164 171 176 173 169 163 153 156 157 157 160 167 183 201 213 212 202 189 180 176 175 172 170 170 170 174 180 187 194 201 204 207 207 207 209 207 206 205 203 203 205 208 213 211 204 198 197 204 214 215 208 198 177 161 162 157 147 137 132 133 137 146 169 194 194 180 179 189 189 184 182 182 178 178 186 187 183 187 195 192 182 176 181 181 180 173 162 154 147 145 143 142 143 144 149 155 151 153 154 144 125 111 111 119 124 126 125 125 121 120 123 126 137 150 155 158 154 149 145 146 153 163 174 182 177 176 179 181 181 182 184 172 164 162 161 158 154 146 141 137 132 133 134 138 139 142 144 149 154 158 155 149 143 140 140 141 143 149 164 190 197 200 199 183 163 153 151 150 155 157 156 153 148 147 153 157 
15 31 28 29 28 27 31 35 38 46 37 26 26 24 27 30 37 41 44 48 48 49 51 55 60 64 70 77 77 68 56 50 47 48 41 40 48 51 61 70 76 68 53 43 46 51 52 52 51 52 42 38 48 65 65 49 57 72 73 63 41 36 45 52 50 45 40 45 57 61 61 61 59 59 56 48 46 50 56 65 69 64 60 52 39 39 47 62 63 49 36 41 51 35 17 33 41 58 62 65 69 61 52 53 58 68 86 99 85 79 83 72 55 43 45 47 46 42 43 40 38 35 36 33 32 30 28 28 29 30 35 38 38 37 39 36 36 35 33 30 29 43 62 64 55 38 21 8 10 37 59 59 52 44 34 28 24 24 29 36 37 33 30 29 26 24 34 58 82 85 64 20 0 0 6 25 27 30 64 95 100 87 57 40 34 37 40 36 34 33 35 35 41 48 52 59 62 63 65 71 74 79 79 83 94 94 86 63 43 35 45 57 74 98 118 118 107 83 61 58 55 27 4 0 2 5 23 59 58 24 2 0 18 42 38 12 11 27 39 45 57 66 72 57 35 20 5 0 0 9 61 94 92 84 85 81 79 78 78 77 78 76 74 77 78 83 78 76 71 69 64 63 70 67 56 54 57 47 45 53 55 59 62 74 73 67 62 62 63 64 65 74 76 74 71 73 78 87 78 63 58 63 57 44 25 12 7 5 3 3 1 0 3 14 21 28 22 18 16 13 19 22 23 19 26 59 86 98 104 96 61 24 9 15 26 29 27 26 23 14 1  108 110 108 108 110 106 110 112 113 113 107 106 103 107 110 115 117 120 120 120 119 121 127 130 133 134 139 139 133 127 123 120 118 115 113 116 118 129 139 137 125 117 116 120 123 124 124 128 130 130 132 131 129 126 128 134 138 146 149 141 135 134 134 134 132 128 128 131 134 134 133 129 127 126 124 123 125 130 137 144 141 139 131 121 119 124 135 143 143 134 134 143 136 131 142 130 131 130 129 129 123 121 124 124 128 142 149 140 141 152 144 127 116 116 117 117 114 115 115 115 114 113 113 114 114 113 109 107 108 110 112 110 109 110 108 108 111 110 109 109 119 135 140 134 133 133 120 117 125 131 123 114 102 98 96 96 95 96 104 110 110 110 112 115 115 117 121 132 135 122 106 87 87 98 100 102 102 129 160 168 160 142 130 126 128 130 130 129 128 122 118 118 119 123 128 136 140 139 143 146 145 149 151 157 160 161 156 152 150 150 155 166 179 190 184 166 152 143 136 123 103 90 90 93 98 110 133 140 135 121 115 128 143 141 128 126 130 129 129 134 137 140 136 131 140 137 123 113 115 145 164 156 142 141 141 140 139 140 138 138 143 137 139 138 142 141 138 133 129 127 124 129 127 124 124 125 118 116 123 129 133 135 133 131 127 130 133 134 139 144 146 145 142 144 144 146 150 144 136 134 137 134 116 91 78 75 77 80 85 88 82 85 92 97 100 96 89 87 88 87 93 96 98 105 128 150 153 155 145 118 95 87 89 96 96 96 96 88 85 83 90  150 150 151 151 150 150 149 151 155 154 151 152 153 154 156 158 156 157 157 157 157 160 163 166 169 172 178 179 176 169 165 163 163 162 163 161 162 164 170 173 170 165 163 164 166 169 172 173 175 177 181 183 182 180 179 183 191 197 199 193 189 188 188 187 184 177 173 172 174 174 173 170 171 168 169 170 171 174 180 187 189 187 183 174 169 173 184 194 197 192 190 197 192 186 189 177 179 181 181 179 175 173 173 172 179 190 192 186 187 193 192 185 174 169 167 166 165 166 165 163 163 161 160 161 158 158 159 159 160 161 160 162 162 160 160 158 157 156 157 156 164 179 188 192 191 189 183 176 176 178 173 165 156 150 147 144 146 151 155 158 159 161 161 158 157 161 170 179 181 171 159 153 152 153 149 150 155 176 197 209 202 188 176 168 169 172 171 170 170 172 172 171 174 178 182 186 190 192 193 194 195 197 198 204 207 206 206 203 199 195 197 204 215 220 216 211 202 187 174 165 150 140 138 141 147 160 177 189 188 175 171 182 192 190 183 181 184 180 180 186 187 184 179 179 191 194 184 174 174 191 206 202 194 193 189 188 185 184 185 187 189 188 185 188 191 190 185 179 173 170 172 173 171 166 167 167 162 161 166 172 175 174 174 169 168 171 178 184 185 189 192 192 193 193 193 194 195 192 186 182 180 171 159 146 139 135 136 140 142 143 144 146 153 157 158 156 150 147 145 147 147 149 152 157 181 196 200 201 190 166 149 142 143 149 152 150 147 142 139 147 156 
1 25 26 29 27 24 28 31 29 32 37 28 22 25 24 29 36 42 47 51 53 53 53 59 65 66 70 73 76 69 55 51 49 46 45 43 46 52 64 80 86 86 78 62 53 52 49 47 49 52 49 44 40 44 70 79 73 71 66 46 29 44 52 50 45 35 37 46 54 58 58 60 60 59 55 51 50 51 60 66 62 54 52 38 44 55 61 64 47 29 29 42 25 19 38 41 53 55 60 62 63 69 68 55 53 54 63 87 100 92 76 68 51 47 52 53 53 55 54 49 44 39 34 30 28 29 26 24 24 33 38 40 42 44 45 43 41 37 34 30 28 43 58 61 46 17 2 0 20 45 53 54 53 52 46 39 35 31 33 34 30 29 27 24 24 29 35 50 74 86 81 53 15 9 17 33 36 42 70 85 84 70 53 49 53 59 60 59 62 64 67 73 81 82 86 91 96 96 92 86 89 96 97 96 90 69 43 29 35 47 61 69 77 92 112 117 113 94 80 87 92 84 77 79 79 79 65 42 15 0 2 15 30 31 20 10 24 42 44 50 64 69 72 72 76 47 16 3 1 0 40 84 78 69 79 83 84 90 92 93 98 95 93 97 93 93 89 88 86 89 85 84 86 83 83 86 89 88 84 83 79 78 77 79 80 77 73 76 71 64 63 58 54 56 53 49 44 43 43 39 39 47 51 49 39 22 13 7 6 3 0 0 4 17 26 34 28 24 25 22 24 23 21 18 18 40 78 92 102 104 78 37 9 11 25 29 26 20 18 16 6  107 106 105 107 107 104 107 107 105 108 108 102 101 105 111 113 117 121 123 121 122 123 127 129 133 138 141 142 136 130 125 120 120 115 113 115 119 132 145 145 139 132 126 126 127 125 126 129 131 131 131 132 133 137 137 139 137 140 138 129 132 136 131 128 121 122 126 129 132 132 132 129 129 124 124 124 125 130 140 139 136 131 121 123 130 137 148 145 129 128 140 132 130 148 138 135 133 131 127 124 126 128 125 125 125 130 143 150 146 144 139 123 120 122 120 121 119 120 118 114 113 110 109 109 109 107 105 107 109 112 113 113 113 112 113 114 111 109 107 107 119 133 140 138 131 122 108 116 125 127 126 118 111 104 99 98 103 106 106 106 106 103 102 103 105 114 125 135 138 136 123 108 100 110 112 112 117 133 147 150 139 128 123 128 133 131 134 140 139 138 142 146 147 147 146 151 151 149 147 151 153 154 155 155 153 149 146 149 153 159 163 165 175 186 181 172 162 152 148 148 141 137 139 141 138 133 134 129 116 114 130 144 140 135 131 130 133 132 135 144 147 145 149 149 140 133 130 125 127 149 166 156 148 151 153 151 152 154 157 157 154 155 155 152 154 152 152 154 155 154 153 153 151 152 153 152 150 148 147 148 147 149 151 151 148 148 149 148 147 146 144 144 146 147 142 140 140 140 139 139 142 138 124 102 86 83 86 90 89 88 84 87 95 99 102 98 97 94 93 95 96 100 97 98 115 144 152 155 152 126 96 82 81 91 91 89 86 84 82 79 85  148 148 147 147 150 150 148 151 151 153 153 152 154 154 155 156 157 157 159 159 160 163 166 169 171 175 179 179 179 171 167 165 165 164 164 163 165 169 176 180 182 181 175 172 172 174 176 177 177 179 181 183 184 187 188 190 192 194 190 184 184 187 184 181 176 172 171 173 174 173 172 171 171 169 170 170 171 178 184 186 187 185 175 171 180 188 196 194 189 187 193 188 187 192 183 177 179 181 182 180 179 178 176 174 174 181 190 194 192 193 192 181 174 171 171 169 168 169 166 164 164 159 156 156 154 155 156 157 159 161 161 163 163 162 161 159 157 156 157 156 164 178 188 193 190 181 171 169 174 174 170 165 161 157 152 148 151 155 158 159 158 157 157 153 153 156 166 179 184 179 172 164 161 164 162 161 167 180 190 195 188 179 174 174 176 177 179 183 185 186 188 191 194 196 199 200 199 199 197 200 201 200 204 206 203 200 197 195 200 205 207 209 214 221 219 214 205 199 199 197 192 189 187 186 184 180 185 182 171 169 183 192 191 189 184 183 185 179 181 188 193 191 189 193 189 188 190 184 182 196 208 204 198 203 205 205 204 205 207 208 205 205 204 205 204 204 205 205 206 204 204 203 200 201 201 201 199 198 197 196 194 198 198 197 197 196 195 196 196 196 197 198 197 196 195 193 191 191 190 188 184 176 162 152 145 142 143 141 141 142 142 146 156 161 160 157 154 153 152 151 151 152 155 154 170 192 197 200 195 173 148 135 140 147 148 147 143 139 134 135 147 
0 28 28 27 25 25 28 30 29 28 30 34 30 23 24 28 39 48 56 60 61 60 63 71 74 74 78 79 79 78 74 67 60 55 56 51 52 54 60 75 82 87 90 90 72 52 44 43 46 51 48 44 41 42 64 86 84 71 45 14 26 55 55 45 44 50 47 49 55 57 57 58 57 56 53 52 52 59 64 61 55 50 40 54 82 78 56 36 25 27 23 16 11 28 52 49 56 57 54 49 51 59 70 65 52 47 50 64 90 100 79 60 48 48 52 51 51 53 54 55 50 49 42 37 32 29 24 25 27 33 40 43 47 48 47 47 44 40 37 33 32 49 59 52 31 3 0 3 22 33 42 48 49 50 49 50 51 43 36 28 23 21 16 15 24 37 80 95 62 62 64 64 70 67 64 71 74 76 80 82 81 78 77 85 83 82 79 76 79 77 67 67 66 56 47 41 35 31 27 33 57 75 72 60 44 34 37 42 48 45 40 34 27 42 86 109 113 100 70 37 14 19 30 44 59 83 71 28 2 6 15 20 19 7 5 17 42 61 66 65 76 83 77 63 55 35 15 5 0 13 50 59 37 26 21 20 21 21 20 25 27 20 26 29 25 24 21 23 24 25 25 26 34 35 40 41 44 46 45 45 45 45 43 43 37 33 30 31 31 26 23 20 15 19 21 24 21 17 12 14 28 39 40 38 36 24 13 8 6 3 0 3 12 27 35 42 36 32 27 27 23 21 19 15 11 29 67 88 99 106 91 53 17 19 28 28 22 20 18 16 10  106 105 103 103 107 104 107 108 104 106 110 108 106 106 108 112 119 128 131 128 128 130 134 137 140 144 145 147 147 145 139 132 128 126 122 122 124 131 139 143 144 144 144 133 127 124 124 125 127 127 127 127 133 141 144 143 135 129 119 122 135 133 128 127 133 129 128 131 131 131 131 129 127 121 122 122 130 138 137 134 130 122 129 145 149 144 136 125 127 132 131 132 148 153 133 137 137 132 124 120 123 129 129 125 122 121 127 142 149 138 131 121 118 121 118 116 117 119 119 115 116 116 111 109 105 102 104 107 107 112 115 118 116 114 115 113 112 110 107 107 121 134 143 139 123 104 100 107 111 117 121 118 113 111 111 112 114 110 102 98 93 93 96 101 111 149 176 150 140 143 140 141 142 138 142 143 142 139 141 141 139 140 145 144 145 141 140 145 143 139 140 140 138 133 130 128 128 130 128 136 146 151 149 146 144 147 149 151 150 150 145 138 147 171 176 171 162 146 130 119 118 123 128 138 153 147 133 117 120 130 135 133 127 128 135 137 137 141 143 155 160 152 137 135 131 124 124 129 144 157 155 142 137 135 131 130 131 129 129 132 132 134 135 132 133 132 130 135 138 136 134 135 138 142 143 144 142 140 143 143 143 144 144 142 140 139 138 137 136 135 132 130 133 136 136 135 132 127 128 132 136 127 111 100 91 89 90 93 89 87 86 95 103 108 109 101 100 103 99 98 97 97 93 92 102 133 151 153 155 139 104 79 81 88 88 89 88 83 81 74 77  147 146 146 146 148 148 149 150 150 153 153 154 154 155 155 155 157 160 162 162 164 167 172 176 179 182 182 184 184 181 177 174 172 172 172 171 171 172 178 183 185 186 187 182 176 174 174 175 176 177 177 177 181 187 195 196 192 185 176 178 185 184 182 177 176 174 171 173 175 176 174 171 170 171 168 167 174 182 186 186 184 175 179 192 200 198 194 182 187 190 186 188 192 192 179 178 179 178 177 177 177 180 180 176 173 174 179 191 195 189 186 177 172 171 169 168 170 169 167 168 167 164 161 157 153 152 152 153 157 161 163 162 163 162 161 161 157 155 156 157 165 179 191 193 183 167 157 159 162 164 166 164 162 161 160 159 160 160 157 156 154 149 147 148 152 175 179 181 190 191 189 191 192 188 192 194 190 189 190 189 187 189 192 194 195 190 190 194 193 188 189 189 187 185 183 183 181 181 181 188 194 199 202 199 194 195 198 201 202 200 194 187 190 210 217 214 207 197 185 175 177 180 182 189 195 187 178 169 173 185 190 188 184 186 186 187 186 188 186 193 198 195 189 188 186 183 184 188 196 203 199 191 188 189 187 185 185 186 187 188 186 186 189 188 189 187 187 187 189 189 189 189 189 190 192 191 191 192 192 192 191 193 193 192 192 191 191 192 191 190 189 190 188 188 190 187 183 182 183 185 179 170 157 151 148 145 145 144 144 143 146 152 161 166 166 162 159 157 155 153 152 152 154 153 162 186 196 199 198 182 152 135 138 144 147 145 141 136 132 129 137 
3 28 28 28 25 26 30 30 31 31 27 29 31 30 27 30 38 49 55 62 63 60 62 70 77 81 82 83 83 79 77 75 68 61 56 51 51 51 50 56 64 75 87 88 88 76 57 44 42 43 47 46 45 55 74 87 82 58 16 0 27 54 44 36 47 30 14 22 35 50 56 55 55 56 55 51 58 61 60 57 45 44 72 97 78 48 32 24 27 31 20 16 9 14 50 48 54 55 51 43 38 45 56 67 64 51 44 48 74 97 89 57 43 45 46 47 48 46 47 48 48 49 47 47 45 43 35 28 29 31 39 42 46 48 48 48 44 40 37 37 40 60 54 33 9 0 1 8 11 13 20 34 43 44 44 47 50 50 44 35 28 29 32 42 57 67 76 85 71 74 76 76 83 79 80 83 84 87 92 85 80 81 81 79 73 76 78 74 69 60 54 49 47 52 46 31 26 32 51 71 76 65 44 30 30 36 43 39 32 28 31 40 48 54 69 96 112 107 75 36 22 21 14 6 16 47 56 33 21 13 20 32 18 4 9 33 53 73 83 76 70 66 56 41 24 11 0 0 1 20 38 36 25 17 13 11 8 4 6 8 9 12 16 9 0 0 0 1 1 4 5 5 5 7 7 6 6 8 11 11 10 12 13 12 7 5 7 14 22 21 21 26 30 28 29 32 24 28 37 51 45 56 71 64 47 26 19 20 14 10 10 17 28 41 44 46 42 37 30 26 23 20 16 14 12 17 54 82 93 102 97 68 31 23 27 24 22 19 13 9 7  108 105 103 106 107 109 107 109 108 106 105 108 107 109 107 113 123 128 131 128 128 131 136 140 142 145 150 153 152 151 148 141 133 129 124 125 126 125 128 135 139 144 147 145 138 126 120 118 120 123 124 122 128 140 145 142 130 114 104 118 130 126 121 129 140 130 123 125 128 131 129 127 124 119 120 125 135 136 134 125 123 138 153 150 143 134 124 128 132 134 136 131 135 147 130 135 132 127 120 115 116 124 131 129 117 116 119 131 147 143 122 114 114 114 114 113 113 115 115 114 115 119 119 117 113 106 107 105 105 112 115 116 116 116 116 113 111 110 110 112 130 138 137 125 105 96 96 95 92 95 104 115 116 114 115 118 119 117 108 104 106 109 117 126 132 137 149 143 142 145 143 141 140 141 142 140 141 144 143 140 140 139 140 135 135 137 135 131 128 127 126 126 129 126 119 122 127 133 141 149 152 148 143 141 145 145 141 139 139 141 141 141 146 154 171 171 162 149 132 129 129 126 123 126 141 141 130 129 132 132 136 134 128 131 141 143 146 146 144 144 140 133 124 124 128 126 127 127 131 129 121 112 107 105 105 105 104 102 103 103 106 109 107 98 91 92 97 103 110 108 104 105 107 108 112 117 117 114 117 119 123 124 124 121 121 123 126 130 127 122 121 125 125 125 127 128 129 133 136 131 138 143 133 114 96 95 97 98 97 98 101 108 114 118 115 108 103 105 101 97 93 91 86 83 87 118 150 152 153 148 116 82 81 88 86 86 88 85 78 73 74  144 144 144 144 145 147 148 148 149 150 150 154 155 155 156 156 157 160 164 164 166 168 172 177 183 186 187 187 185 183 183 181 177 176 175 173 171 171 174 180 182 183 188 190 187 179 173 173 172 172 171 170 175 185 194 194 189 177 170 176 182 181 175 173 179 181 177 176 175 176 175 171 171 172 168 174 182 186 186 183 179 187 200 199 197 191 185 187 188 187 190 188 185 189 174 175 176 176 174 170 171 176 180 180 173 167 170 182 192 191 180 172 169 169 167 167 166 165 164 165 166 166 165 163 159 157 153 153 155 158 162 163 164 163 160 159 157 155 154 159 172 181 188 183 167 154 148 147 147 149 157 164 166 163 164 165 166 165 158 153 153 153 157 166 170 176 182 185 190 195 194 195 193 194 195 194 194 197 197 193 191 192 192 190 190 190 187 185 181 180 182 182 183 177 173 175 177 184 192 199 201 198 195 192 194 197 196 190 183 178 172 171 175 188 208 213 209 198 183 179 179 176 172 173 181 180 173 177 186 189 193 191 186 186 190 188 189 195 193 191 188 186 183 185 187 186 186 184 180 176 167 161 161 160 160 161 161 160 160 163 166 167 166 161 158 161 162 163 165 166 164 164 164 167 170 169 169 172 175 176 175 176 176 177 177 177 180 182 179 178 178 181 179 177 179 179 182 185 185 183 187 186 180 166 152 150 150 150 151 151 154 161 168 171 171 166 160 157 154 151 149 149 148 146 149 174 193 198 200 191 162 137 139 146 147 146 140 134 130 128 128 
8 27 24 28 28 29 31 33 34 32 31 28 26 31 34 32 37 47 55 62 65 61 63 70 77 83 87 85 84 83 74 70 71 64 53 48 48 50 48 49 51 55 69 78 84 84 79 60 46 44 48 52 62 78 87 84 71 37 2 0 26 74 59 39 43 22 4 0 0 3 10 16 25 34 40 52 63 63 56 43 57 97 102 75 42 22 20 25 18 19 15 3 0 47 52 39 44 42 41 38 29 28 41 56 63 59 45 44 63 86 93 71 38 36 36 35 37 38 40 39 44 43 44 44 47 47 48 45 41 40 37 41 47 47 45 45 45 40 36 37 48 65 70 52 14 6 8 5 6 14 24 32 42 47 54 63 69 75 79 89 94 97 103 107 108 107 107 101 95 97 94 82 77 67 65 67 62 55 52 50 46 47 50 51 48 54 61 61 61 56 60 65 71 76 78 73 78 97 97 74 50 33 30 33 35 30 31 31 34 49 67 88 90 51 44 87 113 112 88 56 64 75 73 71 69 62 29 15 13 17 48 27 4 7 25 46 63 67 68 65 52 40 23 5 0 0 3 12 22 28 27 24 22 19 17 23 26 24 26 26 22 20 17 15 5 0 0 0 0 1 7 11 7 3 0 0 0 0 0 0 1 5 11 13 10 14 15 17 18 22 38 50 52 57 75 59 42 43 69 85 58 50 60 75 86 62 30 24 23 17 18 26 35 45 46 48 48 38 35 28 22 20 15 13 12 14 37 74 90 98 101 81 45 30 28 24 20 10 6 5 7  113 110 106 108 108 110 111 112 111 110 107 105 108 113 108 115 122 125 130 130 129 133 135 142 147 149 152 155 155 151 147 141 131 127 124 124 127 126 126 127 129 133 139 144 146 139 125 116 117 120 124 127 132 141 141 136 123 102 95 108 131 132 120 123 126 121 114 112 111 112 111 114 114 113 118 130 138 135 126 129 152 157 152 138 126 124 129 126 130 132 119 119 156 143 122 123 121 118 116 112 111 114 122 127 123 116 118 130 142 149 131 111 107 109 109 108 107 108 110 109 113 115 115 118 119 117 115 111 108 110 111 114 114 117 113 112 112 110 110 124 152 162 145 105 97 97 92 91 94 101 107 115 118 119 123 129 135 139 143 142 146 149 151 155 153 151 150 148 151 150 146 143 141 141 142 141 137 138 136 132 133 134 133 133 132 135 134 129 128 126 129 130 131 130 127 133 144 150 150 150 146 142 141 140 139 139 137 134 142 153 160 157 127 129 163 173 163 153 143 148 154 156 157 158 150 126 123 126 126 147 138 131 133 138 140 142 149 149 147 141 133 127 124 120 121 127 126 111 102 98 94 93 91 90 97 100 99 102 101 97 97 95 92 85 77 66 64 66 79 88 88 84 85 86 83 86 89 89 88 92 101 105 108 106 106 110 111 114 120 126 129 124 124 135 126 122 126 145 150 133 128 134 144 147 129 111 104 104 105 105 107 114 122 122 118 113 105 103 98 91 87 83 81 80 83 105 143 153 153 151 127 94 86 87 86 85 80 82 76 74 74  142 143 144 145 146 146 148 147 147 148 150 151 155 159 155 155 157 160 162 165 166 168 173 179 185 188 190 189 188 185 183 182 180 177 175 173 172 171 172 172 173 175 181 185 189 188 179 169 165 166 165 170 178 187 192 191 183 172 166 171 185 185 170 169 173 177 178 177 176 177 175 172 171 170 173 180 186 186 181 184 197 205 202 196 189 187 188 183 186 187 181 175 194 186 171 169 168 168 168 164 162 168 174 179 176 167 169 181 191 195 184 168 163 162 161 161 162 161 160 162 163 164 165 165 166 166 164 162 160 159 159 161 162 160 158 158 156 156 158 164 177 170 175 165 156 149 144 141 143 147 156 163 168 172 174 177 181 184 187 189 192 195 197 202 203 201 201 202 204 202 199 199 196 197 198 195 195 194 193 190 189 190 190 190 190 191 188 187 187 188 190 189 186 184 183 184 194 201 201 199 196 192 195 195 191 185 175 166 167 172 177 177 157 163 201 212 210 201 192 198 203 204 205 201 189 171 172 181 185 198 192 190 189 188 191 189 190 192 193 190 185 183 178 176 178 183 177 162 150 143 144 143 143 147 150 150 151 153 154 155 155 152 150 146 138 138 138 140 142 146 148 148 145 143 142 144 144 147 147 149 153 156 158 160 159 159 161 164 169 174 177 176 176 182 176 175 178 189 191 182 182 184 190 192 180 163 159 156 157 158 160 166 171 173 172 167 161 156 153 148 144 142 140 140 140 160 190 198 200 197 173 147 143 147 147 144 141 135 128 126 126 
8 31 28 24 26 31 34 38 38 34 33 30 28 29 40 38 37 47 55 59 61 62 62 67 76 84 88 88 85 83 79 69 61 62 58 52 50 47 46 47 47 43 42 55 70 74 80 81 74 60 52 59 72 86 91 83 58 20 0 0 11 86 125 91 50 45 46 38 31 20 10 1 0 0 0 11 24 34 42 78 117 100 62 32 23 22 17 10 13 5 0 17 67 54 24 35 32 31 29 29 30 24 26 41 55 61 61 60 59 67 85 92 62 36 33 30 29 27 29 31 35 36 36 41 47 48 47 49 52 53 51 50 46 44 40 39 40 35 37 43 50 44 38 38 33 40 47 50 61 77 87 92 95 97 98 98 100 101 100 99 88 75 73 66 59 50 45 36 23 20 19 13 7 1 1 4 4 0 4 11 7 1 4 6 3 5 9 6 10 7 11 19 18 21 26 34 52 70 60 41 39 36 27 24 24 30 42 44 53 69 86 90 47 9 36 83 107 111 94 58 34 43 54 64 71 72 19 1 0 11 19 4 11 35 58 64 78 73 58 50 43 25 6 15 36 49 46 40 35 30 22 16 18 23 25 29 30 29 30 28 22 19 12 7 3 4 3 0 0 0 0 6 12 10 8 8 5 2 3 4 1 0 3 10 14 21 24 19 14 18 20 32 36 46 71 65 61 58 69 62 60 60 57 59 75 80 70 53 46 26 27 38 41 44 46 44 46 36 33 30 22 16 16 17 14 15 26 67 91 96 103 95 62 41 29 19 12 6 1 0 2  114 116 110 112 112 111 113 114 112 110 106 105 106 110 110 114 119 122 126 127 128 128 133 142 147 152 154 155 157 153 143 134 125 126 123 124 125 124 124 124 122 120 124 134 139 143 144 138 128 122 127 136 140 143 139 130 117 103 90 97 139 165 152 130 125 127 128 127 121 114 109 107 104 100 102 109 118 123 141 162 161 148 134 125 124 126 125 131 126 119 132 166 160 120 117 116 116 114 112 110 107 107 111 118 122 122 126 135 136 141 143 124 105 106 106 104 102 101 102 103 105 107 113 117 119 119 120 120 119 114 115 115 112 110 109 108 109 110 120 148 158 151 129 109 112 115 118 124 134 141 142 143 144 146 144 145 148 147 147 143 142 142 138 137 133 129 128 126 127 130 126 124 123 122 124 129 128 130 131 125 123 124 123 122 124 125 121 119 123 121 122 122 121 121 127 138 147 149 147 147 142 137 135 134 135 138 138 140 150 162 161 122 104 132 159 171 165 155 136 123 127 134 141 148 150 122 116 113 124 137 134 138 145 153 152 154 151 150 151 150 140 132 146 151 144 134 117 102 97 91 86 87 94 98 100 103 100 102 103 102 96 94 91 87 86 84 74 64 62 71 82 88 88 87 82 80 82 85 91 92 91 93 99 106 107 106 106 105 106 112 122 126 128 131 125 127 131 133 138 143 137 131 130 140 142 139 127 120 108 103 111 119 122 122 117 110 103 101 97 86 81 79 80 83 84 94 135 152 151 154 141 108 92 89 88 85 81 78 72 72 72  138 140 143 144 146 146 147 147 146 147 148 150 153 157 158 155 158 162 163 165 166 168 174 179 184 188 190 189 188 187 182 177 177 174 173 171 170 169 168 167 166 163 169 176 181 185 185 180 171 165 167 175 184 192 193 186 179 172 163 163 188 209 193 173 173 174 176 176 176 176 175 174 176 171 171 174 175 178 190 206 206 200 193 188 187 186 184 186 186 180 182 199 196 171 169 166 164 164 163 160 157 159 165 172 177 177 177 183 186 194 193 175 159 156 155 153 154 152 153 155 157 159 161 164 166 167 169 170 172 170 167 163 161 158 156 157 154 157 165 175 177 172 163 161 164 166 168 172 178 184 188 191 194 196 195 197 198 197 198 198 197 197 194 194 192 188 187 187 186 185 182 183 183 186 186 185 184 187 186 181 179 179 181 179 180 180 180 180 182 183 183 182 181 180 184 187 195 197 195 194 194 192 191 186 177 170 161 159 168 178 183 162 142 162 200 212 210 203 189 178 180 187 194 199 199 171 170 174 185 192 187 193 198 198 198 197 191 191 192 193 185 179 183 191 192 183 166 151 144 142 141 142 148 151 153 154 155 157 156 155 151 149 147 145 143 140 137 138 138 140 146 148 146 144 143 142 139 143 147 145 144 147 151 155 157 158 157 159 161 165 170 173 176 180 177 176 176 181 183 187 185 181 182 188 190 186 177 170 160 159 164 168 171 171 168 165 159 153 148 142 138 139 137 137 138 150 182 197 199 199 186 161 148 147 147 143 138 132 127 125 127 
3 33 35 31 25 30 35 39 39 40 38 30 28 30 34 37 43 47 46 49 50 54 59 65 72 79 81 84 81 78 77 61 47 46 48 47 44 41 40 39 42 38 30 31 47 62 72 81 85 83 80 79 83 90 85 66 40 23 2 0 0 50 121 130 91 54 52 56 55 56 51 43 43 34 14 1 0 18 91 123 91 55 23 12 20 15 11 8 3 2 31 88 77 9 10 31 28 29 28 28 29 29 24 26 39 53 62 70 60 49 62 88 86 48 33 30 30 26 22 24 26 28 28 30 31 36 37 38 45 49 53 60 61 59 55 52 57 64 74 79 79 79 76 87 97 97 95 98 96 95 93 90 86 77 69 59 50 44 41 33 22 15 9 4 4 5 8 10 10 17 22 28 30 18 5 0 13 31 42 51 49 31 21 21 20 24 20 17 18 16 12 7 1 5 6 13 34 47 48 41 31 21 17 23 30 45 60 65 76 84 95 74 34 33 42 69 99 113 98 60 26 24 32 37 44 51 22 0 1 0 0 9 36 59 79 90 95 73 59 57 52 59 94 136 140 113 74 45 32 32 27 24 23 22 27 33 30 29 28 24 21 15 4 2 0 2 8 5 1 0 0 0 2 12 14 11 9 12 17 16 9 6 2 0 0 7 13 12 17 17 9 4 16 30 45 51 65 75 70 57 57 60 58 59 61 60 64 80 95 68 52 47 43 45 45 41 43 37 28 27 23 16 14 12 11 13 18 51 87 98 104 101 79 50 28 18 13 4 0 0 1  118 120 117 113 111 113 118 116 113 112 108 105 106 109 108 112 116 115 115 117 121 124 131 138 143 149 152 150 147 144 134 123 118 120 118 120 123 121 119 120 119 115 114 122 128 136 145 146 142 136 136 140 142 142 133 122 119 109 89 89 122 154 160 145 128 127 131 133 132 129 127 127 127 117 104 97 113 149 167 158 142 128 124 127 123 125 125 123 114 129 166 168 123 107 115 111 111 111 110 107 108 106 105 111 117 124 132 132 126 127 142 139 113 103 104 100 99 99 99 99 98 101 105 105 109 112 116 118 120 121 123 124 121 117 117 121 125 132 143 153 149 142 140 145 146 145 148 149 150 148 146 147 143 141 136 136 132 129 129 124 119 117 113 113 114 113 113 115 125 129 130 130 124 119 108 122 136 137 138 131 120 115 112 116 120 120 120 122 123 121 118 116 120 124 130 142 147 148 146 139 132 131 133 132 136 142 144 151 154 163 146 124 129 130 149 167 167 156 136 112 107 116 122 124 128 121 118 121 124 128 135 145 153 161 168 167 146 144 149 154 164 185 208 206 181 148 116 102 101 94 91 90 95 99 101 104 103 103 100 100 93 89 83 84 84 86 88 79 70 61 63 80 88 88 86 82 85 90 92 98 98 94 91 94 100 105 105 108 105 104 102 111 126 130 126 129 136 134 132 134 135 135 136 132 131 133 144 149 129 117 116 115 118 118 112 107 101 94 91 84 79 79 81 85 86 86 118 151 152 156 150 126 98 89 90 85 80 74 70 70 70  138 138 140 144 147 147 147 147 146 146 148 152 153 155 157 158 157 158 158 160 163 165 170 175 179 184 185 184 183 181 175 169 166 165 165 164 163 162 162 161 160 157 157 165 172 177 183 187 183 175 176 182 189 193 186 176 177 176 163 159 177 199 204 189 175 172 176 178 176 176 177 179 184 182 176 170 172 196 211 205 196 188 183 188 184 182 186 182 172 178 199 205 177 163 167 164 164 163 161 159 156 155 156 163 171 178 184 184 181 184 192 189 169 155 152 149 148 148 148 148 150 151 152 155 156 159 164 167 169 173 175 173 168 165 165 166 172 180 188 192 191 189 191 194 196 194 197 199 197 196 195 195 195 195 190 188 188 188 186 183 181 178 176 174 173 170 171 175 180 182 181 179 175 173 168 176 189 191 190 184 173 163 165 166 169 173 175 177 178 178 175 175 177 178 183 188 192 191 191 190 188 183 178 170 166 166 164 167 173 182 178 162 159 165 194 211 210 205 190 169 161 169 175 180 184 173 174 182 186 189 192 198 202 206 209 207 187 184 188 192 199 211 222 224 212 191 170 157 151 148 146 144 147 151 155 155 156 155 154 153 149 147 144 141 143 145 145 142 140 139 139 144 146 145 144 145 146 147 151 154 152 148 149 148 154 157 157 161 159 159 157 163 171 175 176 178 180 179 180 182 182 186 185 183 181 183 192 193 181 170 167 168 168 166 162 164 157 148 143 138 134 133 135 137 137 143 171 194 198 199 196 173 153 148 146 143 138 131 129 129 129 
5 36 40 37 31 33 37 43 44 44 37 31 29 30 32 36 43 56 50 45 47 51 56 60 67 71 74 77 75 74 70 54 41 41 37 40 40 39 37 37 40 37 30 26 34 40 48 64 75 83 95 99 99 88 66 46 36 33 12 0 0 8 57 73 80 70 48 50 53 51 56 64 69 66 47 33 65 117 114 79 43 27 20 14 7 7 4 8 23 23 37 71 25 0 7 28 26 26 25 27 22 24 23 27 30 41 58 66 65 49 36 68 97 73 36 26 24 19 17 18 19 23 21 27 32 41 47 51 63 70 75 84 94 100 101 99 98 102 101 93 93 95 92 88 87 75 63 61 54 48 38 34 33 26 22 16 7 5 7 10 18 23 26 29 33 39 37 37 36 29 10 28 58 54 31 17 30 37 39 56 65 54 41 43 43 47 44 39 41 35 34 37 45 56 59 57 47 35 34 18 6 17 34 48 61 67 75 83 90 81 92 77 56 31 24 53 89 111 102 65 31 25 32 40 44 40 18 0 1 0 0 14 37 52 67 81 93 60 48 69 69 118 177 172 150 119 89 60 40 43 49 46 41 35 32 31 29 26 25 20 15 5 0 1 1 0 2 8 11 5 0 0 0 1 8 15 17 20 23 25 21 15 11 4 3 0 0 6 12 12 10 3 12 17 18 34 66 71 67 69 65 56 47 46 45 54 59 61 84 84 74 69 51 36 38 39 41 39 31 28 27 17 9 8 14 13 13 35 78 93 98 104 92 60 28 18 12 3 1 0 0  119 119 115 111 111 116 120 118 113 111 109 107 108 108 106 108 117 116 113 114 121 125 130 138 142 147 150 147 145 139 126 116 116 116 115 118 118 117 119 118 119 115 111 114 117 119 128 138 141 146 149 150 144 133 124 123 128 117 98 87 105 122 129 136 137 127 128 131 128 131 134 138 137 130 125 136 162 166 153 134 123 128 131 125 128 127 117 115 112 126 156 134 106 106 111 110 109 108 109 108 106 104 106 107 110 121 132 132 122 110 125 146 130 105 101 98 94 95 95 96 98 99 103 107 110 114 118 122 124 130 138 143 145 147 146 146 149 150 148 148 148 149 149 147 141 140 139 138 134 129 124 124 121 117 111 101 101 105 103 109 112 112 111 114 116 116 116 118 119 108 116 140 137 129 125 128 126 121 131 132 120 113 114 120 124 125 123 122 116 113 116 120 130 133 137 145 144 142 134 128 131 136 139 141 143 147 154 158 150 160 144 142 121 114 139 161 168 159 141 115 102 104 114 120 123 121 124 126 125 128 133 137 143 149 156 165 140 135 151 166 197 220 216 210 194 165 135 112 111 115 113 108 102 100 100 100 99 100 96 93 88 86 83 85 84 85 85 89 88 79 64 63 74 84 89 89 90 93 97 98 96 98 95 97 97 100 100 104 107 105 103 106 108 111 122 138 134 127 131 130 126 125 129 130 133 131 129 142 139 136 131 115 104 106 104 103 101 92 90 84 78 78 77 83 87 85 104 146 156 155 157 140 109 89 88 84 78 77 75 75 75  139 141 141 146 147 147 147 148 148 148 148 150 154 155 155 157 160 158 156 157 161 163 167 172 176 179 182 180 178 176 168 161 159 158 160 159 160 160 158 159 159 157 155 158 162 168 176 181 183 185 189 191 193 189 177 174 182 177 165 159 168 179 182 188 185 172 174 177 176 178 181 184 187 186 180 188 207 211 201 189 183 188 188 185 185 184 177 167 160 168 193 182 164 162 163 163 162 161 159 157 155 155 155 158 166 176 183 186 179 170 180 193 182 160 150 148 145 144 142 143 143 145 148 150 152 157 161 169 174 179 185 190 192 192 193 193 196 198 198 198 197 197 198 197 193 191 191 190 188 185 184 183 182 179 173 170 166 168 171 171 170 167 167 165 164 163 163 168 173 168 169 176 175 170 169 170 177 180 183 183 171 157 158 164 167 171 171 171 169 166 167 172 179 182 185 190 190 189 187 183 183 180 174 171 169 172 175 172 168 180 177 170 159 162 185 205 212 209 193 169 155 159 164 170 175 177 183 187 187 187 190 192 197 201 205 207 184 180 189 199 219 231 228 225 217 201 182 167 164 164 163 158 156 155 156 154 154 151 150 148 146 143 142 142 141 144 146 146 143 144 143 141 142 145 145 147 151 151 153 155 154 150 150 149 150 151 153 156 158 158 159 158 159 164 174 185 180 175 178 180 179 177 180 182 184 183 183 190 189 185 182 170 159 157 154 161 156 146 138 134 131 131 133 134 138 138 159 189 198 199 200 186 161 149 146 141 138 132 130 132 132 
3 38 44 40 34 31 37 43 42 41 42 35 34 32 34 38 44 53 58 49 51 54 54 56 65 71 74 76 76 72 66 55 43 40 37 37 40 41 34 33 34 36 32 26 32 35 30 37 56 80 93 100 94 73 51 39 37 29 31 10 0 0 14 27 39 63 53 50 55 56 64 65 58 49 64 108 131 106 66 37 28 25 17 10 4 2 0 9 25 41 48 53 31 0 3 22 23 24 25 26 23 25 29 30 35 40 40 48 55 55 42 49 86 95 58 31 33 40 47 52 59 65 72 83 89 93 96 97 99 95 94 91 90 90 86 80 73 68 66 65 62 61 52 48 38 27 24 25 21 17 8 1 1 0 0 0 0 0 0 0 2 11 17 24 30 39 42 41 37 14 0 9 51 69 49 34 43 24 22 43 50 47 40 46 44 45 45 49 59 68 80 87 83 70 53 49 30 7 3 0 22 51 56 51 43 35 33 46 68 66 80 76 65 28 19 42 78 104 104 73 35 28 37 50 48 32 13 0 0 0 3 11 24 32 40 45 74 61 40 71 74 135 164 148 136 116 92 68 52 48 58 63 66 65 59 52 46 38 27 19 13 6 1 0 0 1 1 2 9 14 9 2 0 0 0 6 20 25 26 28 22 19 16 11 7 4 2 2 0 5 9 5 10 14 18 39 41 43 55 63 60 61 61 45 40 40 47 54 57 72 62 62 73 51 33 27 36 45 31 21 19 12 11 10 10 10 5 17 66 93 99 104 99 68 32 13 7 2 1 0 0  119 122 118 113 110 114 119 118 116 116 111 107 107 107 105 107 114 119 116 117 122 126 129 136 139 146 148 148 143 135 125 117 116 111 111 116 118 114 114 113 114 113 110 111 112 109 114 125 136 144 148 147 138 126 123 127 124 120 112 94 99 115 125 131 139 132 128 129 132 137 140 136 128 133 157 169 162 143 129 127 126 127 130 129 116 104 103 111 122 135 153 126 96 105 109 105 107 108 105 103 101 105 105 109 113 116 120 127 128 117 113 135 144 118 108 107 109 116 120 125 127 129 136 140 143 145 145 146 146 146 146 146 147 146 142 138 134 136 139 135 134 135 131 124 120 121 119 113 105 98 90 92 90 90 87 80 81 81 75 75 80 85 91 97 102 106 111 117 109 92 101 129 150 135 129 135 113 106 121 126 121 116 120 124 126 125 127 131 134 136 139 137 133 133 137 136 135 128 118 129 138 135 127 121 115 114 126 141 144 155 142 140 112 110 131 155 166 160 147 123 103 106 121 124 125 129 129 124 121 121 118 123 128 132 136 155 141 130 155 165 199 208 204 201 190 170 145 123 120 130 136 136 133 125 118 111 105 98 94 90 85 83 82 84 86 89 85 87 91 91 82 71 65 66 79 93 94 95 103 103 100 100 95 94 95 100 99 95 101 103 103 106 104 108 115 118 127 132 128 123 127 128 121 122 127 134 132 127 135 131 131 136 115 96 91 97 105 90 85 81 76 79 79 80 81 79 88 133 158 155 159 151 119 94 87 84 80 79 77 78 77  140 142 144 147 147 148 151 151 151 150 149 150 152 154 155 155 158 159 159 159 161 162 165 172 176 179 181 180 178 173 167 159 157 160 160 159 161 158 157 158 159 157 155 158 159 159 164 172 180 187 194 195 190 182 176 180 179 175 172 163 165 177 183 187 192 180 173 176 180 185 186 185 183 185 201 212 208 196 185 183 186 186 185 186 180 167 162 161 166 178 193 178 162 165 163 162 159 159 158 157 155 155 156 159 165 172 179 182 179 169 168 184 189 173 158 157 158 162 164 167 171 175 181 185 185 189 190 193 192 194 196 197 196 195 192 191 189 189 189 190 190 189 186 183 178 177 176 175 171 164 158 157 156 154 154 152 150 148 147 147 151 151 154 156 157 161 162 166 165 158 154 170 181 172 167 166 162 171 174 177 170 161 161 165 170 174 176 176 178 182 182 183 183 183 185 186 184 184 178 178 178 175 170 164 159 158 164 169 164 177 175 171 158 164 177 198 210 208 196 175 155 156 165 172 177 185 189 187 183 181 181 182 183 187 191 202 186 176 196 206 224 226 223 222 216 204 189 178 174 176 179 180 179 174 172 167 160 155 149 144 142 139 139 141 141 143 144 145 147 148 148 146 140 140 146 149 151 152 156 157 155 152 150 149 147 148 150 150 153 156 158 161 159 161 167 169 173 177 175 175 178 178 174 174 178 183 182 181 187 184 182 183 171 154 146 156 158 146 135 132 130 130 132 132 134 133 147 182 197 199 202 194 169 151 144 139 135 131 131 132 133 
1 39 43 41 39 34 32 40 40 39 40 34 32 30 35 38 47 52 51 55 53 52 53 57 65 68 68 72 71 67 61 53 44 40 40 37 37 42 37 29 30 29 29 29 29 35 33 31 47 77 94 89 74 62 53 53 48 45 51 38 4 0 4 7 4 21 51 55 55 60 61 54 51 88 133 128 91 55 42 35 19 12 8 1 0 0 4 30 76 106 79 59 40 0 0 18 25 22 23 25 27 28 27 36 51 52 44 48 59 72 84 83 89 106 103 93 92 96 94 96 99 99 94 96 94 87 83 86 78 68 61 51 46 46 43 34 29 22 14 11 7 6 3 5 13 19 16 13 7 4 4 6 5 6 9 12 12 8 6 2 0 0 0 0 0 0 1 7 7 5 1 9 28 50 55 33 28 17 2 15 24 36 40 45 52 67 80 91 93 81 73 58 42 33 30 38 26 1 0 0 27 33 17 10 5 7 10 18 35 52 75 74 66 39 25 37 69 99 103 83 48 36 43 41 30 18 3 0 0 0 12 28 39 38 34 25 52 57 35 55 33 111 130 116 109 94 81 64 48 42 53 70 85 89 88 84 75 67 56 46 41 30 19 11 5 2 0 1 5 6 11 15 9 2 0 0 2 16 23 25 18 17 13 11 11 9 9 10 7 1 0 0 2 5 17 18 11 14 25 39 48 56 69 58 48 40 29 37 57 59 57 45 68 70 53 38 37 47 33 16 14 8 9 9 5 8 6 10 53 91 100 106 104 82 45 13 2 0 0 0 0  117 121 119 114 111 112 117 118 118 119 111 107 105 106 106 112 116 115 117 121 121 125 129 134 138 142 145 145 139 130 122 118 115 113 112 114 119 116 112 113 112 108 110 111 113 111 112 121 132 144 142 135 132 128 129 126 122 129 130 117 113 123 125 121 123 129 129 130 135 136 131 129 146 168 169 153 137 130 130 128 124 125 125 113 100 100 112 136 156 156 158 135 102 111 111 102 103 106 105 105 105 105 111 123 127 127 125 132 137 141 136 138 150 148 144 145 146 148 146 146 148 148 145 144 143 140 140 138 133 131 127 124 127 125 119 116 117 117 115 114 109 104 103 106 107 102 95 88 77 75 81 81 82 85 90 92 92 93 91 85 77 73 73 73 71 72 78 86 90 87 96 105 126 132 112 114 109 99 109 116 120 119 119 128 137 144 146 144 138 136 137 137 136 138 139 133 128 117 108 116 110 102 96 97 98 99 102 110 132 154 135 134 120 108 120 146 163 160 151 132 114 113 119 124 129 128 124 116 109 113 116 123 125 123 126 146 138 127 146 138 180 188 190 184 168 155 140 124 121 128 142 153 157 156 153 144 135 125 115 106 101 97 87 82 81 86 86 85 88 93 91 87 82 68 62 76 90 98 104 103 101 98 94 95 93 94 98 99 98 97 99 102 102 107 107 106 105 111 128 127 127 130 123 122 120 119 126 136 131 130 127 138 135 121 105 97 108 95 84 79 78 83 83 81 79 79 84 120 155 157 158 157 135 103 84 80 76 73 74 74 77  140 143 144 146 148 150 152 152 151 151 150 150 151 154 153 154 155 156 159 161 162 163 168 173 177 179 180 179 176 172 167 161 158 159 160 159 159 157 156 154 156 157 157 156 160 159 159 164 177 193 195 191 186 181 184 182 175 177 183 174 174 183 187 186 185 183 178 180 184 186 185 183 192 208 213 203 191 186 187 184 183 186 183 171 161 164 173 187 201 203 198 184 167 171 166 159 158 156 156 156 154 153 157 167 175 179 179 180 182 186 186 188 194 194 194 192 192 195 195 196 197 197 197 197 196 193 192 191 189 188 186 183 183 180 175 176 176 178 178 175 174 172 166 165 165 161 157 151 142 136 134 136 138 141 143 146 149 150 152 152 150 148 147 148 145 144 150 152 154 153 154 160 171 171 158 152 156 166 170 174 171 165 163 170 178 184 188 188 185 183 182 183 185 184 184 182 182 178 169 169 162 156 153 151 148 147 150 158 165 178 174 172 163 162 171 191 205 207 201 183 163 162 169 178 186 189 188 181 173 172 172 175 176 179 180 195 186 173 193 188 218 221 219 215 205 196 186 178 174 178 185 191 196 196 194 190 182 173 167 161 155 148 142 141 142 141 142 143 144 147 147 149 147 143 140 142 149 153 156 157 155 153 150 150 147 147 149 151 151 151 154 157 157 160 159 159 161 165 174 175 174 178 175 174 173 172 178 184 183 182 180 185 184 174 158 155 160 146 135 132 130 127 131 132 132 131 136 172 197 199 202 200 181 155 143 137 132 132 130 133 132 
1 38 39 42 42 37 32 35 39 37 36 30 30 31 34 35 46 52 49 51 54 57 56 58 63 67 68 68 64 61 60 56 50 40 40 37 33 36 33 28 26 20 20 28 21 20 25 37 63 82 86 71 62 54 52 62 77 87 87 80 55 37 22 0 1 0 22 64 62 58 55 70 117 145 116 77 49 38 30 16 13 5 4 29 54 68 87 94 78 51 23 43 42 5 2 10 23 21 24 29 31 35 61 93 87 87 100 101 93 94 100 94 92 92 91 91 83 79 76 73 64 54 44 36 28 22 20 23 19 13 12 14 19 30 41 38 27 10 5 10 11 2 0 3 15 15 11 8 10 11 13 15 14 11 17 26 32 32 36 34 27 22 14 5 5 3 0 0 0 0 0 0 0 1 5 9 8 7 1 1 11 35 63 83 92 94 87 72 56 40 32 33 37 40 47 48 26 1 0 0 1 0 4 14 25 33 29 29 34 40 73 80 69 50 26 27 60 91 103 93 65 38 28 23 14 3 0 0 1 0 24 50 51 51 39 25 40 48 40 54 23 86 95 83 76 61 51 47 36 24 28 51 76 89 95 96 95 93 88 81 75 64 55 47 37 31 21 14 11 9 9 19 23 17 4 0 0 0 7 16 16 16 15 19 17 14 12 12 11 9 5 1 0 0 0 1 5 6 3 7 24 36 43 49 56 53 51 37 45 49 60 68 68 73 64 58 56 52 35 18 14 12 10 9 6 6 11 10 39 90 105 107 109 96 60 25 3 0 0 0 0  115 119 119 116 114 114 118 118 117 116 109 107 104 104 104 111 113 114 115 119 124 127 130 135 140 139 142 139 134 129 124 120 114 113 112 111 113 112 109 109 110 107 108 105 105 106 113 129 139 141 133 132 130 128 132 138 143 152 159 154 150 140 121 113 112 117 134 138 136 134 136 159 176 165 145 133 128 129 124 127 126 122 122 127 134 144 148 146 142 131 143 140 114 118 108 105 106 107 108 110 112 136 166 159 147 152 153 148 146 150 146 145 147 146 142 139 138 137 133 125 123 119 112 109 106 103 103 102 100 103 106 108 117 125 133 133 127 119 117 116 106 94 90 91 92 87 85 81 75 78 80 80 83 86 89 96 100 102 106 109 107 100 94 94 92 89 85 84 81 78 76 78 76 80 84 93 95 91 98 107 121 131 137 146 148 143 136 133 133 136 141 143 140 140 135 130 126 112 100 97 92 98 104 108 112 111 111 108 116 154 137 132 123 105 112 138 159 164 157 140 120 114 120 129 130 126 121 109 95 112 120 124 122 119 117 137 135 130 145 128 158 168 176 168 148 133 126 119 113 113 124 143 156 162 165 164 162 157 149 141 134 127 117 106 99 95 89 86 87 88 91 93 95 91 74 65 72 88 102 102 100 100 100 99 96 96 97 97 102 101 98 96 97 100 104 109 104 99 102 115 126 126 121 123 126 125 118 127 130 136 137 133 136 132 128 121 116 96 81 79 79 82 82 82 82 83 81 107 154 162 161 161 149 114 88 80 77 71 69 72 75  141 144 145 147 150 152 153 152 151 151 149 149 149 151 152 153 155 156 157 160 164 164 168 172 176 177 178 177 175 171 166 162 158 157 157 159 158 155 155 154 154 155 155 154 155 156 160 170 186 195 190 186 183 181 186 188 187 194 201 197 198 193 185 184 182 177 182 187 188 185 186 201 215 208 197 186 184 186 182 182 183 179 174 175 183 194 198 196 193 184 188 184 170 177 167 162 160 160 157 156 157 166 184 194 198 203 204 197 196 200 198 196 197 196 194 192 191 191 188 184 181 177 174 171 169 164 162 161 159 160 163 166 171 176 178 181 180 180 181 177 171 163 154 153 151 146 141 137 132 131 133 133 133 138 143 145 147 149 150 153 157 156 156 156 155 152 153 154 153 150 150 150 146 146 148 151 152 157 165 171 174 178 179 184 187 187 185 184 184 185 185 186 185 183 181 181 183 174 164 157 153 152 153 152 154 157 159 159 166 182 175 173 167 157 162 183 201 206 204 192 172 168 179 188 190 188 183 170 159 166 169 169 171 172 172 186 182 176 191 182 208 212 210 204 191 184 178 171 167 170 178 186 195 201 203 203 201 196 191 185 179 174 167 162 155 151 147 143 142 144 147 151 152 151 146 140 142 148 155 157 156 154 153 151 151 151 150 150 151 152 152 152 154 155 158 159 159 158 160 166 173 174 173 174 172 174 173 175 179 183 184 184 183 181 181 175 167 150 136 131 130 130 129 130 131 132 131 162 197 202 202 204 193 165 143 134 131 131 132 133 130 
0 37 39 43 39 35 31 33 37 35 32 29 30 29 33 36 42 50 50 50 52 59 65 60 59 59 61 59 56 56 62 63 55 51 53 49 52 50 42 44 43 38 38 46 58 65 75 89 103 99 84 70 65 66 83 102 114 115 118 110 96 87 56 8 0 1 1 55 90 102 122 133 136 109 69 50 36 28 17 15 15 48 97 99 87 68 45 18 3 2 14 41 59 17 10 2 4 5 10 15 22 45 108 109 56 44 56 52 47 53 66 57 50 50 52 37 23 25 27 24 19 16 18 18 20 24 23 23 29 34 41 47 47 53 66 58 25 2 13 26 20 5 0 4 11 10 13 14 11 12 13 13 16 17 24 29 32 34 38 42 37 41 36 26 20 26 30 17 0 0 4 1 0 1 1 0 0 0 0 0 2 11 36 56 58 48 40 37 35 36 38 46 50 48 40 23 6 0 0 0 1 11 23 30 36 38 37 35 31 26 53 80 74 62 34 23 53 85 104 98 72 38 16 7 1 0 1 1 1 0 21 53 52 53 39 23 41 50 37 50 25 69 77 64 52 36 27 25 25 17 15 25 47 66 79 85 87 95 96 96 94 89 84 76 69 62 56 50 44 39 34 37 31 28 25 11 1 0 0 2 9 15 16 17 16 15 15 12 13 14 14 8 3 0 0 0 1 4 3 4 7 11 22 32 47 55 63 61 53 37 38 61 77 89 84 51 51 63 49 23 10 14 11 10 6 7 12 9 32 91 112 112 111 110 80 36 8 0 0 0 0  114 117 119 118 118 117 122 119 115 111 105 106 103 104 106 110 113 113 114 119 127 129 133 135 134 133 134 132 132 130 127 122 120 120 118 119 120 117 116 117 117 117 118 123 131 136 143 152 150 141 132 132 132 139 146 156 162 176 181 175 170 149 122 113 106 104 130 147 154 163 167 170 158 137 130 129 126 125 130 130 137 149 145 143 139 135 129 123 119 124 137 149 118 121 108 99 98 102 106 107 116 156 177 149 127 129 128 125 129 133 128 123 123 126 117 108 110 109 107 105 104 105 107 108 107 105 107 113 116 117 118 117 126 151 168 148 120 117 123 116 99 88 83 85 86 85 85 82 77 77 80 81 81 83 88 94 97 97 105 108 111 112 107 105 111 120 120 97 93 101 97 88 90 89 79 75 75 77 79 85 93 102 114 117 120 126 136 139 140 141 139 136 128 119 115 122 126 109 92 92 97 104 109 113 113 114 115 111 104 132 142 137 131 107 106 130 154 163 158 142 124 120 128 129 124 119 117 99 84 110 122 121 120 113 111 134 136 128 141 122 144 158 164 151 130 120 116 114 109 104 109 125 136 143 153 155 160 163 163 162 155 150 145 138 132 124 117 111 104 100 100 98 98 101 96 83 74 66 79 96 104 102 102 100 99 98 98 98 97 96 100 96 91 94 100 104 104 105 101 102 106 113 121 125 125 126 124 124 118 122 136 138 141 141 124 125 131 117 88 77 82 82 83 82 82 84 77 98 156 170 166 165 160 134 97 78 73 72 69 73 74  140 142 145 147 149 151 152 152 153 153 151 148 148 149 150 151 154 156 158 158 163 165 168 172 175 176 175 174 170 169 168 164 162 162 162 162 163 162 161 162 162 163 164 169 177 181 186 193 197 194 190 188 188 193 198 205 206 215 217 215 213 199 182 179 173 168 181 196 201 207 208 212 205 191 186 185 183 183 184 183 190 198 195 196 193 191 184 178 173 176 183 189 169 175 168 164 164 165 164 163 165 187 194 186 184 187 187 184 183 188 182 179 183 183 172 165 165 164 162 160 162 159 159 159 159 159 158 158 159 162 165 166 171 182 183 179 171 169 175 176 167 155 146 143 142 142 138 133 131 131 132 133 134 136 141 143 144 147 149 151 154 156 155 156 162 168 174 163 158 163 160 155 154 151 147 147 147 149 150 152 154 161 168 170 172 175 182 185 186 185 183 181 176 172 168 177 183 172 159 151 152 153 156 160 161 162 162 162 163 176 180 177 175 160 157 176 198 207 207 198 182 180 188 192 186 178 174 161 149 163 172 171 168 165 165 182 183 172 187 176 196 201 197 190 180 173 169 167 163 164 167 174 183 190 193 197 200 201 202 198 195 192 187 184 179 175 169 163 159 155 153 152 154 155 154 150 144 141 147 153 156 156 155 153 151 151 153 151 152 153 151 151 151 154 156 157 159 159 158 159 164 169 173 174 173 177 177 174 171 175 184 188 187 185 179 180 179 166 142 131 132 133 130 129 131 132 130 153 195 204 204 207 203 177 147 133 130 129 129 128 128 
0 34 36 41 36 30 29 31 31 32 31 27 27 24 34 37 39 47 49 51 51 55 64 65 69 83 92 100 104 109 106 107 106 106 104 99 98 97 97 102 101 102 98 96 93 87 82 88 88 79 68 48 23 11 22 24 30 70 117 99 65 44 20 17 3 0 0 17 69 118 131 120 98 68 57 47 32 22 18 6 0 41 59 33 6 0 0 1 13 27 37 41 64 41 5 4 4 0 0 0 1 6 20 20 10 7 4 6 17 23 33 43 47 57 78 76 44 30 31 35 37 38 41 41 41 42 40 39 40 36 40 43 43 54 60 44 9 0 10 17 9 0 0 7 13 13 15 16 14 12 10 14 17 22 26 29 31 36 41 42 34 33 31 28 16 23 26 12 0 7 19 3 0 26 84 80 51 25 10 2 0 0 0 0 0 0 1 8 13 16 31 42 35 27 13 7 2 0 0 0 12 28 32 36 36 41 38 32 26 19 31 82 96 90 66 34 45 81 100 96 68 29 6 0 0 0 18 13 0 9 9 51 57 43 28 20 37 50 38 46 29 58 65 52 43 34 24 22 21 16 10 9 14 30 42 53 58 69 78 83 89 90 90 89 86 83 75 73 73 70 66 68 61 56 51 42 26 6 0 0 0 4 13 14 13 12 13 9 11 14 18 13 12 12 3 0 0 2 5 11 13 10 13 13 26 43 51 57 59 48 37 36 57 76 87 86 69 56 57 56 37 18 12 11 9 9 7 3 31 93 119 122 115 116 101 59 21 4 0 2 0  112 113 115 115 117 117 120 116 112 112 104 104 102 105 110 111 113 114 117 119 125 133 134 140 155 160 156 152 155 153 153 153 151 148 146 143 140 141 144 149 150 150 150 148 142 140 146 144 137 134 126 119 116 123 124 128 147 179 174 158 153 134 123 118 107 102 116 141 159 167 164 151 134 128 128 127 127 133 126 113 125 132 128 126 124 120 118 118 123 126 123 146 135 105 110 104 92 90 95 98 100 103 112 110 107 106 103 105 109 110 114 122 124 137 142 124 114 111 113 116 116 116 117 115 116 117 118 119 120 118 113 111 139 168 165 131 99 102 109 108 97 85 81 84 84 85 82 78 77 78 77 81 82 83 88 92 94 96 100 103 107 108 106 99 99 117 115 91 102 109 101 96 119 167 165 143 115 100 89 85 80 77 76 77 81 87 91 99 102 111 115 107 105 102 103 117 121 101 87 95 104 112 116 118 122 120 117 114 106 113 143 146 147 130 104 121 153 164 153 142 134 129 129 123 118 115 113 107 98 107 123 121 115 104 109 132 135 125 135 124 138 143 143 134 124 117 110 109 109 102 104 110 117 122 127 131 136 145 148 150 152 153 156 152 149 147 145 142 138 134 129 121 116 112 108 103 92 74 63 70 89 97 99 97 95 95 94 95 95 93 95 97 100 97 93 95 101 104 106 107 106 105 107 119 126 123 121 121 122 115 117 131 140 142 140 133 128 130 124 99 82 82 82 80 81 81 73 95 158 178 176 172 166 151 114 82 74 75 71 69 71  140 142 145 147 148 150 152 153 152 152 150 148 148 149 151 153 153 156 159 160 160 167 172 176 182 190 197 200 200 198 198 197 196 195 195 194 192 194 195 195 198 198 199 200 199 195 195 195 192 189 187 184 184 189 188 187 196 217 214 205 201 189 182 174 168 164 171 188 202 207 209 202 188 185 183 182 183 187 183 176 181 188 186 186 185 178 173 170 170 171 169 185 179 161 169 166 164 165 166 167 167 166 166 170 170 168 164 161 161 165 170 174 180 188 188 175 166 163 162 162 163 163 163 162 163 164 164 165 164 165 164 165 177 182 176 163 155 154 161 165 161 150 140 139 140 139 138 133 130 131 132 131 133 135 137 140 142 145 147 149 152 153 153 151 152 166 172 160 163 170 169 163 168 190 187 177 166 158 154 153 151 149 151 149 151 152 155 161 162 167 169 165 163 158 160 176 180 167 152 150 155 161 164 166 168 169 169 167 162 165 183 184 184 173 159 171 194 205 205 197 190 190 190 184 173 168 168 165 156 160 172 170 166 163 163 180 186 171 184 177 189 189 183 178 171 166 164 160 159 160 161 164 170 175 177 182 186 189 192 193 195 196 195 195 193 191 188 186 182 179 177 174 169 166 162 161 154 145 140 143 152 158 155 152 153 152 151 149 149 149 147 149 150 151 151 152 157 158 159 160 161 160 165 171 176 174 174 175 173 170 171 181 187 187 186 181 180 178 171 151 136 131 131 131 131 132 128 151 195 209 210 210 209 193 160 134 128 126 126 126 125 
0 38 37 37 34 32 29 27 25 31 29 25 24 23 31 33 40 46 47 50 50 54 58 60 91 125 76 43 32 28 22 15 14 12 11 8 7 6 8 11 8 8 6 3 0 6 26 50 62 61 48 21 4 6 10 11 31 94 122 64 19 35 46 49 34 8 0 3 52 107 107 88 65 57 43 28 25 14 6 7 23 54 39 11 0 11 21 30 36 40 44 43 45 49 15 0 12 12 9 7 1 0 0 0 0 0 0 2 6 13 17 25 44 57 75 84 58 31 30 31 30 30 29 26 29 29 27 27 29 26 29 28 32 38 37 13 0 1 6 4 0 0 1 9 12 14 17 16 15 15 9 11 12 19 26 28 34 37 42 42 33 28 31 31 19 15 10 1 0 16 11 0 1 47 101 118 106 86 67 45 29 18 12 10 6 2 0 0 0 0 0 0 0 2 3 4 1 0 0 0 7 14 20 29 33 30 34 32 35 35 40 80 104 95 78 46 39 71 91 80 50 15 1 0 1 20 43 11 5 66 27 39 55 30 20 23 40 47 36 47 24 52 52 43 45 40 35 30 27 25 19 13 7 7 9 16 24 32 39 50 60 68 73 80 84 85 84 85 85 88 89 87 85 81 75 71 61 48 29 11 1 0 2 6 8 7 10 9 7 11 14 11 9 15 14 14 8 0 0 4 8 11 11 8 13 24 39 51 55 55 53 47 36 28 47 66 76 69 60 63 68 58 35 12 7 10 3 12 56 101 124 130 121 118 113 90 46 15 5 2 0  110 112 114 114 113 116 116 109 110 107 101 101 99 104 108 113 114 113 118 121 125 132 132 150 185 163 134 124 123 125 120 119 117 113 112 115 113 113 118 116 113 118 117 115 114 125 133 132 129 127 120 115 114 116 120 128 163 179 152 129 135 140 136 134 125 113 116 142 168 169 151 131 127 123 121 130 127 122 125 133 163 162 134 114 109 109 114 117 120 123 119 123 133 104 101 109 103 101 106 102 97 92 92 92 92 93 96 102 108 107 107 121 129 137 152 140 117 107 109 109 109 106 103 106 106 106 105 106 105 103 99 117 149 162 142 103 81 81 91 95 92 84 82 85 84 84 81 74 75 76 75 76 81 84 86 90 94 97 96 98 103 105 105 98 98 117 100 88 106 103 97 93 130 178 185 179 167 155 141 130 119 113 107 100 93 87 83 84 81 81 83 82 87 90 95 110 109 89 88 90 92 99 103 107 107 112 110 110 111 119 144 148 138 140 116 116 144 160 152 146 138 134 126 117 113 115 112 118 140 119 119 115 104 104 111 132 135 124 133 121 133 132 131 126 121 114 107 105 104 102 99 99 101 103 115 123 120 120 124 127 132 134 141 144 145 148 151 154 153 152 148 146 144 141 136 127 118 105 85 69 67 77 89 93 93 90 90 92 92 94 94 96 98 102 105 99 92 94 101 105 108 107 104 106 112 125 131 125 122 122 123 117 115 127 136 136 131 130 133 132 121 98 78 77 83 77 80 123 163 179 182 179 172 161 136 97 79 75 70 70 69  139 139 142 145 148 148 152 154 153 152 149 149 149 150 153 154 153 155 158 161 163 165 170 183 198 188 188 187 184 185 186 185 181 179 180 180 181 182 182 180 180 181 181 181 177 183 188 187 188 186 179 175 174 173 173 176 204 220 200 185 188 191 187 183 178 172 172 186 207 209 198 184 182 181 179 185 182 176 180 184 201 205 187 173 167 164 164 163 163 164 165 169 182 162 161 164 158 158 165 171 172 168 165 165 166 166 164 165 165 165 169 179 181 188 194 185 169 160 158 159 158 158 158 157 158 156 156 156 157 157 157 170 180 179 168 152 141 139 148 154 155 149 140 138 140 138 136 132 129 129 130 131 131 134 135 137 142 145 146 149 152 152 152 149 151 167 166 159 164 164 162 157 172 195 198 195 188 181 176 172 168 165 164 161 158 153 153 154 153 150 153 153 155 156 159 173 175 162 157 155 155 157 157 161 162 165 167 168 167 169 184 187 180 180 164 166 189 201 199 195 193 192 185 174 166 166 166 172 187 170 167 167 163 163 163 178 185 172 182 175 185 180 173 170 167 162 159 158 157 155 154 153 156 162 167 172 173 174 177 180 182 186 190 191 192 192 194 195 194 193 194 193 188 185 183 177 172 163 153 147 145 150 153 151 150 150 148 147 145 146 145 144 145 148 150 151 152 152 156 161 160 161 161 162 166 175 178 174 173 174 172 170 172 178 182 182 180 180 182 181 168 146 131 130 129 128 137 170 200 212 214 211 210 203 178 147 131 128 127 125 124 
0 43 39 34 35 32 26 26 18 22 25 25 22 21 26 28 37 41 42 47 49 50 54 59 63 56 42 32 30 30 33 37 34 29 24 21 21 17 14 12 17 24 30 34 44 63 74 73 69 57 37 24 29 41 47 53 80 122 112 35 13 59 85 82 74 54 28 26 59 92 86 61 52 41 28 17 6 24 51 49 52 62 20 0 14 40 35 34 37 38 42 42 40 41 35 9 12 30 31 27 13 2 0 1 2 3 1 0 0 0 0 0 2 7 13 22 17 11 15 22 20 21 16 12 17 15 18 20 17 17 18 19 23 17 6 0 0 2 9 3 0 0 1 7 14 15 18 17 12 12 12 11 11 19 25 26 30 32 40 41 34 28 25 23 18 11 4 0 10 21 3 0 34 68 85 104 95 83 77 62 54 52 49 44 36 19 5 0 1 6 8 6 4 1 1 0 0 0 0 0 0 0 0 0 2 0 3 7 11 14 27 73 91 80 57 39 36 62 77 64 33 11 0 2 17 42 37 0 0 47 59 24 44 22 21 30 44 43 30 38 14 52 51 46 48 48 44 41 38 35 30 24 15 5 5 5 6 7 9 13 20 29 38 49 58 63 67 71 76 83 89 91 96 95 93 93 86 80 74 62 40 18 1 0 2 6 11 8 5 7 5 7 8 13 19 27 32 22 7 0 1 5 7 9 9 9 19 32 44 51 54 56 52 36 31 38 42 52 66 72 74 76 73 58 21 7 16 53 93 115 126 130 122 115 115 112 79 33 8 1 3  112 110 106 112 115 114 116 109 105 105 101 100 101 106 108 112 112 113 120 123 125 130 134 132 131 127 123 120 119 122 119 114 113 110 107 109 108 106 105 106 109 117 124 132 139 140 136 132 131 125 117 116 117 117 122 143 174 171 132 117 134 150 152 150 152 144 141 157 174 162 132 122 121 124 125 121 120 125 128 127 144 146 97 98 112 111 112 118 119 119 121 117 122 119 100 105 112 112 117 116 108 100 99 100 98 95 93 94 94 93 95 101 104 108 118 120 114 107 105 104 103 101 95 95 96 97 96 96 95 96 99 126 149 144 116 92 75 72 79 82 86 85 82 84 88 85 82 77 77 75 73 73 80 83 82 88 92 95 98 97 97 99 98 96 105 112 88 98 105 98 95 115 150 169 175 171 166 160 149 137 137 137 129 120 111 100 95 97 96 92 92 89 87 90 97 110 103 85 81 80 81 82 81 82 83 85 84 87 92 110 147 150 130 122 118 115 138 156 156 150 143 133 120 113 114 114 114 120 134 133 115 111 100 107 114 130 132 121 133 117 133 127 127 123 120 115 109 105 101 98 95 89 89 96 113 127 126 113 110 112 111 116 120 125 128 129 133 141 147 152 156 157 156 154 156 153 147 140 129 116 99 77 70 80 91 91 90 88 88 90 90 92 95 99 104 108 106 97 91 97 104 106 105 105 104 108 118 126 127 123 123 121 116 115 118 125 128 129 133 136 139 136 116 82 78 86 120 161 175 182 184 180 172 164 155 122 88 74 72 73 69  136 136 140 142 145 147 151 153 153 149 149 148 149 152 153 154 154 155 158 161 164 167 170 172 172 171 169 172 171 170 171 169 164 163 162 160 162 163 161 162 167 172 175 179 186 187 186 185 185 180 172 167 162 162 163 179 212 215 186 178 188 194 195 193 193 188 187 194 207 203 183 177 176 179 181 177 173 174 174 172 185 194 168 157 161 161 162 164 166 168 169 166 173 171 158 165 164 163 170 176 178 172 165 163 163 163 163 165 166 166 166 170 173 174 179 175 166 157 155 154 154 152 151 148 148 147 146 147 149 148 153 173 182 176 159 146 135 132 138 146 151 150 142 140 140 139 136 133 128 129 129 129 127 130 134 135 141 145 147 151 151 151 150 148 159 170 161 159 163 160 156 165 182 189 192 187 182 180 176 173 175 176 173 170 165 157 155 156 154 152 155 156 155 156 160 172 169 158 154 152 152 151 151 153 151 153 154 154 157 166 188 190 177 168 165 161 183 199 198 196 196 191 178 168 165 166 170 171 183 182 166 166 163 163 165 177 183 171 182 173 182 174 169 169 166 159 157 156 155 152 150 148 149 152 160 168 170 167 167 168 172 174 177 179 180 182 186 189 190 193 196 198 198 198 197 194 191 186 180 171 163 151 144 148 150 145 143 142 141 141 141 141 144 146 147 151 154 151 151 155 160 160 160 160 158 163 168 172 175 174 173 173 170 170 173 175 177 179 182 184 184 179 163 137 129 137 169 195 209 216 216 212 208 206 196 167 139 131 129 127 127 
1 43 40 32 29 31 27 23 18 15 20 24 20 24 26 28 34 37 38 43 48 51 54 55 58 55 60 62 59 59 61 70 64 54 47 40 41 39 38 43 49 53 55 59 65 70 74 71 59 42 30 29 39 51 52 55 88 124 85 10 8 37 61 77 99 102 89 85 95 97 65 35 27 19 7 7 35 54 56 56 54 35 2 0 10 36 32 30 36 40 41 40 40 39 46 30 11 27 33 20 10 1 2 9 20 29 26 18 12 5 2 0 0 0 0 0 0 0 0 9 20 21 18 14 16 18 20 20 21 22 18 21 12 2 0 1 4 12 17 8 0 0 6 14 17 15 16 16 12 12 13 13 13 16 18 20 25 28 33 38 36 30 23 16 16 8 0 1 20 16 2 34 70 56 64 92 92 86 80 65 49 38 28 19 13 8 12 21 27 38 40 40 37 29 26 14 0 0 0 5 14 10 5 1 0 0 0 0 0 0 20 60 66 64 69 45 27 57 73 63 43 32 21 16 26 32 10 0 0 27 70 39 23 19 26 39 55 44 29 40 21 60 63 49 47 47 49 49 46 41 35 28 23 17 10 7 1 0 1 3 3 6 13 18 24 28 35 42 48 60 68 74 83 87 93 96 97 96 92 87 85 72 44 10 0 1 5 10 12 6 6 8 9 17 23 31 39 37 32 19 5 0 1 11 11 10 11 13 14 29 45 49 52 51 48 44 36 38 46 58 63 69 95 101 65 40 54 81 97 104 109 116 116 111 110 116 104 63 17 3 5  113 109 106 107 113 111 109 106 103 103 104 104 109 108 111 113 115 113 117 122 128 128 130 130 130 129 129 128 126 129 131 126 122 118 115 117 113 112 116 122 125 129 135 141 136 135 130 126 126 120 117 119 124 125 129 151 172 153 114 112 123 134 143 159 176 176 173 179 180 159 130 123 125 120 116 121 128 127 128 127 117 128 94 92 113 112 112 117 120 119 120 120 117 123 109 103 112 119 118 117 109 104 103 105 109 108 106 104 95 90 87 89 89 92 97 101 100 94 95 100 103 103 99 93 94 94 95 96 95 98 108 128 137 120 96 86 80 78 81 82 86 88 86 88 86 86 83 73 70 69 70 70 74 76 79 85 90 93 99 100 99 99 94 94 110 100 85 102 100 97 114 141 141 148 160 160 159 152 139 129 122 112 101 97 96 100 106 108 111 108 106 102 100 104 106 114 102 87 97 104 102 98 97 89 87 85 84 87 93 120 145 132 117 127 114 103 135 154 157 155 153 137 114 105 106 113 118 95 118 143 127 112 105 112 121 137 132 120 134 122 135 127 123 119 119 116 112 109 104 99 95 91 91 90 103 120 124 115 103 100 103 106 106 109 112 114 116 120 129 135 141 146 148 154 157 160 160 157 154 150 146 127 96 71 73 86 87 87 84 84 85 89 96 100 102 107 106 105 102 94 95 99 104 105 105 105 104 106 117 126 125 121 119 119 116 112 121 128 126 125 131 149 151 125 105 120 150 165 173 173 176 176 168 163 161 146 109 81 76 74 76  134 136 139 139 142 147 150 153 152 148 147 147 149 151 152 155 156 157 158 160 166 169 170 172 172 173 175 173 174 172 172 171 164 161 161 159 160 162 165 168 172 177 182 184 181 182 183 184 179 172 169 168 168 171 173 192 216 204 177 176 180 183 189 198 207 204 205 208 209 199 180 175 179 176 169 171 176 175 175 172 167 184 166 156 161 160 163 164 164 166 168 168 166 174 167 163 166 174 179 179 174 168 163 157 156 157 157 157 159 158 158 159 160 161 166 168 164 157 152 154 153 150 149 146 145 146 145 145 145 149 161 177 181 170 153 142 136 136 138 146 151 152 144 141 142 139 135 131 126 126 124 124 124 129 133 136 141 144 147 151 153 151 151 152 167 167 158 160 159 156 165 180 172 172 181 181 178 179 174 169 164 162 157 153 154 156 159 161 158 158 156 154 154 154 162 175 169 157 159 163 161 158 157 156 155 154 154 153 156 171 186 181 172 175 165 155 181 198 198 197 198 188 171 158 158 166 174 156 171 192 176 166 163 165 169 183 184 170 182 175 181 174 166 166 163 161 159 156 155 152 150 149 147 147 152 158 163 164 162 159 161 163 167 169 169 171 174 178 180 184 189 191 194 196 199 200 200 198 197 193 188 180 158 143 145 147 141 140 139 138 138 140 144 146 148 149 149 153 152 151 155 155 158 159 161 161 160 162 170 174 174 172 174 174 171 170 172 176 177 176 181 193 191 171 156 169 191 204 211 212 211 210 205 204 204 187 152 133 130 131 129 
9 41 38 36 29 27 30 25 18 10 16 25 22 20 22 25 28 34 35 37 41 49 53 54 56 53 56 64 60 56 61 65 63 53 45 42 46 52 52 54 54 52 51 55 63 69 67 58 46 34 30 40 47 47 44 54 99 120 52 0 5 24 38 59 108 132 121 106 94 88 65 37 15 3 15 44 59 59 59 57 57 47 8 0 5 30 33 33 34 39 39 41 41 44 48 54 48 24 24 8 2 3 17 28 43 50 54 57 58 52 46 40 39 35 34 37 19 1 0 0 6 28 37 36 38 39 39 39 45 46 43 39 30 23 25 34 38 44 46 37 29 34 42 45 47 45 43 40 36 33 32 31 30 26 27 28 31 29 31 33 30 27 23 15 10 2 0 4 19 19 40 68 57 45 65 89 88 73 52 23 10 7 5 3 12 28 36 44 47 44 41 41 41 37 33 19 0 0 0 18 33 28 21 12 4 1 3 10 14 15 28 38 39 38 50 62 38 50 79 78 68 66 54 31 26 20 1 0 3 37 57 67 21 22 29 51 70 42 25 38 25 64 78 53 46 51 50 49 46 41 33 27 22 19 11 5 0 0 0 0 2 7 13 10 9 12 10 14 18 28 38 46 54 63 69 77 84 90 93 95 96 93 87 67 30 3 0 4 21 39 32 22 17 21 22 26 33 32 32 34 28 12 1 0 2 9 11 8 7 10 21 30 42 47 51 55 48 36 25 32 40 51 70 87 89 80 77 79 70 65 71 83 102 108 104 110 116 91 39 8 6  111 109 109 106 106 110 106 103 101 101 104 104 109 113 113 115 118 114 116 119 127 128 129 130 127 126 128 127 124 127 130 128 122 116 116 119 122 126 129 130 129 129 131 131 131 130 125 121 120 118 121 126 126 124 130 157 167 137 107 108 114 121 128 161 190 188 181 174 173 164 143 127 116 116 126 127 131 129 127 127 120 124 102 90 110 111 113 115 119 121 120 118 119 121 123 121 110 120 119 116 109 107 107 111 116 118 120 123 119 116 112 113 113 112 117 115 97 85 86 91 104 106 108 110 106 105 105 109 111 114 123 130 130 117 108 101 103 103 101 103 109 113 111 110 109 103 99 95 88 86 86 84 84 83 86 90 91 90 95 99 101 100 96 103 106 86 87 95 96 120 145 146 137 142 154 153 143 125 107 101 98 96 94 101 110 114 120 118 119 115 111 108 110 110 112 116 101 95 107 113 110 107 106 99 94 96 99 102 102 109 114 117 106 110 117 106 130 158 162 161 162 145 110 93 102 120 104 85 120 138 142 124 119 115 128 145 130 118 129 123 133 126 119 121 119 114 114 109 103 100 94 92 89 81 82 94 104 104 99 93 99 102 101 100 103 106 108 110 114 117 123 127 129 135 142 148 152 156 156 158 158 156 146 113 80 74 81 95 106 97 89 88 94 96 97 100 101 98 100 102 97 96 94 97 103 104 108 107 103 109 119 126 122 119 124 121 114 116 126 124 120 127 140 145 138 139 146 145 141 138 145 162 164 160 159 159 131 90 74 75 79  134 133 136 138 139 145 151 153 151 150 148 147 149 152 153 157 158 157 158 160 164 169 171 171 170 171 175 176 174 171 170 173 168 163 163 164 168 172 174 176 177 178 180 178 178 181 181 179 174 170 171 173 175 175 177 200 216 191 173 173 169 172 176 200 218 215 213 209 207 200 188 178 170 168 173 175 176 175 174 174 169 181 173 157 163 160 162 165 167 166 166 168 168 173 174 172 164 179 182 177 171 164 159 158 161 165 167 169 169 168 166 164 164 165 171 173 163 154 152 151 155 160 158 155 155 155 155 157 158 163 175 184 183 172 162 155 151 150 153 159 164 165 160 157 158 155 151 147 143 141 138 135 134 135 137 139 142 145 147 151 153 151 152 162 168 158 153 155 155 167 182 178 164 167 176 179 174 166 156 152 153 154 152 156 162 167 167 168 168 164 162 162 160 159 164 176 168 159 166 168 167 166 163 158 156 154 151 150 153 155 156 166 167 167 171 161 180 200 199 203 205 190 162 148 158 172 165 151 172 185 187 167 164 166 176 189 182 171 181 173 181 177 168 165 162 161 158 156 155 151 149 145 143 141 141 145 153 154 155 156 157 157 158 161 161 163 165 168 170 173 177 181 183 187 189 192 196 199 200 201 200 198 190 169 150 147 147 149 154 151 144 142 144 146 147 149 148 148 151 151 149 150 152 156 158 159 161 159 161 164 170 175 174 173 174 171 169 171 176 176 175 180 187 189 182 184 192 192 190 186 192 203 203 201 204 200 174 141 132 132 133 
12 38 39 42 39 31 28 25 19 9 14 20 19 20 22 25 28 31 32 36 37 41 50 52 52 50 47 54 62 62 60 63 65 62 54 54 59 61 59 55 56 56 57 62 67 70 58 44 34 34 36 40 36 34 35 65 116 109 27 0 16 30 29 54 113 129 109 73 49 59 56 14 1 25 50 57 58 61 62 59 56 50 13 0 3 25 31 34 34 36 39 42 46 48 40 58 81 43 31 11 12 16 26 43 58 63 66 71 75 74 71 71 68 65 65 65 55 24 2 0 0 21 53 62 63 64 62 60 62 62 61 60 53 49 51 55 59 61 60 54 53 56 55 57 60 60 62 60 57 55 57 60 62 63 61 63 60 56 54 55 49 38 32 22 7 0 1 0 17 51 69 58 50 67 81 77 50 20 10 10 18 24 22 17 22 35 41 43 44 42 39 37 39 37 35 12 0 0 0 17 20 14 12 8 3 3 8 15 22 27 29 27 33 27 17 46 56 59 83 89 82 75 61 44 38 12 0 0 20 43 37 70 53 38 46 68 75 40 30 42 21 56 86 64 50 50 48 47 44 40 32 24 15 9 6 2 0 0 0 0 0 5 11 10 7 6 3 2 3 4 7 14 21 31 36 43 51 60 69 77 82 89 91 92 84 58 17 0 4 35 60 62 56 50 41 35 35 34 27 24 30 33 23 8 0 1 5 11 13 8 10 12 24 37 41 51 56 50 39 31 26 44 55 61 84 86 82 72 56 41 40 49 82 105 102 100 112 108 67 22 10  112 110 111 110 106 106 107 103 98 99 101 101 108 113 114 116 115 114 113 117 124 127 129 130 127 124 125 125 128 127 128 130 123 120 124 129 131 133 131 129 127 126 126 128 131 125 118 119 121 122 124 121 120 119 137 164 162 122 105 111 117 119 125 160 184 178 155 142 154 157 128 112 115 124 128 127 130 130 128 127 118 123 107 86 108 112 115 117 117 119 123 124 125 123 125 134 122 131 120 115 110 108 117 129 133 134 137 142 140 135 137 133 130 130 134 130 117 95 84 87 99 118 128 126 125 125 125 128 129 130 137 135 131 128 128 128 128 125 123 126 130 130 128 130 130 127 124 123 120 120 121 120 120 119 117 115 114 111 115 112 105 105 107 114 99 80 80 94 125 147 148 148 150 152 149 131 112 105 105 111 114 110 99 101 112 117 119 120 120 118 116 112 111 115 116 112 93 98 108 104 98 96 93 91 90 93 96 99 102 101 96 112 112 97 106 117 134 157 166 167 165 143 111 100 115 108 81 104 120 129 149 142 138 130 140 145 129 124 131 121 132 131 121 120 117 112 110 106 103 95 88 86 83 78 77 80 86 94 95 91 93 97 98 96 97 98 99 99 101 106 111 114 117 120 124 127 132 137 142 149 153 155 159 155 133 95 71 76 105 128 126 116 111 104 101 98 95 94 91 99 104 103 98 95 98 101 105 105 104 104 104 111 124 124 123 123 119 117 122 120 126 126 123 138 139 138 137 125 110 104 109 142 163 157 155 162 151 112 79 76 78  134 133 135 138 138 143 149 151 150 149 149 149 151 152 154 157 161 158 157 158 162 168 170 170 167 165 168 176 175 172 171 174 173 170 170 173 176 178 178 176 175 175 175 178 181 181 178 173 172 173 174 175 174 174 180 206 211 182 168 164 165 165 168 201 218 213 199 188 194 197 180 169 168 174 176 175 175 176 175 172 169 177 176 156 162 162 163 165 166 168 168 170 175 177 176 183 173 180 181 173 166 160 158 163 169 174 179 183 183 182 179 179 179 178 178 180 173 160 155 152 156 167 171 171 172 172 175 176 177 179 183 187 184 179 175 171 170 169 172 173 176 178 177 177 178 175 172 170 170 169 167 165 162 160 160 160 160 159 161 162 159 157 159 168 163 153 150 154 171 184 182 176 172 175 176 169 158 155 156 160 164 162 159 159 164 168 170 172 171 167 167 169 168 167 171 174 165 165 167 163 161 159 155 151 150 148 147 146 146 144 141 153 164 159 163 169 182 200 203 206 208 190 160 149 167 171 149 159 170 174 186 175 169 172 185 190 182 172 182 174 180 180 170 164 161 159 155 154 153 149 145 142 139 137 135 134 142 148 149 151 153 154 154 156 157 156 156 157 159 163 166 171 173 176 179 181 186 190 191 194 197 198 198 194 180 159 147 146 160 173 172 166 161 158 153 148 146 145 146 148 150 149 151 152 153 156 159 159 160 160 159 165 174 174 172 173 174 171 170 173 178 176 179 187 187 185 185 179 168 162 167 191 201 199 200 204 193 160 135 132 133 
13 42 43 42 44 40 28 20 17 6 6 15 19 20 18 23 25 26 30 38 35 36 43 46 47 46 41 45 53 58 63 67 72 72 65 60 60 59 61 57 54 58 64 67 64 57 50 37 28 26 28 30 29 29 37 79 119 86 10 3 28 34 34 77 126 115 84 55 37 51 34 20 57 66 54 54 60 61 61 59 51 43 14 0 1 24 32 31 34 41 45 44 39 36 32 51 77 53 47 28 17 20 29 44 51 57 60 64 66 64 63 64 59 56 56 56 51 40 22 5 0 4 34 55 61 62 61 56 55 52 47 44 41 37 35 36 39 39 36 31 26 32 39 40 44 46 45 48 43 42 42 46 51 54 55 59 63 69 76 87 87 69 60 38 8 0 0 17 58 70 54 53 75 81 61 31 7 12 22 29 37 36 27 21 18 28 37 39 40 41 43 45 44 40 32 5 0 0 1 12 13 9 7 6 4 7 14 16 19 26 29 20 28 45 15 9 36 70 86 91 84 62 37 36 40 3 0 9 49 50 35 49 76 43 45 65 63 39 30 44 17 44 87 74 52 48 46 43 41 36 30 23 10 2 2 2 5 9 3 0 0 0 3 6 5 1 0 0 0 0 0 1 2 10 16 18 22 25 36 45 50 63 69 77 86 88 71 26 0 3 32 63 80 80 74 69 62 56 40 29 26 30 29 27 17 10 5 5 9 11 10 7 10 17 26 40 57 56 53 48 35 29 41 49 63 64 58 62 66 52 40 31 55 95 103 97 105 114 95 48 16  115 113 112 113 111 103 102 102 97 97 99 103 110 109 112 113 113 113 114 116 118 121 125 126 125 121 120 121 123 125 128 134 133 131 131 131 132 132 128 121 124 129 130 128 124 118 116 118 119 118 119 117 116 118 144 166 152 117 108 112 117 116 135 165 170 156 137 131 148 143 124 130 131 128 128 128 129 129 128 124 117 120 115 86 110 113 113 116 119 120 122 123 124 124 129 136 125 131 127 112 107 108 118 127 127 127 133 137 133 130 128 123 124 125 126 120 117 114 97 81 86 107 122 124 124 125 123 120 123 126 127 122 114 113 112 111 110 109 110 114 115 119 123 125 122 122 122 118 115 115 117 119 124 125 126 129 132 133 146 144 131 125 122 113 91 83 100 134 149 144 146 156 154 140 120 109 111 116 118 121 120 111 97 98 107 114 118 121 120 121 119 117 117 115 114 109 92 97 103 98 95 92 91 92 92 93 93 97 100 101 96 109 115 101 101 107 136 156 166 167 154 127 107 108 116 89 91 123 121 119 140 154 142 141 142 134 128 123 131 117 127 134 123 114 112 109 105 102 99 94 88 81 76 74 74 79 86 92 94 93 91 89 92 94 90 87 87 84 83 89 95 99 105 112 113 118 118 121 121 128 135 139 144 150 154 141 107 75 73 101 133 149 144 135 126 116 107 96 89 90 94 100 99 102 101 98 98 102 106 106 105 103 107 116 123 129 123 121 124 115 111 123 127 130 125 126 132 130 119 105 92 116 152 157 155 160 165 140 95 77 78  137 136 136 140 142 144 146 148 150 149 148 149 152 152 153 156 159 157 158 158 162 165 166 168 167 164 165 171 175 175 175 178 180 176 176 178 177 176 177 176 174 176 182 184 181 177 174 173 175 176 174 172 170 169 184 210 201 174 166 161 165 163 177 207 211 198 187 182 190 188 175 181 180 176 176 176 175 174 175 172 167 175 182 157 161 162 164 166 167 169 173 174 178 181 181 189 182 181 180 170 162 158 159 161 167 173 176 179 180 179 177 177 176 175 174 174 175 171 165 157 153 163 172 172 172 175 177 175 174 175 176 177 174 169 168 165 164 164 164 166 170 174 176 178 179 177 173 171 168 170 171 174 175 174 173 174 175 175 182 182 176 172 168 166 159 152 163 178 186 180 177 181 180 173 163 158 159 162 165 166 165 164 160 159 163 167 170 173 172 172 174 175 174 171 173 173 162 163 161 157 155 152 147 145 145 146 146 145 144 145 143 151 160 155 155 161 184 201 204 204 199 180 159 158 170 158 152 168 170 167 180 183 172 176 185 185 181 169 180 172 176 181 174 164 160 157 154 151 148 145 141 138 136 133 134 138 142 145 148 148 150 152 152 153 151 149 147 145 147 150 152 159 162 166 169 173 177 179 181 183 186 189 192 194 195 186 166 150 148 163 180 187 186 183 178 168 161 152 147 145 146 147 149 151 154 153 154 157 159 160 160 159 162 169 173 175 171 173 172 170 171 175 179 181 178 178 182 182 173 161 152 173 197 201 198 202 202 181 146 132 135 
17 50 42 41 42 39 30 21 12 4 1 13 23 21 19 19 20 22 29 38 34 35 39 36 37 40 36 44 54 66 73 80 79 72 64 58 57 55 51 47 50 59 58 52 50 49 35 16 12 16 23 30 32 35 54 100 115 53 0 13 27 31 47 105 122 93 72 57 43 43 34 78 94 89 82 69 61 60 63 60 52 39 19 0 0 24 33 36 41 41 38 31 25 24 27 35 68 63 42 29 23 26 30 37 42 42 41 42 45 48 45 42 41 39 34 40 37 32 36 27 9 0 5 22 38 45 48 47 45 38 27 14 6 2 3 2 4 10 14 7 0 4 19 34 39 37 34 34 29 24 22 17 15 18 21 26 35 43 52 63 75 59 37 15 2 0 25 61 64 55 58 76 79 47 19 12 18 30 33 37 39 40 36 24 13 28 43 45 44 45 46 42 37 28 14 0 0 0 2 9 6 7 6 5 7 10 16 19 21 26 32 36 41 47 20 0 13 58 87 89 78 42 15 24 18 0 0 34 63 56 44 29 66 42 10 27 30 32 27 37 21 40 79 83 63 50 49 44 39 34 27 15 3 0 2 7 5 7 8 3 0 0 0 0 0 0 0 0 0 0 0 0 0 1 4 9 10 11 14 19 23 26 35 46 56 62 70 65 29 2 0 14 51 81 89 87 86 81 75 66 57 51 39 33 31 28 20 11 3 5 7 9 11 7 10 15 31 48 52 52 48 37 33 44 55 56 53 50 58 71 66 49 36 70 102 99 98 110 111 78 40  118 115 116 115 113 108 102 100 97 95 100 109 111 111 109 108 109 112 114 113 116 119 115 119 121 116 118 126 129 132 135 136 135 133 132 132 131 127 121 122 129 129 124 120 118 114 112 112 112 114 116 115 116 127 154 164 134 109 110 112 115 121 151 170 159 144 140 139 144 131 138 147 145 139 132 130 129 129 128 125 115 122 114 87 111 114 116 117 120 119 117 119 120 125 128 134 128 122 122 116 114 110 113 117 111 107 113 117 114 111 108 105 106 109 111 113 113 118 115 99 85 84 98 110 111 114 112 110 116 122 116 100 87 82 79 78 85 90 90 91 99 109 115 117 112 112 109 101 97 94 92 92 94 98 104 113 120 122 132 141 123 109 102 91 90 112 141 151 145 147 155 149 131 112 105 108 112 118 120 119 120 113 99 95 107 119 122 121 117 117 115 111 106 104 110 108 92 95 92 88 89 91 89 89 89 90 89 93 98 99 104 111 111 97 96 109 135 156 164 160 140 110 98 111 109 81 110 124 123 120 124 149 139 126 124 118 121 119 127 116 120 133 127 115 111 111 108 101 97 91 81 72 72 75 79 82 88 91 94 93 87 85 88 85 84 82 79 75 77 80 80 82 88 96 102 105 108 112 112 114 117 122 125 131 136 143 138 115 84 68 87 124 151 156 151 149 139 133 122 111 104 100 96 94 96 100 101 101 101 105 106 104 103 104 106 118 127 125 119 120 117 112 120 129 131 124 122 130 136 131 111 94 130 157 153 156 167 162 125 89 106  146 140 140 142 144 146 147 146 148 150 150 151 152 153 152 155 159 157 157 160 160 161 162 163 162 161 165 171 178 181 182 183 183 180 179 179 179 177 174 176 180 183 184 182 178 176 174 173 172 169 168 166 163 167 193 212 191 170 164 161 161 165 192 212 203 193 189 184 189 183 188 194 192 186 181 176 174 175 174 173 166 172 181 158 164 164 166 170 171 172 175 176 177 181 181 186 184 177 176 169 161 157 158 158 159 160 163 166 166 165 163 160 161 162 164 165 168 171 172 165 154 156 163 164 162 165 166 165 162 163 164 160 152 145 142 140 143 148 149 151 159 164 167 168 170 167 161 158 154 151 150 153 154 154 158 162 165 172 180 182 174 169 163 159 159 169 184 191 186 180 182 180 169 159 157 158 161 161 163 165 166 163 159 159 164 169 172 173 173 171 170 168 166 164 170 171 161 158 151 148 147 147 146 145 146 145 145 146 147 149 151 158 159 152 151 159 181 200 203 199 188 168 159 164 169 151 165 172 172 170 173 185 173 168 174 174 177 167 178 172 172 181 177 167 160 156 151 148 146 141 137 132 131 132 137 139 141 141 145 147 150 150 150 151 149 143 140 137 136 137 139 144 146 150 154 160 166 169 172 174 175 177 179 183 188 192 186 171 155 147 157 176 193 199 198 192 188 181 173 166 159 156 151 148 149 152 154 154 155 158 160 161 160 159 161 170 175 173 172 172 169 169 175 178 178 176 175 179 183 178 163 156 184 201 199 199 202 196 167 144 161 
55 77 55 43 40 39 34 23 12 2 0 11 21 23 21 18 20 21 26 36 35 34 38 39 41 43 46 53 62 73 75 80 77 66 53 45 39 34 30 39 51 57 58 52 44 31 11 0 12 27 34 43 42 46 74 113 103 27 0 19 28 30 74 125 107 72 65 53 48 35 41 72 84 93 95 92 79 65 62 58 53 40 22 0 0 29 38 33 30 24 20 16 19 27 30 28 42 60 32 19 29 28 27 29 34 35 33 32 37 40 36 34 35 31 29 30 29 33 35 35 28 10 0 0 7 31 41 42 49 50 36 14 6 12 9 6 5 7 10 2 0 1 18 36 42 44 41 35 30 25 22 21 15 10 16 22 29 36 43 51 55 20 2 4 0 8 42 53 57 71 79 65 32 9 21 32 38 41 42 47 51 53 45 26 16 28 41 45 42 39 35 30 26 22 8 0 0 0 4 19 22 29 31 32 39 45 51 53 59 62 66 70 68 52 26 0 8 48 79 86 70 33 4 11 4 0 6 45 48 43 36 25 40 53 0 0 1 7 10 24 20 40 74 87 76 53 49 45 38 33 22 9 3 2 2 5 3 4 14 10 3 0 0 0 0 0 0 0 0 0 0 1 1 1 0 1 1 5 7 8 12 14 17 21 28 31 40 50 49 26 3 0 4 38 79 96 97 95 92 89 86 84 80 73 61 50 41 33 24 9 0 1 9 9 7 6 5 20 41 49 52 50 45 45 46 50 57 58 47 60 74 80 51 52 95 103 97 100 110 107 100  130 122 117 114 111 109 104 98 95 95 101 108 112 113 111 109 107 110 115 119 113 116 118 121 125 126 127 133 139 140 141 140 137 132 128 124 123 122 123 128 128 125 121 118 116 108 103 108 113 115 118 117 119 137 161 154 120 105 109 111 113 135 165 168 149 142 139 143 134 121 133 144 148 148 146 138 128 127 127 124 115 120 117 90 112 118 116 114 115 114 114 118 123 126 127 129 131 122 118 122 116 110 109 109 108 106 109 110 109 105 102 102 101 104 106 109 114 117 119 116 98 82 83 96 103 110 110 112 124 124 111 96 88 79 75 78 83 87 86 84 97 109 115 116 115 112 108 102 96 90 87 81 81 87 93 103 111 117 125 140 110 101 100 89 104 133 149 151 154 154 141 120 105 107 108 112 116 121 127 126 123 116 103 95 103 115 118 114 109 106 102 96 92 95 112 109 90 87 88 93 98 103 106 107 110 113 116 118 121 124 126 126 111 95 88 113 143 154 161 153 132 106 100 112 95 90 119 118 119 118 119 129 134 113 109 104 108 110 118 114 117 132 133 119 111 112 105 98 93 82 76 72 74 80 80 84 88 93 94 96 90 85 88 88 85 83 78 74 78 78 75 77 80 80 83 88 91 97 104 106 109 110 115 119 119 125 129 130 118 93 74 79 109 145 158 159 156 158 155 147 141 136 127 113 106 100 99 103 101 100 102 106 105 105 104 101 108 124 128 121 119 118 118 119 124 130 128 120 126 133 138 113 116 154 161 155 163 171 159 147 166  167 156 147 145 146 149 148 148 149 149 150 149 152 155 154 155 158 156 155 156 159 161 161 162 165 166 171 178 182 183 186 187 185 183 182 181 178 175 175 178 180 181 180 180 179 173 169 166 163 163 164 163 162 172 202 205 181 166 160 158 158 177 207 210 197 192 187 187 181 174 184 189 194 194 190 183 176 175 174 172 166 170 181 164 165 167 169 173 175 176 175 176 180 181 179 179 184 176 175 169 162 159 157 154 154 153 155 157 156 154 154 153 152 154 157 159 163 166 171 171 164 156 154 156 157 155 153 158 163 165 163 155 146 139 134 132 135 140 142 145 154 161 165 164 164 161 156 151 147 144 140 138 137 138 142 146 151 160 167 167 163 166 164 160 164 182 191 192 190 185 178 167 156 157 158 159 164 167 169 171 171 166 160 159 162 167 169 168 165 162 158 156 152 155 175 173 158 151 146 150 154 156 157 160 163 163 163 165 169 174 176 176 162 151 148 159 184 199 201 197 185 167 159 167 162 154 173 172 174 174 174 180 181 166 165 163 167 164 174 170 170 178 178 170 160 155 151 147 143 137 133 132 131 133 137 138 140 144 145 146 149 148 148 148 145 140 137 136 134 132 130 131 131 134 138 142 147 153 156 160 165 168 171 174 178 180 184 183 172 157 148 151 167 189 202 204 202 200 196 193 188 183 175 167 158 152 150 152 154 154 157 160 159 160 159 160 164 172 175 173 169 169 172 173 175 179 176 173 178 183 184 168 174 197 201 197 197 199 190 189 204 
114 102 87 70 51 40 35 26 15 2 0 9 21 21 18 14 18 20 26 35 37 40 49 61 55 44 42 41 48 53 56 55 55 48 35 24 20 26 35 48 57 62 56 46 28 11 7 20 39 47 45 46 45 54 89 118 75 10 7 25 28 45 107 121 89 70 58 53 55 30 33 45 63 76 87 96 99 85 69 57 51 45 30 1 0 24 28 24 18 15 17 21 31 34 33 29 28 57 33 15 32 27 25 24 30 34 37 37 37 40 39 37 38 34 34 34 33 39 37 32 34 28 9 0 0 9 32 43 57 55 40 23 21 31 30 26 25 25 22 8 0 2 15 32 40 43 41 37 34 31 30 30 31 28 29 33 41 47 49 46 45 39 52 59 29 15 32 60 78 74 49 15 3 19 39 46 47 45 47 47 50 49 38 27 21 20 30 35 33 33 34 34 34 37 26 1 0 0 28 56 60 61 59 56 54 56 55 50 47 42 36 29 21 34 36 0 18 56 72 80 68 37 4 0 1 0 15 34 24 23 23 21 23 68 24 1 1 0 0 9 10 32 62 82 83 65 50 42 37 31 22 17 11 2 1 5 6 7 7 7 7 1 0 0 0 0 0 0 0 0 1 2 1 2 3 2 0 4 4 4 5 5 5 8 15 15 20 23 28 30 20 3 0 0 20 65 93 102 100 97 96 95 95 96 90 85 78 65 56 47 34 11 0 6 7 7 6 3 10 30 46 49 51 51 50 44 41 50 51 57 70 82 70 56 83 104 102 98 104 123 137  136 133 128 121 112 109 103 96 92 93 98 104 108 112 111 109 108 110 117 117 116 128 144 144 136 132 131 132 134 135 136 134 128 122 120 118 120 122 124 127 128 122 120 117 110 105 108 118 122 120 119 118 123 146 163 143 112 109 108 109 121 155 170 157 149 143 139 142 120 114 121 128 135 145 152 150 139 130 124 121 116 124 121 93 111 115 115 114 112 114 116 124 126 125 126 122 129 120 117 123 121 114 109 108 111 108 110 111 109 106 105 105 104 107 110 113 119 118 117 118 111 95 84 84 96 107 108 114 123 117 105 99 98 93 88 88 91 89 85 82 94 107 114 117 118 116 110 104 100 96 95 92 90 89 95 101 110 117 120 122 120 131 137 118 110 127 149 157 147 123 108 102 105 111 112 116 118 122 125 122 120 115 108 97 96 106 109 105 101 102 99 96 97 107 118 106 92 106 115 120 123 122 123 122 125 122 119 117 116 112 107 103 103 100 85 113 145 151 159 148 130 103 102 111 84 105 120 114 115 115 117 122 140 119 112 101 96 99 109 108 112 126 132 127 115 111 105 101 94 85 83 79 82 82 81 86 90 90 92 95 93 88 86 85 88 87 84 76 75 75 76 77 78 77 79 80 81 82 85 88 91 93 99 105 110 113 117 119 123 117 98 81 74 89 124 149 158 161 162 160 160 159 154 146 141 131 120 112 111 109 100 97 103 105 105 104 103 104 116 125 122 121 119 117 115 117 125 127 126 129 136 132 123 143 164 162 163 170 178 191 184  182 176 166 158 151 150 151 151 150 149 151 151 152 155 155 156 156 154 152 155 162 166 165 166 171 173 174 176 179 182 183 185 185 182 178 175 175 176 177 177 179 179 179 179 172 165 163 163 165 164 163 164 165 182 209 198 173 163 158 159 163 195 213 204 196 191 187 190 171 167 171 177 184 191 195 191 186 178 172 171 167 172 181 165 168 170 172 175 175 175 175 178 180 179 178 175 185 180 175 171 164 160 157 152 154 155 154 156 156 155 154 155 155 155 158 162 163 165 168 170 170 164 155 153 156 159 154 161 170 169 164 155 148 144 140 140 143 146 144 145 154 162 164 164 164 162 159 153 147 146 144 142 140 139 139 143 150 155 158 161 168 180 184 174 167 177 190 194 186 172 160 155 155 157 160 164 167 167 168 171 171 168 162 158 157 160 162 160 157 157 156 155 154 161 178 170 159 163 166 168 173 175 176 178 178 176 175 175 172 170 168 164 159 154 147 163 186 198 200 195 184 163 158 168 151 163 172 170 171 174 174 178 189 176 171 162 159 160 167 166 165 172 179 175 163 157 152 146 144 141 138 135 134 136 138 140 143 144 145 145 145 144 142 145 145 144 140 135 131 130 128 128 128 128 131 131 132 137 139 141 146 152 157 160 167 172 175 178 178 172 162 151 146 155 176 196 202 203 204 203 202 200 198 194 187 180 172 165 162 163 156 153 158 162 160 160 160 161 167 174 173 170 171 172 168 169 175 176 177 181 186 182 178 192 204 199 194 198 208 216 213 
121 92 98 95 82 62 41 29 16 5 1 8 23 26 20 10 12 17 29 45 48 53 63 72 57 36 29 26 26 26 29 31 30 28 28 27 30 42 57 64 65 58 48 38 20 16 26 40 49 49 48 48 47 64 107 114 47 2 21 30 32 84 123 102 80 71 47 52 51 29 35 41 47 53 70 84 95 97 88 70 57 50 34 2 0 18 21 20 18 24 27 33 35 30 28 28 22 43 41 6 27 29 25 27 29 31 35 36 38 40 41 36 36 39 39 37 38 38 41 36 28 30 24 7 0 0 10 39 52 46 34 24 31 39 38 36 36 37 38 27 3 2 14 31 39 39 37 36 34 30 33 35 37 36 40 40 40 45 48 55 65 75 75 66 47 40 57 84 70 32 4 5 25 39 41 44 46 42 44 45 41 38 33 29 24 28 36 43 43 45 51 52 48 53 31 0 0 0 21 29 22 18 14 11 10 9 11 9 5 2 1 1 2 27 45 8 12 49 73 79 64 33 12 0 0 0 12 13 19 29 23 18 28 66 62 16 9 0 0 0 0 13 35 59 76 76 63 51 44 38 31 23 10 4 2 3 2 1 2 1 1 0 0 0 0 0 0 0 0 0 0 0 0 1 1 3 6 9 9 6 6 2 4 3 2 5 10 12 16 19 20 17 8 1 0 5 37 77 98 100 102 103 98 93 89 94 99 95 90 86 80 71 36 5 1 7 9 9 7 6 16 32 44 51 56 51 40 36 45 51 66 64 65 68 84 83 94 108 117 141 148  130 135 136 130 121 114 103 95 91 94 101 108 110 110 105 107 108 113 122 126 127 142 155 151 134 124 122 120 120 119 119 119 117 115 117 120 123 125 127 129 125 121 118 113 110 112 116 121 122 120 119 119 130 155 161 130 110 112 109 114 143 169 165 150 148 141 140 135 114 114 117 118 120 129 140 149 151 143 131 122 118 123 120 94 112 117 115 117 118 121 123 125 124 123 126 122 126 125 117 123 124 118 110 108 109 109 109 113 111 107 105 106 108 111 116 118 119 121 117 114 115 108 96 85 84 98 112 118 116 107 100 96 98 101 96 98 98 99 97 87 92 107 115 118 117 113 109 106 103 101 101 102 99 101 103 99 103 114 120 132 147 151 150 137 128 138 154 142 118 103 105 107 110 114 118 119 118 118 118 117 115 112 109 102 98 107 113 112 113 118 118 116 117 119 119 101 94 106 106 104 101 99 100 102 101 101 97 94 94 94 93 93 103 109 92 106 134 152 156 144 127 106 107 105 81 108 108 113 120 116 111 120 141 136 119 109 102 97 95 95 101 110 119 129 129 119 109 105 99 92 89 85 83 83 86 87 89 88 89 87 83 83 80 83 87 92 93 87 77 72 73 73 76 79 80 80 81 80 77 78 73 76 79 86 92 97 104 111 114 117 114 106 90 73 73 99 131 153 161 162 163 163 158 157 159 156 152 147 141 135 132 111 98 100 107 110 107 104 100 105 119 124 122 122 119 115 115 121 128 132 123 125 130 138 139 158 170 178 194 200 182  179 183 182 177 166 157 152 152 150 150 152 152 154 154 153 155 156 154 152 157 163 167 169 170 170 170 169 170 172 173 175 175 176 174 172 170 173 176 177 176 177 177 176 171 166 162 162 164 165 163 162 162 167 194 210 189 168 162 158 158 183 212 209 198 197 188 187 184 165 166 168 170 173 180 189 193 193 188 180 174 171 173 182 168 172 175 174 173 173 175 175 175 177 178 177 174 182 183 176 172 167 163 159 154 153 153 153 156 155 153 155 156 158 159 160 163 165 164 165 164 167 167 162 156 152 158 164 166 171 167 154 148 149 148 145 145 147 150 150 149 155 164 165 162 165 162 158 156 151 148 148 146 147 146 147 147 149 154 164 178 189 194 195 186 176 180 191 186 171 160 153 155 157 157 159 162 163 163 165 167 166 165 161 160 159 161 167 165 165 167 169 171 171 175 178 167 165 168 168 166 165 166 164 164 164 161 159 158 154 151 149 148 155 160 150 156 179 196 198 194 183 165 160 164 148 163 163 167 169 168 166 173 189 187 173 169 164 161 159 160 160 163 172 176 172 164 157 151 150 146 140 138 138 141 142 141 142 144 145 143 140 138 139 140 142 142 139 135 128 129 130 130 129 130 132 132 131 130 130 127 129 131 135 142 151 157 163 167 169 171 171 166 159 147 146 162 182 197 203 205 204 203 203 203 202 201 199 195 188 184 180 167 154 155 157 159 161 160 158 163 170 174 171 172 170 167 168 173 177 179 175 179 181 187 188 197 202 209 219 219 211 
110 64 78 93 101 90 67 44 18 6 5 11 25 29 22 10 9 14 26 40 49 53 59 65 50 32 24 19 20 23 24 23 32 37 42 56 55 61 68 66 57 50 40 27 23 29 39 46 48 50 48 45 48 78 120 100 26 8 30 30 67 120 111 90 80 57 33 41 37 34 39 44 47 48 55 66 80 91 95 93 76 49 26 3 0 14 25 24 32 40 36 34 30 26 28 29 28 45 43 1 20 31 26 28 30 29 32 36 40 41 39 35 36 38 38 39 41 41 40 32 28 27 27 24 25 10 0 14 33 31 22 21 33 39 41 36 37 44 46 32 11 5 19 35 40 36 32 31 31 30 33 34 36 35 37 41 50 62 67 75 77 70 61 59 68 75 84 84 48 14 10 26 38 40 39 37 40 38 37 41 41 47 49 47 42 45 48 49 46 38 35 32 24 18 4 0 0 0 0 0 0 0 0 2 7 13 19 19 18 20 17 15 12 31 53 14 10 46 73 80 61 29 18 2 0 0 2 10 33 47 38 26 42 59 83 27 13 19 1 0 0 0 5 21 38 44 48 56 60 53 46 40 29 17 7 1 0 0 0 0 0 0 0 0 0 0 0 0 0 12 10 0 0 0 1 5 8 9 11 9 6 5 8 3 0 1 3 9 16 18 16 14 15 8 2 0 0 13 51 80 95 98 101 100 99 98 98 96 96 95 93 95 89 61 21 4 7 14 14 8 4 7 21 40 47 48 44 39 34 28 44 55 62 68 67 69 77 97 133 161 155  123 128 133 137 134 126 117 99 91 96 103 110 111 108 105 104 107 114 122 127 129 135 141 135 122 115 108 109 109 110 111 115 117 116 123 126 126 126 127 120 121 123 116 113 114 118 115 119 121 119 118 120 138 159 152 119 108 109 110 131 163 165 154 149 141 135 142 128 114 116 118 117 119 121 127 138 145 148 144 133 116 116 123 95 115 122 121 123 124 123 123 121 120 121 126 126 130 130 118 121 127 122 117 111 106 106 109 113 113 110 106 108 110 115 117 120 119 119 116 113 112 110 107 109 93 82 95 111 106 92 90 96 100 103 99 102 106 106 106 95 94 107 116 117 115 112 110 108 106 104 104 105 99 100 103 108 118 135 148 158 158 153 151 149 148 155 151 131 115 105 106 113 116 119 120 120 116 115 117 117 119 120 117 115 116 120 120 119 115 109 105 101 95 106 113 97 86 86 86 87 85 87 92 95 93 94 94 92 92 92 93 95 102 115 101 104 131 151 153 142 125 110 109 91 83 99 103 119 127 117 108 120 135 147 124 113 116 105 100 94 92 97 102 111 115 115 116 115 110 104 99 95 90 85 86 87 85 82 79 79 82 80 78 81 80 87 93 95 108 94 74 74 77 76 80 82 82 80 76 76 73 72 74 74 75 81 92 98 99 104 106 112 110 101 81 69 80 108 136 153 160 163 164 162 160 161 163 164 162 158 155 150 134 112 105 110 111 107 106 103 101 112 122 122 119 116 115 113 112 123 126 123 125 125 127 133 155 192 207 205 191  166 175 182 185 181 172 161 152 149 151 151 152 156 156 153 155 156 154 152 157 162 166 168 168 167 165 163 163 163 165 165 168 169 169 173 174 176 175 176 176 175 175 171 166 164 164 163 164 164 163 162 160 174 202 204 179 167 161 158 174 207 212 202 198 194 185 187 172 164 165 164 167 168 170 178 186 191 194 192 184 174 175 185 169 171 173 172 174 175 175 175 174 176 175 174 173 181 183 177 170 170 166 161 155 152 151 151 154 155 152 154 157 158 161 163 164 166 164 162 160 159 164 167 167 160 153 161 168 166 156 144 142 146 149 147 147 148 151 151 152 157 163 167 167 165 162 159 156 152 151 150 151 152 151 151 155 164 179 192 199 200 198 194 191 187 190 188 176 167 157 152 155 156 157 158 159 160 161 163 164 166 168 167 166 167 169 174 172 170 167 164 162 159 168 176 166 159 151 151 148 148 150 150 151 151 148 146 145 143 140 141 142 153 164 156 157 178 196 196 193 182 166 165 157 150 157 158 165 170 166 162 172 182 194 175 167 173 164 159 159 156 157 161 165 169 168 166 164 162 156 151 149 146 144 142 142 142 142 139 137 136 138 137 135 136 137 133 127 131 130 128 128 129 131 133 132 131 130 127 125 126 126 127 130 133 139 145 151 155 158 163 167 168 162 151 146 151 167 186 197 201 204 205 206 206 205 205 206 204 202 199 196 179 159 154 157 159 160 160 160 160 167 172 171 169 170 167 167 169 175 174 175 178 178 180 185 199 218 224 220 214 
119 46 56 73 89 100 97 80 51 15 4 11 25 29 19 10 7 10 20 32 43 48 49 50 43 39 34 30 30 34 35 37 47 49 59 78 72 66 64 59 49 42 27 24 33 41 44 46 48 55 56 51 56 94 119 75 8 20 36 61 111 112 93 86 68 42 36 42 35 40 41 45 46 52 55 51 55 70 79 94 93 73 32 1 0 19 36 43 44 40 36 28 24 24 28 34 36 50 48 2 12 34 28 25 27 27 30 33 38 42 41 37 37 38 42 43 43 41 38 35 31 27 24 35 53 53 17 0 4 13 13 15 25 35 39 37 37 39 42 31 13 10 18 31 41 41 37 32 28 28 31 31 33 39 52 65 70 69 66 68 69 73 77 82 90 88 88 80 54 28 26 33 33 33 31 30 28 25 27 38 44 41 36 32 30 25 20 17 12 7 8 7 8 6 0 0 0 0 3 4 3 3 1 7 12 18 21 20 22 22 18 15 14 28 62 25 15 52 73 75 63 36 8 0 0 0 0 13 43 55 46 31 52 52 72 46 10 39 16 6 1 0 0 0 6 10 10 20 31 35 39 43 44 36 27 29 19 8 1 0 0 0 0 0 0 0 0 0 2 31 20 14 11 2 3 10 12 12 11 8 5 4 2 0 0 4 10 15 14 17 17 10 5 8 6 1 1 0 2 20 49 73 86 98 110 115 111 109 108 106 102 92 87 86 67 35 10 1 8 11 9 6 6 15 32 45 50 50 44 31 35 40 53 64 53 56 73 71 96 146 159  118 118 124 131 137 139 131 117 102 97 99 106 108 106 103 103 105 106 116 122 123 122 121 118 115 113 106 109 108 111 114 120 123 125 133 130 125 125 123 120 119 116 113 115 118 117 115 118 121 119 118 123 147 161 139 110 110 111 125 156 163 153 151 144 138 144 145 123 115 117 116 117 120 119 121 123 130 140 147 145 131 125 123 98 118 124 125 126 124 122 120 116 116 122 124 129 135 134 115 111 130 123 115 112 108 105 109 112 112 112 107 108 112 116 120 120 119 119 117 112 104 104 109 126 126 96 77 88 94 89 82 85 97 103 104 102 105 108 107 97 99 107 115 117 117 116 111 107 107 103 105 105 106 114 125 142 153 157 158 160 160 158 157 157 154 157 145 143 127 105 102 108 113 118 119 118 115 112 122 130 119 115 112 108 105 101 97 91 86 85 84 82 83 103 110 91 80 83 84 87 86 86 93 94 93 95 91 89 91 91 91 95 104 124 103 105 130 150 150 142 125 108 104 81 87 90 99 121 125 114 108 124 133 144 133 106 124 116 113 104 92 93 95 100 102 101 102 107 110 108 107 107 103 99 99 90 84 83 79 77 78 76 76 77 77 80 83 96 139 120 97 86 76 75 80 81 80 82 77 76 75 72 74 71 75 79 82 84 85 89 88 91 98 103 103 91 76 72 85 111 133 149 161 170 172 170 171 171 171 167 161 157 157 147 126 110 105 108 111 109 105 103 106 116 124 120 117 115 108 112 119 126 124 114 120 128 126 153 195 209 192  156 162 171 181 186 185 179 166 154 151 153 156 157 157 154 153 154 154 152 155 158 162 162 161 162 161 161 161 162 162 164 167 168 169 177 177 177 177 176 175 175 170 166 165 164 162 161 162 164 164 161 161 184 205 194 172 165 159 169 201 209 201 198 194 187 189 190 169 161 163 165 166 169 171 171 173 179 188 194 194 186 181 184 166 168 170 172 176 176 175 174 174 173 170 173 176 183 186 177 169 174 168 161 154 149 148 150 152 152 151 153 157 159 163 166 166 166 163 158 156 154 155 164 175 176 163 155 158 158 152 138 136 142 146 148 149 150 152 151 153 159 162 166 169 168 163 160 154 153 153 153 154 156 161 172 183 194 199 200 201 200 199 196 194 190 191 185 182 170 151 147 151 152 154 156 156 157 155 158 162 164 164 162 162 162 159 158 155 148 145 143 139 138 163 176 163 148 137 140 141 142 147 150 148 147 143 143 143 140 138 139 137 151 171 161 159 180 196 197 192 180 168 166 150 150 152 155 164 170 166 164 174 177 190 183 162 177 169 168 166 158 158 157 160 162 162 161 163 166 166 163 162 160 156 154 151 146 140 136 136 135 134 133 133 131 132 128 127 148 141 132 132 131 133 133 133 131 129 129 128 126 129 128 127 129 134 137 139 141 141 144 148 151 155 157 155 146 145 153 169 185 196 204 209 211 211 210 210 211 209 204 200 197 186 170 156 154 156 158 159 159 159 161 169 173 170 170 169 167 170 173 178 176 171 176 182 182 199 220 223 209 
123 42 43 49 64 83 96 103 91 57 24 13 23 30 21 13 10 9 16 26 32 34 36 38 39 41 39 38 34 32 35 40 45 51 59 67 68 63 57 54 44 29 22 31 43 44 41 41 42 49 56 55 69 109 113 53 9 31 63 108 112 93 84 67 42 36 40 41 37 42 43 42 43 44 40 37 40 48 52 76 92 93 48 0 2 33 46 45 40 35 29 22 21 28 32 37 36 53 45 0 5 35 32 28 27 31 32 33 38 40 39 39 38 42 45 43 42 41 40 39 31 26 20 30 58 73 58 14 0 2 16 26 20 20 23 25 31 36 41 31 11 9 19 33 41 43 41 37 34 27 31 42 54 67 76 72 60 57 66 75 79 76 68 60 62 72 84 79 58 30 29 35 37 32 28 25 24 19 19 26 26 16 9 9 12 6 5 3 7 14 20 23 27 23 2 0 0 1 6 4 2 1 2 6 12 17 21 22 19 22 19 17 15 30 64 32 17 54 71 76 66 38 5 0 0 0 0 13 42 48 39 39 62 56 58 72 14 39 35 32 14 2 3 0 0 0 1 3 6 8 5 7 12 17 17 31 35 32 27 21 14 6 1 0 0 0 0 0 0 0 0 17 29 19 8 11 12 10 10 4 0 1 0 0 2 7 14 18 17 21 17 9 2 0 0 0 0 1 0 0 3 26 50 73 99 122 131 139 142 137 126 109 98 89 82 74 56 27 7 2 5 8 7 7 11 23 41 49 49 38 36 35 40 46 56 60 68 72 70 90 128  113 114 116 122 129 138 140 134 122 106 99 103 107 104 101 100 101 103 110 112 112 113 115 112 114 116 111 111 110 112 116 122 126 131 133 128 125 125 122 119 113 108 115 118 117 114 114 113 117 121 120 130 154 156 128 107 111 127 154 162 151 146 143 138 141 148 143 119 114 116 117 117 117 114 112 112 116 122 136 147 147 141 117 97 120 125 127 124 122 118 115 113 117 126 129 133 140 131 114 103 130 125 115 107 109 106 108 109 110 111 109 110 115 118 121 120 121 119 117 113 102 95 99 123 140 127 97 87 98 102 99 89 87 93 97 97 102 107 104 93 98 107 116 118 118 114 112 109 105 106 112 123 140 152 154 154 156 158 159 157 150 140 131 136 148 154 139 140 115 101 107 111 113 119 122 121 118 114 116 118 109 103 102 98 91 86 81 77 78 81 86 88 93 112 109 88 81 85 86 88 87 88 93 93 93 93 91 92 92 87 86 91 103 124 107 106 132 147 152 145 125 107 97 77 86 85 98 119 119 109 111 129 130 138 145 111 126 123 122 112 100 100 97 94 92 93 98 97 96 96 97 96 98 100 104 103 100 100 97 88 83 74 73 75 78 78 78 82 90 90 114 113 92 79 77 83 79 79 76 75 75 71 70 72 78 85 81 84 85 80 77 74 79 81 83 88 87 78 72 74 88 107 133 162 180 182 188 191 190 182 174 167 162 158 155 141 121 107 102 105 106 103 103 102 111 122 125 116 110 110 109 114 123 126 120 125 129 128 144 183 175  154 157 161 169 178 185 190 183 171 160 153 153 156 155 154 152 154 153 150 152 153 154 155 156 158 160 162 160 160 164 165 167 169 172 175 174 176 176 176 175 170 165 165 164 162 159 159 161 162 163 163 167 194 205 186 171 164 169 199 210 201 197 193 186 188 193 187 168 163 167 168 168 170 171 171 171 172 176 186 194 193 191 182 168 169 172 176 175 175 173 172 170 168 168 173 177 188 187 180 166 173 169 160 152 149 145 147 151 153 152 154 157 159 163 167 166 165 162 158 154 151 145 154 175 183 180 164 155 159 159 149 135 134 139 141 146 151 153 153 151 156 162 168 168 168 167 164 156 152 154 161 172 184 191 197 200 200 198 199 200 194 188 183 182 186 190 185 182 162 145 146 150 151 153 156 157 155 154 153 150 149 151 152 153 154 150 140 137 132 134 136 133 139 167 172 158 144 137 140 142 142 145 150 147 144 141 139 139 136 135 136 134 149 172 164 160 179 194 195 192 178 167 162 148 149 148 152 163 166 161 164 177 175 182 191 165 179 176 175 172 162 162 161 158 158 158 158 156 156 159 159 159 159 161 161 159 156 155 151 146 141 136 131 129 130 130 129 131 143 142 140 144 141 136 135 134 134 132 132 132 129 129 127 130 134 135 136 136 136 134 133 132 130 134 142 146 144 141 143 147 155 170 188 205 214 217 218 219 218 215 210 204 198 194 189 181 164 153 155 158 158 159 158 159 164 171 173 170 167 168 170 172 175 176 174 178 180 182 193 212 196 
109 39 38 40 43 57 74 91 102 98 71 39 26 31 25 18 13 10 10 21 25 27 34 38 41 42 42 39 35 32 36 43 54 61 63 60 60 57 49 42 33 30 33 40 44 42 40 38 43 45 49 57 84 117 96 31 22 62 103 113 95 81 63 44 35 17 25 44 42 41 36 31 26 23 26 30 36 55 61 71 78 92 46 0 16 53 46 44 36 30 24 22 24 32 37 37 36 56 54 4 0 27 32 27 26 31 32 34 39 42 43 42 39 42 46 45 45 43 41 36 31 26 19 21 36 60 74 52 10 3 21 37 34 20 23 21 21 27 34 28 14 11 22 36 40 42 45 43 45 49 58 71 71 68 62 62 64 68 69 57 43 33 24 24 20 48 85 73 49 35 36 38 40 37 29 22 22 20 17 13 9 4 13 15 21 17 15 13 21 27 28 31 30 22 2 0 0 2 11 5 1 2 5 11 10 15 18 20 20 23 20 18 17 27 63 36 17 50 68 73 63 33 3 0 6 25 3 18 45 41 32 45 63 53 39 77 25 41 40 41 28 11 20 3 1 0 0 0 2 7 7 2 0 0 0 2 6 11 15 20 24 26 30 23 12 5 0 0 0 0 0 6 20 20 18 13 10 8 5 2 0 0 0 2 10 17 21 21 21 18 15 9 4 1 0 0 0 0 0 1 0 0 5 25 60 98 123 147 159 154 147 127 106 92 80 74 71 66 44 13 0 1 3 6 7 7 13 30 46 46 44 47 45 46 54 60 63 64 63 60 74  110 108 112 112 115 124 134 139 138 126 113 105 104 103 101 100 98 99 103 104 108 110 114 113 113 117 112 111 112 115 120 129 135 137 128 126 125 122 121 114 111 113 117 117 114 114 111 111 113 115 117 139 157 149 120 111 127 153 162 153 145 140 139 139 131 137 139 121 118 117 116 112 109 109 112 113 120 127 130 138 147 147 109 103 129 126 126 121 118 115 113 115 120 126 133 135 141 135 121 95 121 125 114 106 106 104 107 108 109 110 111 110 115 119 122 121 121 119 116 110 101 93 98 115 131 139 123 97 102 117 122 111 92 90 91 92 97 101 98 90 95 105 118 120 118 115 115 114 120 133 147 154 160 157 156 154 153 149 138 126 119 114 108 102 130 154 133 129 115 111 117 119 122 124 124 120 114 111 103 97 95 103 105 103 97 86 81 81 84 84 86 86 99 116 105 86 86 90 87 89 90 90 94 92 89 86 89 92 90 84 84 87 100 123 111 107 130 147 150 141 125 109 86 85 90 81 100 114 108 101 114 132 125 127 148 122 130 129 130 120 106 111 107 103 91 86 88 92 94 93 84 79 78 82 87 92 97 100 98 98 99 96 95 89 81 79 80 79 72 77 103 117 102 90 84 83 81 79 76 72 72 71 72 79 81 83 82 84 79 78 74 70 69 66 64 71 78 79 77 77 73 75 88 118 151 170 189 202 199 194 185 171 161 157 152 148 146 131 108 99 99 103 103 101 103 104 118 124 118 112 113 112 119 124 125 125 123 126 121 123 121  154 156 157 160 167 175 183 188 185 178 165 157 154 153 153 152 152 152 150 150 150 152 155 157 157 160 161 162 161 164 166 171 174 177 176 175 176 176 173 168 167 166 162 160 159 158 160 162 162 162 161 175 202 200 177 168 172 197 211 203 198 191 187 189 184 183 181 169 170 172 171 169 168 169 170 170 175 177 180 184 192 193 177 169 177 175 176 173 170 169 168 168 170 172 176 180 188 189 183 162 171 171 162 154 148 146 145 148 151 152 155 158 161 163 165 166 166 164 160 155 150 145 152 169 183 188 179 163 163 170 166 153 137 133 135 137 142 147 152 151 154 161 169 169 168 165 163 163 168 178 188 198 203 202 199 198 196 193 190 184 177 171 166 162 177 192 182 178 162 150 152 154 155 154 156 156 154 151 145 141 140 143 149 152 151 149 137 133 130 132 134 133 144 174 168 156 144 139 140 144 144 146 147 144 139 135 135 132 130 129 130 129 144 171 165 161 179 192 193 191 177 168 155 151 150 143 153 159 160 160 166 176 173 173 193 176 182 177 178 178 164 166 167 163 158 156 154 155 154 150 145 144 142 144 150 154 156 159 159 159 156 154 147 139 134 131 131 135 140 145 143 147 149 145 140 136 136 137 133 131 129 129 130 133 135 134 135 134 133 130 126 124 122 122 124 130 133 135 140 144 145 147 155 173 195 209 219 222 221 220 215 207 198 192 188 187 182 173 159 153 157 158 159 159 158 160 167 172 170 168 169 167 170 175 178 177 175 175 174 177 169 
72 47 42 37 32 33 44 61 82 101 103 85 58 44 28 17 12 13 15 22 24 29 35 40 42 43 44 39 33 33 42 54 68 71 64 57 53 51 39 31 30 36 43 44 43 40 41 43 41 43 47 62 100 115 68 15 56 109 114 96 82 59 43 37 10 2 35 47 36 26 21 19 15 21 31 38 43 57 70 73 66 64 25 0 52 88 52 36 26 20 21 28 32 34 37 36 37 59 57 7 0 19 32 26 26 27 33 37 38 44 48 47 46 44 47 47 47 43 39 34 31 28 21 13 8 27 64 71 42 13 23 45 42 30 26 25 28 33 35 24 6 2 11 32 46 47 56 63 68 73 70 63 61 64 68 66 56 41 30 18 11 17 26 36 12 30 85 74 48 36 39 38 38 36 28 22 21 13 11 8 7 6 12 19 27 17 12 13 23 29 31 32 30 17 0 0 0 5 10 5 1 4 3 7 8 7 13 20 20 18 19 20 23 29 56 35 20 55 69 68 57 28 2 0 2 23 12 10 40 31 29 51 65 47 28 71 40 46 52 55 36 11 20 13 14 5 0 0 0 0 2 3 0 0 0 0 0 0 0 0 0 4 13 21 28 32 23 9 2 0 0 0 3 2 4 11 14 8 3 1 0 0 1 8 15 19 23 23 20 16 14 7 2 0 0 0 0 0 0 0 0 1 0 0 6 36 84 120 127 130 132 115 90 71 63 55 51 48 42 30 10 1 0 0 2 7 6 6 21 38 46 49 51 48 41 38 41 33 23 18 20  112 108 107 106 108 110 120 130 137 142 134 120 112 104 99 100 99 100 104 105 108 111 112 117 116 116 114 112 110 119 128 137 139 132 124 120 119 116 115 113 111 115 115 114 115 114 113 111 113 113 122 147 158 138 115 129 155 162 152 144 138 135 140 129 125 144 139 120 114 109 104 106 107 114 118 121 124 128 130 130 133 138 105 132 147 126 119 115 109 110 114 119 123 128 133 135 143 139 124 89 111 125 113 108 103 103 109 112 110 111 113 112 116 120 121 120 118 116 113 108 104 105 108 109 111 135 137 114 107 117 131 121 99 91 92 96 99 102 98 88 89 102 116 122 122 124 131 140 152 155 158 158 157 155 149 138 125 118 116 116 117 116 112 90 111 148 133 128 120 119 121 125 124 122 122 116 108 104 98 95 97 100 101 101 97 88 79 81 85 87 89 89 106 120 101 88 89 91 90 92 91 91 91 87 86 86 87 89 87 86 88 89 97 120 112 110 133 147 147 138 121 108 78 88 94 74 86 108 99 99 116 131 118 117 145 131 134 134 139 129 108 109 107 107 101 97 87 84 86 87 83 76 68 65 66 66 74 81 87 88 93 95 102 108 101 93 87 84 76 79 86 93 92 90 89 86 81 77 75 69 70 76 77 81 80 82 79 79 76 75 70 69 66 64 66 70 70 72 76 77 76 76 74 78 99 137 158 161 165 172 169 154 143 138 135 132 128 130 122 108 96 96 99 100 103 103 100 108 120 121 116 116 113 108 109 106 95 92 91 85 81  155 156 155 156 158 163 169 178 186 190 184 172 161 154 151 151 152 153 150 149 150 153 156 157 157 158 159 161 161 166 170 175 180 177 176 176 176 173 169 167 167 163 158 157 156 158 159 160 161 160 163 188 205 191 171 176 199 210 203 197 190 187 190 183 176 185 179 169 172 171 169 168 168 167 169 170 171 173 175 176 180 190 177 183 189 176 171 168 166 165 166 170 171 174 178 180 191 192 184 161 165 171 161 154 147 145 144 148 150 151 156 159 161 164 165 166 166 165 160 156 152 156 162 166 175 185 186 173 168 172 177 169 147 135 133 134 139 145 148 147 152 160 166 168 170 172 177 185 194 201 203 203 201 199 194 188 182 178 176 174 172 167 163 153 164 188 181 176 164 156 157 157 157 156 157 156 153 147 139 137 139 141 146 150 149 148 138 133 132 133 134 134 151 179 166 155 147 142 142 146 145 144 145 141 137 131 130 128 127 127 126 126 139 169 165 163 181 192 192 189 175 168 150 152 152 138 145 155 153 159 170 177 168 167 195 183 185 180 183 182 165 164 164 164 161 158 154 154 153 151 147 141 133 127 127 131 136 143 150 153 154 155 158 156 154 148 142 137 140 150 143 142 148 149 146 142 138 134 131 131 129 129 131 132 133 134 135 133 130 127 126 126 125 125 128 130 131 134 135 139 144 145 144 146 160 185 198 200 203 207 205 194 186 181 177 177 174 172 169 163 156 155 157 158 158 157 157 163 170 171 168 169 167 166 167 165 159 154 153 152 148 
11 86 69 51 41 35 30 35 49 72 100 109 94 71 47 24 15 17 19 28 29 32 34 37 43 43 45 40 35 39 51 62 69 61 54 48 49 39 25 30 35 40 48 48 46 43 42 42 40 46 50 73 108 100 41 41 106 119 98 81 59 41 29 5 14 55 37 26 34 21 18 20 22 33 49 51 56 61 59 55 62 52 10 0 71 102 78 42 20 17 24 30 32 34 38 45 47 68 54 8 0 12 32 30 29 30 36 40 37 42 46 47 52 49 48 48 45 42 40 35 28 25 14 3 0 1 37 67 50 25 33 54 62 50 35 31 34 37 37 25 3 1 12 33 56 75 80 75 67 62 61 63 65 59 45 33 24 19 21 12 7 14 35 42 6 20 77 73 48 37 38 40 36 30 26 23 19 12 9 9 8 8 10 19 30 20 14 17 25 31 33 37 33 12 0 0 1 10 11 5 0 0 2 6 7 8 16 21 22 21 22 26 27 28 57 40 26 63 73 68 58 28 0 0 0 0 4 2 13 22 34 61 61 37 21 61 65 59 70 70 44 13 12 16 24 27 18 4 0 0 0 0 0 0 0 0 0 0 0 0 0 0 0 0 1 6 13 19 15 0 0 0 0 0 0 1 3 10 10 1 0 0 6 13 19 22 23 20 18 16 14 5 1 0 0 0 0 0 0 0 0 0 1 2 0 13 44 70 66 63 71 71 64 57 50 41 35 30 27 19 11 4 0 0 0 1 4 1 1 12 29 36 32 29 20 9 2 0 0 0 0  154 138 121 113 109 104 108 115 124 138 144 138 127 117 106 100 99 102 107 109 110 110 113 115 117 119 117 111 112 125 133 137 128 120 121 122 117 111 113 114 113 115 115 113 115 115 113 113 115 117 130 152 151 124 124 153 164 154 144 139 138 137 128 135 156 145 125 117 109 105 102 104 111 120 123 125 126 125 125 126 126 128 109 144 155 139 119 108 108 113 118 122 126 129 136 140 147 137 125 90 105 126 111 106 104 105 110 113 112 113 117 117 117 120 121 120 117 112 113 113 116 115 109 99 93 114 135 136 129 126 131 134 116 97 97 99 101 104 100 89 91 105 119 131 143 152 158 159 158 157 157 150 137 126 119 118 114 115 114 114 115 117 109 92 111 135 133 128 123 124 126 128 123 122 119 112 106 100 95 94 96 98 100 104 102 89 82 87 86 89 92 92 110 118 102 96 95 91 93 92 91 91 89 84 82 87 89 88 88 89 92 93 97 121 114 113 136 149 147 136 119 98 71 85 85 77 77 88 96 103 123 125 109 107 140 138 141 148 147 130 110 104 105 109 111 108 97 88 81 81 81 80 74 65 57 55 60 63 69 68 77 83 88 92 91 94 94 93 77 80 89 78 77 83 83 85 87 82 74 68 71 78 77 77 79 81 78 81 79 74 71 68 68 68 70 73 73 73 76 75 77 82 84 81 95 120 128 111 105 109 113 116 117 118 115 113 111 113 110 104 101 94 93 95 99 100 98 98 101 110 111 103 98 90 86 83 82 83 78 72 65  159 165 166 161 159 158 158 165 176 186 192 189 177 163 154 151 151 151 151 150 152 156 157 158 157 158 158 161 163 168 174 178 177 174 174 176 174 167 166 166 162 159 155 154 155 157 158 158 160 159 171 197 201 181 178 202 214 204 196 189 187 188 180 180 195 187 169 167 165 166 165 162 164 167 168 169 170 170 168 170 174 188 179 191 195 188 174 165 163 164 167 170 173 174 180 182 193 191 185 162 160 169 160 152 147 144 145 148 151 152 157 162 163 164 166 166 166 166 166 166 167 168 168 165 160 170 185 184 181 178 180 183 165 144 136 137 140 145 146 143 152 160 169 177 187 195 200 202 201 201 201 197 192 186 180 177 174 172 171 168 167 164 160 152 160 184 183 178 166 159 158 157 157 156 155 154 149 143 136 135 138 140 144 150 152 149 142 135 134 136 135 135 160 179 165 155 148 143 145 148 146 144 142 139 135 131 130 128 127 127 128 130 140 170 165 165 184 194 193 187 173 162 144 146 146 145 141 147 152 161 173 174 165 160 188 187 189 188 189 182 167 161 160 162 163 161 157 153 153 152 152 147 138 128 120 116 115 119 127 134 138 144 150 154 156 155 156 149 141 153 149 138 139 143 146 147 143 138 133 130 129 131 133 134 134 136 135 133 132 132 131 132 130 131 134 133 135 136 135 136 138 143 145 150 159 172 176 165 162 166 168 167 165 162 161 162 163 160 160 160 157 153 150 154 156 156 156 156 159 165 163 160 160 155 155 153 154 154 149 143 139 
0 86 69 55 57 56 52 45 37 42 69 94 106 100 79 56 30 18 22 30 34 34 36 39 40 45 47 45 46 53 61 64 60 47 43 48 40 26 23 36 46 52 55 54 51 52 49 47 50 50 55 89 113 76 39 85 119 103 83 59 42 25 2 20 81 82 15 13 36 31 32 33 33 38 51 53 61 62 61 58 66 54 3 3 63 88 91 76 44 26 35 37 33 38 42 51 54 73 54 3 0 5 32 30 30 32 33 37 41 43 43 46 49 53 51 47 44 38 33 26 19 13 3 0 1 0 9 40 39 22 35 58 74 73 54 37 36 37 36 29 18 29 47 65 77 74 70 65 63 62 61 49 38 27 18 20 25 29 23 11 5 12 31 34 6 31 78 73 47 40 46 40 36 30 26 21 14 10 7 5 5 13 15 22 30 27 16 19 31 37 40 39 35 12 0 0 4 17 12 5 3 1 5 11 10 12 21 24 26 23 25 28 28 29 60 54 34 66 75 69 57 26 0 0 0 1 0 7 8 14 50 69 55 29 18 45 82 72 69 67 54 26 9 13 30 41 44 31 8 0 0 0 0 1 0 0 0 0 0 0 0 0 0 0 0 0 0 0 3 2 0 0 0 0 0 0 0 1 4 3 2 6 10 16 21 22 22 19 15 9 3 1 0 0 0 0 0 0 0 0 2 3 4 2 32 82 60 24 14 6 6 8 13 17 19 18 13 12 10 5 2 0 0 0 0 0 0 1 2 1 2 3 0 0 0 0 0 0 0 8 29  161 149 135 134 127 119 113 109 107 121 135 141 140 135 122 110 101 99 107 110 109 112 116 115 117 116 118 116 119 127 130 126 117 117 125 123 111 111 115 116 120 118 117 117 118 121 120 122 121 122 143 155 140 123 143 160 154 144 138 135 135 126 131 161 165 132 115 116 112 109 107 107 112 119 121 125 128 129 126 130 131 122 110 133 148 150 137 119 112 119 123 124 127 130 135 138 145 138 126 99 97 119 111 106 107 108 111 114 116 117 120 121 121 122 121 122 121 121 120 120 117 110 99 87 75 86 119 136 133 129 134 138 133 116 98 97 101 105 99 92 105 125 144 154 156 156 158 158 154 147 135 123 115 112 115 118 118 115 108 105 107 113 105 96 124 138 137 128 128 135 130 126 122 121 113 107 100 95 89 89 94 96 101 109 106 94 88 94 97 99 100 101 114 113 101 101 101 96 95 92 93 93 91 88 87 90 92 92 92 92 93 94 96 123 121 114 138 148 146 135 119 91 69 85 82 81 88 84 93 114 127 118 104 102 131 148 152 151 148 137 118 102 103 114 120 117 108 97 84 79 80 84 81 71 65 66 62 60 65 66 64 69 75 79 82 87 89 91 81 83 89 79 74 74 71 78 84 84 82 77 75 79 82 81 83 81 80 79 77 74 71 70 70 71 72 73 76 71 72 77 81 82 79 107 155 133 114 106 90 83 82 85 90 96 96 98 97 95 92 89 88 86 86 86 86 87 87 87 83 82 84 84 87 82 76 73 72 75 86 99 103  158 165 175 177 173 169 165 161 162 172 185 192 191 182 168 158 151 149 150 152 153 152 155 156 157 158 160 161 165 173 176 176 174 174 175 175 166 164 166 165 160 158 157 156 158 158 160 161 160 160 180 201 194 179 196 211 205 197 191 188 189 179 176 197 203 181 166 165 161 159 161 160 162 164 165 171 171 171 171 173 179 185 177 184 192 196 190 174 165 167 169 170 176 178 182 182 191 190 185 168 160 166 159 153 147 146 146 149 152 154 158 162 165 166 168 169 171 171 175 175 175 169 163 155 142 147 171 187 184 176 179 185 182 162 139 139 142 144 146 148 161 176 190 197 202 203 202 202 199 195 188 181 177 177 174 173 172 169 165 161 161 161 158 152 164 182 185 177 165 161 159 155 154 154 153 150 147 142 136 132 138 142 145 152 154 151 147 142 140 142 142 143 165 175 164 158 151 148 149 148 147 145 144 141 137 133 132 131 128 127 131 131 137 170 173 168 185 193 192 186 174 158 140 146 146 148 153 148 152 168 175 169 158 154 178 194 193 188 189 188 173 161 158 160 163 161 157 154 151 151 153 154 151 142 132 124 118 116 119 121 123 126 132 137 144 148 153 156 146 146 149 141 134 136 140 144 147 146 142 137 134 134 137 138 139 140 139 137 136 134 133 133 134 134 135 135 135 135 138 138 141 146 144 164 191 178 167 157 153 150 149 148 147 146 147 147 149 151 150 150 151 151 148 150 151 149 151 151 150 152 153 155 158 155 152 148 145 145 150 160 165 
41 48 43 36 37 41 57 65 63 52 46 64 82 98 101 91 65 38 26 31 37 34 35 36 37 47 53 55 56 60 61 61 51 42 46 44 29 26 36 49 55 55 51 51 53 54 56 57 58 60 71 104 107 58 53 99 103 84 61 39 19 0 6 52 74 36 2 19 40 38 38 34 33 39 46 55 61 60 62 64 63 42 0 4 35 57 80 95 86 56 36 34 42 46 44 42 42 72 55 1 0 0 21 31 28 31 35 37 42 45 45 46 48 49 48 40 37 28 21 14 13 7 0 0 0 0 5 22 20 11 27 49 71 79 70 49 37 41 51 59 65 70 72 70 68 63 64 65 53 40 28 17 19 26 36 39 33 31 23 7 2 11 34 28 10 48 86 74 50 45 52 43 35 30 25 21 17 10 7 7 10 18 20 22 30 31 21 21 32 40 42 38 35 9 0 0 10 21 14 5 2 3 8 13 16 16 24 28 28 25 29 33 32 31 59 58 37 68 75 67 53 18 0 1 0 7 4 1 24 9 53 75 43 18 39 80 80 66 65 59 67 58 13 8 29 41 44 44 33 10 0 0 0 0 0 0 0 0 0 0 0 0 0 0 0 0 0 1 1 2 0 0 0 0 0 0 0 0 0 0 5 17 18 18 19 20 16 17 11 1 0 0 0 0 0 0 0 0 1 3 6 3 1 0 43 118 101 21 0 2 7 2 0 0 0 0 0 0 0 0 0 0 0 0 0 0 0 0 0 0 0 0 0 0 2 6 15 25 30 33 51  117 116 117 123 126 130 127 125 118 113 119 130 138 140 138 126 110 103 106 110 110 112 113 118 120 120 121 119 123 125 125 121 117 124 126 116 112 115 118 120 123 118 115 116 120 123 124 125 125 128 151 152 131 130 150 154 145 137 135 129 117 111 138 158 140 120 116 118 113 109 107 107 112 119 123 129 125 126 130 132 132 121 113 115 124 141 153 145 126 116 119 126 130 134 135 134 145 139 123 104 98 115 115 108 105 108 112 118 120 119 120 120 123 125 123 126 123 121 117 116 107 92 81 77 68 70 107 123 115 109 122 141 140 132 110 97 101 111 121 132 144 153 154 157 157 156 152 140 128 118 114 115 118 121 121 119 117 112 102 98 105 114 102 104 130 140 142 135 136 144 134 125 121 114 106 104 98 93 90 91 98 102 104 109 108 97 91 98 104 105 105 110 118 109 98 105 104 99 95 91 93 94 93 89 84 88 95 95 93 96 98 96 93 121 124 116 139 147 144 133 116 90 77 91 88 86 91 99 84 120 128 109 103 122 149 153 151 149 146 148 135 103 98 115 122 121 114 106 93 83 80 76 75 77 75 76 70 70 70 69 66 67 70 72 72 75 77 81 83 79 79 76 71 72 71 72 75 82 87 84 84 85 84 82 83 82 83 80 74 73 71 70 70 71 71 70 72 75 78 83 82 74 68 118 191 164 109 85 86 94 81 81 81 85 88 88 83 80 82 80 81 80 82 84 83 83 83 81 82 80 81 78 77 79 79 88 100 108 116 129 128  155 158 165 169 173 176 175 173 166 163 170 180 189 193 185 172 160 152 150 152 154 153 156 157 157 161 164 165 169 174 175 173 173 176 176 169 164 164 164 162 162 158 154 154 158 159 161 164 163 169 192 201 186 185 202 205 198 189 188 186 177 167 179 198 186 175 169 164 162 159 159 158 161 162 166 171 172 172 175 176 181 185 178 171 178 189 195 191 177 166 167 174 179 179 180 179 191 191 181 170 162 165 158 154 149 145 147 150 153 157 161 165 171 174 174 174 176 176 176 174 168 158 149 140 128 130 158 178 173 159 166 183 188 180 154 139 142 153 166 179 190 197 202 202 200 199 197 192 184 179 174 173 174 173 171 169 170 166 161 157 157 161 155 153 169 184 185 178 167 166 161 154 152 150 148 146 143 141 137 135 139 144 149 154 156 153 149 146 145 147 146 152 171 172 161 159 154 151 150 148 147 146 144 142 138 133 133 134 133 132 131 132 137 169 176 170 187 191 190 185 173 155 145 148 149 148 154 158 147 169 176 165 155 172 197 197 190 187 186 195 187 163 154 158 162 162 160 154 148 144 144 147 150 153 148 140 133 128 124 121 122 120 123 123 126 129 136 143 145 141 145 141 132 134 134 135 140 146 147 147 144 140 139 139 139 140 139 138 136 134 133 132 133 131 130 132 134 139 142 144 143 144 142 171 211 198 163 147 149 149 140 141 141 142 142 142 143 146 148 148 148 149 150 151 152 152 152 153 151 152 153 151 148 146 145 152 158 163 172 178 178 
60 37 39 38 32 30 41 45 47 54 53 54 63 75 87 102 100 78 51 37 32 28 32 37 40 49 54 56 53 54 52 47 38 39 42 32 23 30 45 54 55 59 53 52 56 62 61 54 55 63 83 113 97 46 61 96 88 60 36 14 0 7 31 51 51 21 1 25 48 40 33 30 34 37 40 48 57 64 65 59 51 28 0 6 20 28 53 80 96 90 66 48 43 39 37 39 43 83 57 0 0 0 12 31 29 33 33 38 42 45 44 40 40 37 32 27 24 19 15 19 23 9 0 1 3 2 12 26 7 2 13 33 62 83 84 78 74 76 80 81 76 69 63 63 63 55 47 34 22 17 15 18 24 29 40 50 49 35 19 2 1 17 37 31 36 70 77 65 56 54 61 51 42 33 21 17 22 19 11 13 17 18 22 26 27 28 22 22 30 41 44 40 30 3 0 0 12 17 14 8 4 4 6 11 14 21 24 29 28 27 28 34 38 35 57 59 41 68 69 65 53 17 0 1 0 4 3 0 10 19 21 54 38 59 88 67 44 64 74 67 60 80 49 8 20 37 42 42 38 28 11 0 15 22 1 0 0 0 0 0 0 0 0 0 0 1 2 3 0 0 0 0 0 0 0 0 0 0 1 6 6 11 22 25 21 17 13 10 4 0 0 0 0 0 0 0 2 5 6 5 0 0 1 0 36 104 120 52 0 2 20 22 20 22 20 13 3 0 0 0 0 0 0 0 0 0 0 0 0 0 0 0 0 0 15 34 39 46 41 32 31  107 108 110 108 110 117 120 121 125 123 116 121 128 133 142 142 131 118 114 111 108 109 113 118 122 122 121 118 119 121 119 118 123 124 116 111 114 118 120 120 121 119 117 115 121 124 121 122 125 135 154 146 126 132 147 148 137 131 128 116 108 114 137 142 122 113 114 120 114 109 105 108 108 112 119 127 128 128 129 126 131 117 108 104 106 122 142 152 147 133 125 124 127 131 134 134 149 140 123 107 92 108 112 106 106 107 112 117 121 121 120 120 122 122 120 116 114 111 109 109 98 81 74 77 72 75 107 113 106 97 108 142 148 146 138 124 131 144 153 155 154 155 155 154 146 132 123 115 114 114 116 116 114 119 124 123 119 110 97 95 105 112 100 116 131 127 135 145 146 152 140 128 115 104 99 98 97 95 101 101 102 104 105 105 108 101 91 100 104 106 109 113 115 104 96 106 104 100 95 90 89 92 93 89 87 92 99 98 94 95 99 100 97 118 123 118 140 146 144 135 118 84 80 92 86 83 90 102 93 96 119 114 134 152 144 138 151 156 146 145 149 123 99 107 118 118 115 112 101 88 80 101 114 88 82 82 80 81 82 78 73 69 72 74 75 77 77 73 74 73 69 70 69 71 71 71 74 78 83 84 87 91 90 85 83 78 76 77 77 74 70 69 64 65 71 76 79 82 80 75 75 79 79 117 177 176 125 78 69 88 85 86 87 87 85 84 79 77 78 79 78 80 79 80 80 80 86 81 79 79 82 84 88 104 117 114 116 114 108 113 121  156 156 158 159 161 165 169 170 173 170 169 171 177 185 191 188 179 169 161 155 155 155 154 158 163 165 167 168 170 172 173 172 174 175 169 164 165 163 160 158 159 157 156 156 159 161 161 163 162 176 199 197 181 188 199 197 189 185 185 176 166 162 178 186 165 162 167 167 162 160 158 158 160 162 165 170 174 176 177 176 184 183 171 162 163 171 187 195 192 181 172 172 176 177 177 179 195 193 182 171 160 165 157 153 150 149 152 156 159 164 168 171 175 174 175 171 169 168 168 169 161 150 141 133 127 131 159 173 165 148 151 178 192 191 180 170 176 188 196 200 200 200 201 198 193 186 182 177 173 172 171 170 170 171 172 172 171 165 159 155 157 160 157 165 179 180 181 182 175 173 164 157 151 145 142 140 140 142 144 142 145 149 152 156 159 155 150 148 150 149 149 158 173 169 160 161 157 152 148 147 143 145 145 140 137 136 136 138 136 134 135 136 139 166 174 172 187 191 191 186 174 151 143 150 146 139 147 160 155 153 170 166 184 201 192 182 190 193 188 191 198 176 153 155 159 159 158 151 144 137 134 150 156 151 153 152 150 146 141 133 127 121 121 124 127 128 130 131 134 135 133 134 132 132 132 131 132 137 144 148 148 147 146 143 141 140 137 135 134 134 131 128 126 128 131 136 141 145 145 143 141 142 145 171 207 209 173 145 141 145 138 137 136 138 140 138 137 140 142 143 144 146 146 145 145 146 146 147 146 146 148 149 150 160 167 165 164 165 162 165 171 
43 38 40 43 42 40 42 43 36 28 32 67 89 85 82 89 101 108 97 82 66 52 51 54 54 56 57 53 46 46 41 33 33 35 33 27 31 41 47 53 56 62 59 58 64 64 55 51 53 63 95 115 76 38 69 78 57 32 9 0 11 36 47 56 49 44 33 39 54 52 38 26 31 32 38 51 63 65 60 51 44 17 0 7 14 22 30 49 79 100 104 70 38 34 33 49 77 84 36 2 16 0 0 23 35 35 36 39 37 36 32 30 29 27 26 24 21 22 33 45 39 16 1 6 9 4 25 34 6 3 10 23 61 96 103 98 91 81 71 64 62 64 61 52 37 22 18 16 18 22 23 22 28 34 42 47 50 40 17 1 5 23 49 69 72 63 37 29 47 56 65 57 48 34 22 20 19 20 17 12 19 21 24 26 31 28 23 23 31 42 44 42 21 0 0 0 12 15 13 10 7 4 5 9 12 22 28 30 27 26 25 31 37 35 51 58 43 69 72 69 59 20 0 1 0 0 0 4 4 9 16 44 86 79 38 31 55 71 82 84 59 73 84 30 12 34 43 39 34 25 15 3 8 27 6 0 0 0 0 0 0 0 0 0 0 3 3 2 0 0 0 0 0 0 0 0 0 5 12 14 3 5 11 15 19 18 11 4 0 0 0 0 1 2 2 5 6 5 2 0 0 2 4 2 34 90 124 97 15 0 7 20 23 30 32 29 24 8 0 0 0 0 0 0 0 0 0 0 0 0 0 0 0 0 4 17 32 41 37 40 39  107 108 108 108 112 116 117 111 107 113 134 153 143 136 137 140 147 140 134 128 120 116 119 120 123 121 119 114 115 115 115 117 121 117 109 111 117 120 120 119 121 120 118 119 121 119 120 122 125 144 154 139 125 135 141 136 129 122 113 107 109 116 132 137 129 123 123 122 118 110 103 104 106 109 117 128 131 127 126 122 127 114 107 101 104 107 118 143 157 153 136 123 126 128 132 139 147 134 125 130 95 96 111 112 111 113 114 116 118 118 117 118 117 116 115 110 107 111 117 110 98 87 86 86 79 92 115 108 105 97 98 134 164 167 160 156 153 153 153 153 153 148 140 127 119 115 118 117 115 115 114 116 115 119 122 124 120 108 96 97 108 120 124 128 124 117 117 138 150 152 142 128 115 103 94 93 96 101 103 105 103 106 107 109 109 103 94 98 105 109 111 114 111 97 97 104 103 100 95 90 90 89 90 91 91 98 100 98 98 99 100 102 99 112 120 123 144 150 147 138 119 83 83 87 79 79 89 99 99 97 121 146 145 130 131 146 153 162 157 137 146 143 114 102 114 117 113 108 98 86 73 76 107 97 91 91 90 89 89 87 82 77 74 76 77 76 77 73 73 70 70 71 69 73 73 75 79 78 83 84 82 86 90 90 90 80 73 73 75 73 76 72 71 76 86 90 84 79 72 74 84 90 87 114 162 178 154 101 70 74 80 82 88 86 87 88 85 81 78 80 79 77 80 79 77 79 83 86 86 91 94 97 96 95 104 115 115 111 111 113 110  157 157 159 159 158 160 161 161 162 164 175 184 183 179 184 189 191 189 183 175 166 162 162 164 166 168 168 168 170 171 173 173 172 170 167 164 162 160 158 157 156 156 156 159 162 161 161 161 163 185 201 191 182 191 194 188 186 183 175 165 162 165 175 173 150 148 156 164 166 161 156 156 158 160 163 171 176 178 175 173 184 180 163 157 156 159 171 186 196 197 184 173 171 172 180 189 195 188 181 181 160 160 161 159 157 158 160 163 165 167 169 171 171 169 168 165 159 159 167 168 162 150 142 135 128 141 169 173 159 141 140 172 199 202 201 200 200 200 200 200 199 195 188 183 178 175 173 170 169 169 168 168 169 170 171 173 173 165 157 153 158 169 176 179 176 171 171 180 176 172 165 158 153 145 139 140 141 146 149 150 151 152 157 158 160 156 151 149 153 154 154 164 174 165 159 159 156 152 149 147 143 145 145 141 137 140 141 139 138 137 139 139 141 163 173 174 188 193 193 187 174 150 143 148 142 136 143 155 157 154 173 197 197 182 178 190 194 200 198 183 195 193 165 153 156 155 154 148 142 138 127 125 146 155 160 158 157 157 156 150 142 134 128 127 129 130 131 134 132 130 130 131 130 129 130 130 131 133 138 142 145 149 150 151 149 144 135 131 130 131 130 131 133 137 139 143 145 142 140 140 143 148 148 171 201 212 193 158 140 139 136 135 136 137 139 140 136 135 135 136 139 140 141 138 136 136 140 143 149 152 152 155 154 153 158 165 164 163 165 164 164 
33 33 41 45 45 50 52 51 46 32 40 91 83 52 52 65 80 96 108 108 96 85 82 81 80 77 71 61 54 46 39 30 27 29 30 29 37 46 51 56 56 53 54 58 65 59 55 56 53 72 108 108 54 40 67 55 27 6 0 14 34 37 58 64 58 69 58 54 56 62 59 42 30 34 45 56 60 58 50 44 36 7 3 24 15 25 30 34 57 80 95 91 62 39 66 83 65 68 18 10 46 4 0 6 25 30 29 29 28 28 27 27 28 29 29 28 29 42 57 53 37 17 9 17 15 13 39 40 8 2 12 24 71 111 111 94 78 71 66 63 59 48 34 20 14 16 20 23 28 31 34 32 30 33 41 43 40 29 9 0 16 49 70 58 34 14 0 16 43 50 65 57 48 36 30 24 18 20 20 16 18 21 27 29 30 28 23 20 26 43 45 39 12 0 0 2 17 20 14 8 6 3 6 9 13 19 28 29 26 25 27 31 36 36 46 54 52 72 79 79 68 27 0 1 0 0 0 7 27 27 65 88 58 23 32 35 47 41 31 71 76 65 89 72 26 30 41 39 34 22 12 4 0 0 0 0 0 0 0 0 0 0 0 0 0 0 2 1 0 0 0 0 0 0 0 1 6 15 22 22 14 9 5 2 5 10 14 13 7 6 12 16 15 15 10 6 0 0 0 2 5 6 5 0 38 92 122 120 52 0 1 18 21 29 30 29 36 30 11 1 0 0 0 0 0 0 0 0 0 0 0 0 0 0 0 3 11 28 38 41 42  103 107 108 110 113 116 119 115 107 113 158 166 135 128 131 133 138 144 146 141 137 132 131 129 130 127 121 119 117 115 113 112 114 114 113 114 117 120 119 119 122 116 114 120 120 116 119 123 132 151 150 130 125 136 135 130 123 110 106 108 107 112 110 120 143 135 124 125 124 118 113 107 105 110 123 130 128 124 119 118 119 104 110 101 104 107 110 125 144 154 151 134 124 138 139 136 141 128 126 144 110 88 100 112 110 110 111 113 114 117 119 118 116 112 111 111 111 122 122 111 102 94 92 90 87 106 120 106 101 98 100 138 178 181 172 163 156 152 152 145 133 123 116 114 119 119 117 117 118 118 118 118 117 117 117 121 116 99 89 102 122 128 124 114 107 98 114 139 145 152 139 126 116 105 98 95 99 106 106 107 105 107 109 110 108 103 94 95 108 109 108 115 108 89 98 104 102 98 96 91 90 89 89 91 96 101 99 98 101 101 99 99 97 109 124 130 148 154 152 143 120 82 79 77 71 79 90 109 117 135 145 135 122 128 131 137 128 123 149 147 140 150 134 110 111 117 110 100 90 81 75 60 50 56 70 89 94 93 91 90 89 85 84 81 75 74 75 75 73 71 70 68 69 72 74 79 81 81 85 86 79 77 79 85 93 93 85 79 78 85 87 85 87 88 90 85 73 72 79 88 91 87 83 120 160 177 174 123 82 71 79 80 86 87 89 93 91 85 81 81 80 74 76 81 76 74 76 79 81 86 87 90 92 95 96 100 112 118 115 116 110  157 158 158 158 159 161 162 161 156 156 172 174 174 175 181 184 187 192 194 191 184 182 180 177 175 175 173 173 172 173 172 169 168 167 165 161 159 157 155 156 154 154 155 158 160 162 161 160 170 195 200 184 184 191 189 186 183 172 162 159 159 157 136 129 141 135 137 153 166 166 161 157 158 164 168 173 176 177 173 174 183 172 164 154 155 155 159 171 187 196 196 185 173 183 190 186 192 185 181 189 166 156 161 164 162 160 161 163 166 167 167 168 168 164 160 158 161 169 173 172 162 151 144 139 134 153 175 170 150 137 139 174 207 211 207 204 201 198 196 192 186 178 175 172 170 170 170 167 167 165 165 166 166 167 168 172 170 161 153 156 172 182 177 174 167 160 171 180 173 171 164 158 153 147 141 138 142 146 148 152 153 154 158 157 158 156 150 149 156 159 157 167 174 162 161 158 153 150 149 147 143 143 141 141 141 144 143 141 139 137 139 140 140 161 175 180 194 195 195 190 174 149 143 143 138 138 143 156 166 186 198 188 175 179 180 186 180 172 194 191 185 198 184 162 154 154 153 147 138 133 124 115 108 117 138 154 160 161 159 158 157 153 146 139 133 130 131 132 131 128 128 129 128 128 128 131 133 133 134 133 136 139 143 149 152 151 143 134 132 135 140 144 145 146 145 141 138 136 139 144 146 148 146 172 201 212 205 174 149 140 138 134 136 137 140 142 141 136 133 133 135 136 138 140 137 136 137 141 145 147 149 152 152 153 153 155 164 168 165 164 163 
34 32 40 44 50 57 58 54 51 42 30 19 13 11 13 22 38 60 86 103 97 76 56 44 38 38 39 42 49 49 48 48 50 55 61 66 65 63 62 60 60 60 58 58 60 56 56 53 59 92 116 87 35 41 51 29 4 0 15 33 40 47 74 72 69 89 66 47 57 64 57 45 45 50 55 59 58 56 47 40 27 1 5 43 34 30 35 34 39 51 73 93 89 81 65 19 34 71 12 9 36 10 0 0 8 21 23 25 25 27 28 31 34 35 36 41 49 62 55 40 25 16 22 27 25 27 47 31 2 4 14 39 80 110 109 96 80 68 56 43 26 8 6 13 20 25 32 34 34 33 30 32 34 32 38 41 41 35 25 34 45 48 30 7 0 0 19 48 40 42 64 56 50 41 35 32 28 24 22 18 17 18 24 30 26 24 24 22 23 35 40 32 6 0 0 4 19 18 14 10 6 4 7 8 14 22 27 27 24 22 25 27 26 32 50 66 68 76 77 81 69 30 0 0 0 0 0 16 63 91 79 38 17 29 28 19 36 33 10 33 63 71 76 90 57 36 38 32 28 22 12 2 0 0 0 0 0 0 0 0 0 0 0 0 0 1 1 0 0 0 0 0 0 1 3 9 15 22 23 20 17 15 7 0 0 4 10 16 27 33 32 20 10 11 8 1 0 1 5 6 3 1 0 2 53 103 117 114 74 11 0 15 38 31 31 36 41 42 36 21 5 0 0 0 0 0 0 0 0 0 0 0 0 0 0 0 1 5 23 40 40  104 105 110 116 119 120 117 117 113 107 102 100 100 103 110 116 122 134 140 141 132 122 116 116 115 114 115 116 118 118 117 115 117 120 123 122 122 124 122 122 121 117 114 115 115 116 119 124 143 154 141 122 126 134 131 122 112 105 105 106 109 108 93 98 138 142 123 124 124 121 112 112 117 122 128 130 127 121 116 120 110 100 115 109 106 109 109 109 119 139 153 147 137 131 122 131 144 129 118 124 121 96 87 99 106 109 108 111 112 115 118 120 119 116 112 118 125 122 115 108 104 103 100 94 95 117 118 104 94 92 112 160 185 180 175 164 153 138 128 116 110 109 113 116 120 118 117 118 115 114 118 123 119 117 119 121 120 111 115 127 125 119 109 95 96 118 145 135 136 150 136 127 117 110 108 99 100 106 107 105 105 103 107 105 101 100 96 96 107 108 108 114 103 88 99 101 98 97 95 93 89 89 88 90 94 99 99 98 99 98 96 97 96 115 133 140 151 155 155 143 121 86 81 76 73 83 104 131 146 141 125 119 124 121 115 120 120 110 116 141 146 148 147 125 117 119 113 105 97 90 83 71 59 52 51 59 70 82 88 90 90 91 91 90 86 79 76 73 69 71 67 68 71 73 80 81 82 84 83 82 78 71 67 72 85 95 92 91 94 98 97 94 91 86 82 74 75 85 90 89 86 77 80 132 165 171 173 141 103 76 81 90 81 88 90 93 93 92 86 81 80 76 72 77 76 73 73 74 77 81 85 86 88 92 97 97 97 110 119 115 111  156 157 154 156 160 160 160 160 157 154 151 148 149 153 161 167 177 186 192 192 185 179 176 172 173 173 173 174 174 175 175 173 173 172 171 169 165 163 159 156 155 156 155 155 158 160 158 160 183 201 194 182 185 189 186 183 171 162 157 157 157 138 103 98 134 129 121 138 150 159 161 162 165 170 173 175 176 174 170 173 177 165 164 158 154 155 156 159 169 186 196 195 190 188 181 184 194 187 179 175 172 159 155 160 161 159 160 161 163 163 163 163 161 160 157 161 172 177 175 167 159 152 147 142 145 166 174 163 143 135 152 191 212 211 206 203 196 190 183 175 170 168 168 168 165 165 164 162 163 163 163 165 164 165 171 172 171 169 171 177 179 176 170 161 158 171 185 179 167 169 162 156 153 151 146 142 141 144 149 153 154 153 154 156 155 153 152 152 157 160 160 170 170 159 160 153 148 147 146 146 142 143 141 141 142 143 144 142 139 138 140 141 142 163 182 187 198 198 195 190 175 151 143 143 140 139 151 179 196 193 180 174 179 172 162 170 175 163 168 190 186 191 194 178 171 168 163 156 149 142 131 119 111 103 105 118 134 150 160 161 160 160 158 154 149 139 133 133 132 129 128 129 128 129 130 130 132 133 133 132 130 130 132 139 146 150 150 147 144 146 148 148 146 145 139 135 136 140 144 146 146 140 143 180 203 210 205 184 162 146 144 142 133 137 141 143 143 140 135 132 131 132 133 138 140 137 136 140 141 142 145 148 149 151 152 153 155 162 167 164 163 
39 32 36 43 53 57 58 59 57 47 33 13 7 13 22 26 28 41 64 87 97 92 76 53 39 34 30 26 21 14 11 14 20 32 40 50 58 66 72 77 82 85 83 75 75 71 64 64 85 115 113 62 20 30 25 3 0 21 39 47 45 60 83 79 77 77 68 56 54 53 55 51 60 68 68 65 66 60 52 48 31 0 8 41 52 34 38 32 29 31 53 87 83 40 1 0 50 68 3 14 32 20 3 0 0 8 18 19 23 26 35 41 42 42 44 53 61 58 40 27 24 29 32 28 25 37 44 20 6 16 34 61 82 93 99 88 62 38 21 5 0 0 8 23 35 38 43 47 48 48 49 51 53 54 59 56 59 59 70 86 59 16 0 0 7 31 40 20 10 44 64 56 49 42 40 34 31 27 23 18 18 17 20 26 23 22 22 26 23 27 34 22 0 0 0 3 18 14 12 7 7 2 6 11 14 20 24 25 23 21 20 23 29 44 59 69 67 70 68 72 64 31 0 1 1 0 22 73 90 53 24 20 13 9 30 31 35 27 9 20 29 69 67 67 46 28 31 24 22 22 23 25 23 15 4 0 0 0 0 0 0 0 0 0 0 2 7 7 2 1 0 0 0 6 15 19 19 22 21 21 17 17 18 16 11 3 1 3 16 33 36 22 12 2 0 5 10 6 4 1 0 1 0 15 72 110 118 101 73 34 0 15 57 44 31 39 42 42 40 38 24 6 0 0 0 0 0 0 0 0 0 0 0 0 0 0 1 2 4 17 33  107 104 108 117 121 120 115 117 117 107 96 96 97 101 108 111 114 125 135 138 134 128 119 116 113 112 111 109 107 101 102 103 105 107 112 113 117 122 124 128 128 128 123 123 123 119 121 140 157 154 131 118 126 128 120 112 108 106 108 111 113 106 98 96 100 114 120 118 116 120 115 120 127 129 133 134 127 122 118 125 106 100 109 113 106 107 106 104 107 124 145 138 123 121 119 132 144 126 119 117 115 108 85 89 99 104 106 111 114 119 122 121 121 118 118 128 126 116 112 109 108 107 104 99 103 120 116 100 91 107 144 169 171 171 163 144 125 109 101 95 98 106 111 116 117 121 125 126 126 127 130 132 130 129 127 130 131 142 162 143 122 103 90 109 134 133 117 113 134 141 133 123 117 114 112 108 107 107 106 103 102 100 97 94 95 98 98 96 106 107 106 113 98 87 94 96 93 92 91 91 86 85 87 89 88 95 96 95 94 95 94 100 106 125 140 145 152 152 149 140 124 94 87 78 82 111 141 147 133 122 121 112 104 123 121 116 112 112 101 113 145 140 145 133 126 125 121 117 118 116 116 113 101 84 73 69 69 70 73 81 86 88 90 92 91 91 85 80 74 71 68 76 77 80 82 80 83 84 81 78 77 79 78 81 78 77 79 86 96 98 95 90 83 81 86 88 89 91 84 78 74 69 93 145 167 169 166 148 127 99 95 117 90 83 89 94 95 94 90 86 81 78 74 73 77 78 75 74 73 74 78 77 82 87 93 96 96 97 104 116 113  155 154 154 155 157 161 162 159 159 156 152 150 150 149 154 156 163 175 185 189 190 184 177 171 172 173 172 170 168 170 171 169 167 168 172 169 170 171 169 168 168 170 167 166 167 167 166 178 200 204 187 178 183 186 182 174 164 160 157 158 150 123 104 100 102 107 116 122 128 149 162 169 173 175 175 176 175 173 169 177 174 163 159 161 153 155 152 154 155 169 192 194 183 180 175 182 193 184 175 170 168 165 155 158 159 158 157 157 159 159 162 162 161 158 162 171 177 177 170 161 157 156 151 148 158 174 172 156 140 149 183 205 209 207 201 193 181 171 164 160 160 162 163 165 167 167 169 172 173 177 177 178 180 181 180 181 182 191 201 190 177 168 160 162 169 175 171 166 165 164 159 154 151 150 150 151 148 148 152 153 152 150 149 148 149 150 153 154 156 159 160 169 166 159 156 146 143 142 143 144 141 142 141 141 140 141 141 139 138 138 140 144 154 174 189 192 197 194 191 187 178 156 148 145 142 156 187 198 185 176 179 172 161 165 163 168 171 166 157 168 191 183 188 185 186 185 181 176 174 171 168 161 151 134 125 122 120 126 137 146 155 161 161 159 158 155 148 140 134 130 127 127 130 131 131 131 132 134 132 133 133 135 137 139 140 142 146 148 150 153 152 147 139 136 137 140 143 145 145 143 138 130 149 188 202 205 200 188 175 159 156 163 142 135 140 142 143 143 140 137 130 129 130 131 135 136 134 138 143 143 140 141 147 148 152 153 153 153 158 166 165 
39 29 35 42 49 57 60 60 59 52 45 25 7 12 25 34 44 46 52 66 76 80 79 72 64 53 47 37 29 25 22 18 14 10 3 0 0 5 10 16 35 45 48 56 63 62 71 94 119 125 93 32 10 13 0 6 34 49 51 74 85 79 64 82 82 57 35 35 40 45 54 55 57 58 64 65 61 50 45 43 23 0 25 47 53 38 29 29 24 41 77 62 18 0 29 52 75 64 3 16 27 21 12 1 0 0 14 25 31 35 38 37 38 40 51 61 53 41 25 21 29 35 34 33 33 43 35 18 28 50 64 70 79 87 74 41 18 14 16 17 21 33 49 60 61 57 56 59 60 55 51 43 37 31 28 23 19 20 57 88 70 21 0 3 31 47 34 2 2 41 57 54 48 45 42 38 32 31 28 25 23 17 16 19 20 23 24 25 21 18 24 12 1 0 0 5 13 8 6 2 3 0 1 8 11 16 23 20 19 17 26 39 53 60 61 60 56 59 63 60 46 28 5 2 5 37 90 80 34 13 20 6 6 4 24 36 31 27 5 15 12 48 60 43 25 14 5 1 4 7 14 27 37 35 20 9 8 6 5 1 0 0 0 0 0 0 0 3 7 6 10 11 7 11 20 22 22 27 31 36 35 32 32 28 20 4 0 0 1 7 20 27 29 24 23 19 11 3 0 0 1 0 2 40 85 113 118 97 74 49 27 35 62 52 36 38 42 43 44 44 39 25 9 0 0 0 0 0 0 0 0 0 0 0 0 0 0 0 1 0 13  106 104 105 112 119 120 118 117 117 109 99 97 97 104 110 113 114 120 127 130 129 129 129 128 124 121 119 114 109 107 104 102 100 100 96 97 100 99 100 105 109 108 109 113 116 122 139 161 164 144 122 120 124 121 117 117 116 112 125 138 130 96 104 107 75 61 89 110 118 122 120 123 126 126 130 127 122 119 117 121 103 107 112 114 110 103 105 103 116 140 136 125 123 128 127 139 146 124 114 111 108 107 100 85 91 102 108 115 119 121 121 117 118 123 127 128 120 109 109 110 111 109 107 107 115 121 111 107 116 144 163 165 166 152 126 110 103 104 106 106 114 125 132 132 130 131 129 130 129 127 120 117 113 110 109 109 113 142 162 142 117 92 100 133 138 123 97 106 126 130 126 120 121 118 115 116 117 115 110 107 103 96 89 90 94 97 98 97 100 102 104 113 94 87 88 90 88 88 87 86 84 84 85 85 87 93 93 93 95 100 105 114 122 133 141 145 150 148 144 137 126 104 96 96 122 150 145 128 121 120 108 101 89 119 130 116 114 108 93 98 134 137 131 135 136 128 122 122 122 124 128 131 128 119 110 105 99 96 91 88 85 86 88 87 86 87 89 90 85 82 78 76 79 83 84 85 89 92 94 95 95 95 90 86 77 64 60 67 81 86 91 94 92 92 94 90 83 79 74 70 66 74 117 150 165 171 165 155 142 126 123 135 107 85 87 91 93 93 93 91 87 81 76 75 76 75 77 75 73 74 76 72 73 82 87 89 94 96 93 101 111  156 156 153 156 158 161 162 160 160 159 154 151 150 152 156 158 164 171 177 182 185 184 182 179 180 179 175 169 169 170 169 166 163 161 161 161 163 163 164 167 168 170 170 172 171 174 188 205 210 197 180 177 182 181 173 169 165 161 165 175 166 109 109 111 79 62 86 108 123 148 167 170 173 175 175 174 169 168 169 182 173 163 156 158 154 152 151 150 160 183 189 186 183 182 180 188 194 183 169 163 159 159 160 154 157 157 156 158 160 160 162 162 161 165 173 178 177 171 162 159 158 157 155 154 167 176 169 159 163 184 203 205 205 199 185 171 160 157 158 160 167 172 176 179 179 180 182 185 182 182 179 176 175 176 174 173 179 194 203 191 174 160 157 167 171 170 159 161 161 159 157 154 153 151 153 157 158 155 156 154 151 148 145 144 146 149 152 151 153 155 159 172 164 159 148 140 138 138 139 139 138 138 139 139 138 137 139 137 138 143 152 162 173 185 191 194 193 188 186 184 179 164 154 151 171 194 194 178 176 176 170 162 153 164 167 165 170 165 157 151 179 183 176 183 185 184 183 180 179 181 184 185 180 172 169 163 155 150 144 142 143 148 153 157 158 157 156 153 150 145 137 130 131 133 134 135 138 140 143 147 149 149 146 143 135 131 130 135 142 146 149 149 143 142 144 147 146 143 137 132 127 134 167 189 201 204 198 191 183 176 174 175 154 136 138 142 143 144 142 140 135 127 125 127 133 135 135 135 138 141 142 140 138 143 147 149 151 152 152 154 162 
28 32 34 37 45 52 58 60 58 51 43 32 18 18 29 42 48 47 48 53 56 55 61 71 73 62 41 28 28 33 47 60 67 70 64 53 45 29 20 18 19 11 7 8 8 21 69 110 126 115 62 7 1 0 11 41 58 66 91 110 108 81 46 65 53 33 15 21 28 33 54 57 54 56 60 56 52 54 53 40 5 2 33 42 53 50 32 29 51 77 41 5 0 40 102 88 81 45 1 21 28 26 27 17 1 0 6 26 31 35 34 32 36 48 58 52 37 27 22 30 38 41 43 45 47 49 31 34 68 79 68 69 90 85 52 32 41 53 60 62 55 53 47 39 30 19 15 13 10 3 1 0 0 0 0 0 0 1 29 59 71 46 4 7 33 40 33 3 2 32 44 47 44 44 47 44 39 36 35 30 27 25 18 14 18 23 27 29 22 13 16 11 6 0 0 4 8 6 1 0 0 1 0 5 12 18 20 17 22 36 49 59 61 55 53 49 49 60 65 51 34 25 14 19 58 90 64 23 11 20 13 11 9 14 7 35 31 34 6 3 12 31 38 20 29 42 25 4 1 0 0 0 5 8 3 3 9 13 15 9 8 2 0 0 0 0 0 0 0 0 4 15 29 36 38 33 33 34 37 41 38 27 20 16 6 0 0 0 0 0 2 12 25 38 42 34 19 7 0 0 0 2 26 67 98 109 99 92 81 54 43 43 46 49 43 34 38 45 46 47 45 37 25 7 0 0 0 0 0 0 0 0 0 0 0 0 0 0 0 0 1  107 105 109 113 118 123 124 118 115 111 105 100 101 107 115 116 114 118 119 119 122 125 130 132 127 122 118 115 113 112 118 122 125 124 116 116 115 110 106 109 106 102 100 96 105 130 155 167 156 131 117 119 119 116 118 124 129 139 151 150 136 95 94 98 73 43 58 96 115 121 125 124 125 124 125 120 122 124 125 117 99 105 104 110 113 105 103 121 143 133 128 117 128 157 144 142 140 121 114 113 111 109 111 95 89 102 108 111 114 114 116 115 121 131 128 120 113 108 110 113 117 115 114 116 123 118 118 135 153 158 163 171 161 132 118 118 125 130 130 129 129 127 122 115 112 107 105 105 100 99 97 100 101 104 103 103 109 129 145 137 118 99 106 126 130 122 99 103 113 116 118 120 122 123 123 123 124 122 118 111 106 95 87 88 92 94 97 95 97 100 106 112 89 87 85 83 80 82 83 81 82 85 84 86 88 89 92 100 108 113 118 124 130 137 142 145 152 151 144 135 124 114 112 133 151 139 126 123 118 107 110 105 97 94 129 121 123 113 93 98 117 132 119 130 148 136 118 111 112 113 116 119 120 117 118 119 119 120 114 108 103 97 93 88 82 82 84 84 86 89 93 90 88 88 90 97 106 110 109 107 98 90 82 72 65 58 54 57 65 68 80 88 95 100 98 92 82 73 69 67 72 103 139 157 163 164 166 158 137 131 124 121 107 90 80 86 93 94 94 93 94 88 79 72 73 77 79 74 73 74 72 73 76 74 77 84 87 90 93 93 94  157 155 152 153 157 161 162 162 162 160 157 153 153 156 161 163 165 169 174 175 176 179 183 185 185 179 174 170 169 171 173 174 175 172 166 164 160 157 158 161 161 161 162 163 166 183 204 212 205 187 176 182 180 176 174 174 175 185 192 184 170 109 98 96 73 45 59 96 111 135 163 170 173 173 171 169 169 167 172 181 168 158 152 155 157 150 148 167 194 189 185 178 179 198 192 191 193 179 163 160 157 154 159 158 155 160 158 158 159 159 160 162 167 175 178 176 168 160 156 157 159 161 161 164 174 177 176 182 192 202 206 208 203 189 178 173 174 175 178 178 181 181 178 178 174 174 172 173 171 168 168 167 165 165 166 167 172 181 190 188 176 161 158 164 169 169 158 158 153 152 153 154 156 157 159 162 164 161 160 156 152 149 142 142 144 148 152 151 150 151 163 175 163 156 140 136 133 133 135 135 136 138 140 138 136 135 137 144 150 161 173 182 187 188 192 195 194 191 186 181 180 174 168 186 199 186 175 177 174 162 160 162 159 154 168 165 174 168 154 148 162 179 169 178 189 184 175 170 168 170 174 176 177 178 180 180 179 177 174 167 160 154 152 151 154 155 156 156 155 154 152 148 145 144 143 147 151 154 158 156 153 148 142 134 126 121 119 120 122 132 144 149 149 150 151 149 144 137 127 124 128 154 182 193 200 201 198 188 177 173 171 165 156 143 136 139 142 144 144 142 138 132 126 123 128 134 137 138 138 138 138 141 139 138 140 145 149 151 152 151 153 
6 36 35 39 46 50 55 60 59 54 48 37 31 31 35 44 50 45 39 41 43 45 57 66 58 45 34 31 29 30 32 34 44 58 66 66 68 68 64 62 59 50 45 38 45 75 109 121 118 94 32 0 1 0 11 37 70 91 93 78 71 69 40 29 40 36 17 11 9 25 40 52 56 58 58 60 60 64 68 48 5 16 42 46 61 54 56 77 70 27 6 14 34 61 86 98 85 26 5 34 35 35 40 31 12 0 0 8 26 31 34 40 50 58 50 37 28 29 36 38 40 41 39 37 49 64 62 71 74 67 62 82 104 91 72 64 60 51 35 19 9 4 0 0 0 0 0 2 6 6 11 19 23 25 29 26 14 7 13 26 54 64 24 10 35 39 24 0 1 23 35 38 41 46 49 50 46 40 38 34 30 28 26 23 21 26 29 30 21 9 12 3 1 0 0 2 8 3 0 0 0 0 3 7 10 16 22 35 51 60 59 54 48 41 36 39 45 56 64 50 30 22 24 45 64 42 21 14 27 28 13 22 15 13 6 19 40 47 16 2 25 32 23 0 18 51 38 33 31 23 15 7 1 0 0 0 0 1 2 2 5 4 6 4 2 1 0 0 0 0 0 0 2 16 41 50 51 53 44 26 10 1 0 0 0 1 0 0 0 0 0 3 8 20 33 40 42 38 25 15 16 29 51 86 105 85 61 65 60 36 27 27 29 44 55 39 34 42 46 46 44 41 31 19 6 0 0 0 0 0 0 0 0 0 0 0 0 0 0 0 0  111 112 112 114 116 120 124 120 117 115 106 104 106 110 117 118 115 114 117 114 117 124 125 123 122 123 124 121 118 112 109 111 119 122 121 121 124 125 121 122 120 117 113 117 137 156 164 161 143 120 112 113 109 109 114 131 141 144 140 143 142 106 75 93 96 65 47 65 97 110 124 126 124 121 125 126 128 129 133 113 105 113 113 119 114 119 138 140 134 128 116 112 128 147 154 150 134 116 117 119 115 112 108 107 98 93 98 111 114 113 117 125 129 125 119 113 111 113 112 114 114 114 106 113 130 135 146 155 156 150 154 160 148 137 134 132 128 120 109 101 97 94 91 94 97 96 99 102 102 104 107 109 110 110 108 104 100 105 115 124 124 105 106 120 124 119 95 94 102 106 111 117 120 123 127 128 127 123 118 111 107 101 92 88 90 94 97 93 97 96 102 103 86 81 79 78 78 78 78 78 79 83 84 84 87 97 107 116 122 130 130 130 132 135 138 141 146 147 142 134 127 123 130 134 128 125 119 123 112 106 122 113 106 90 109 126 128 119 101 107 111 119 110 123 145 126 110 106 101 94 92 92 91 96 105 111 118 122 120 119 117 113 109 105 100 93 89 88 86 86 87 86 90 97 99 104 110 106 96 83 71 67 68 63 63 59 56 57 61 70 81 85 87 93 97 107 107 93 83 83 102 130 152 159 143 136 143 125 102 104 106 102 100 99 85 82 88 94 95 95 94 90 84 75 71 73 74 73 74 71 70 71 76 77 71 75 81 86 91 96 94  155 152 151 153 157 162 164 164 164 162 160 159 158 160 163 167 168 168 169 168 171 178 182 181 178 179 179 175 170 166 165 169 173 176 175 174 171 166 163 161 157 156 155 161 183 204 210 206 195 180 178 180 173 168 173 186 195 197 190 183 170 121 80 91 91 60 42 60 87 103 134 167 176 173 172 170 172 173 180 177 167 162 160 164 160 163 183 190 187 183 170 160 171 188 197 195 189 175 161 159 158 159 156 159 160 159 159 158 158 160 162 169 176 180 177 169 163 158 158 158 161 162 161 169 182 190 196 201 202 200 199 201 196 189 186 184 184 179 173 169 166 164 161 159 160 160 162 159 160 159 158 159 158 158 158 159 159 160 168 178 181 167 156 159 165 168 157 154 142 143 148 154 159 160 162 166 166 163 161 158 154 150 143 140 143 147 151 151 150 151 163 171 160 150 134 132 129 130 130 131 135 136 138 137 134 140 153 164 173 181 185 187 189 189 192 192 189 189 187 183 179 177 184 190 182 177 173 171 160 154 159 165 166 155 160 170 179 172 153 151 153 168 163 173 191 170 155 153 149 145 145 148 151 157 163 170 177 181 182 181 179 175 170 165 161 159 159 157 157 156 154 152 152 154 154 153 156 156 150 142 135 129 125 122 118 116 117 116 119 129 142 148 145 146 149 150 150 144 134 136 153 178 192 195 188 187 183 164 150 153 154 153 153 150 139 137 140 142 143 142 138 136 129 124 123 126 134 138 138 137 136 137 142 140 137 137 143 148 150 152 151 
0 34 37 41 47 51 57 60 60 60 54 45 39 37 40 42 43 38 35 37 44 54 57 46 30 22 21 23 23 37 44 35 23 21 29 33 41 57 70 74 75 73 63 67 89 114 117 117 111 67 5 0 1 23 66 92 93 67 40 32 37 42 47 34 31 25 27 10 10 31 26 36 35 32 29 33 34 36 43 35 14 45 58 58 61 71 79 53 17 15 35 53 69 63 72 99 72 17 23 41 40 38 34 31 29 8 0 0 21 36 46 56 56 47 32 23 27 32 32 30 28 25 28 41 67 87 88 84 81 77 77 71 56 35 27 16 5 0 0 0 0 0 7 17 24 28 30 31 35 31 33 36 36 34 33 30 15 3 7 23 36 56 49 19 29 30 18 0 1 21 29 31 42 43 44 47 46 43 37 34 30 29 32 33 28 27 32 28 20 11 10 1 0 0 0 1 2 2 0 0 0 1 0 4 15 37 53 58 60 56 48 35 25 22 26 41 36 34 51 39 27 19 24 34 31 22 15 35 46 19 18 32 26 9 9 4 30 52 25 13 38 36 22 0 9 20 18 38 40 39 32 27 22 14 10 8 5 1 1 1 0 0 1 1 2 3 1 0 0 0 0 0 0 0 2 15 32 48 65 66 47 23 10 1 0 0 0 0 1 2 6 7 0 0 7 18 37 51 55 54 43 41 66 98 95 55 31 32 28 15 8 10 19 33 53 49 37 36 43 45 41 41 36 28 19 7 0 0 0 0 0 0 0 0 0 0 0 0 0 0 0  111 112 112 116 118 117 120 122 120 119 113 106 106 112 114 113 113 113 115 116 122 122 116 112 117 124 124 120 120 120 113 103 104 108 107 109 118 123 126 129 126 123 125 140 156 162 161 154 132 109 110 113 116 132 146 143 135 132 133 135 132 122 96 87 89 87 59 51 80 93 112 114 113 109 114 117 116 119 128 110 121 128 129 126 134 141 136 132 125 117 115 125 126 133 152 147 133 124 115 115 112 110 107 105 103 90 91 107 112 117 126 129 121 114 111 108 106 110 107 104 102 104 110 133 151 157 155 149 146 139 129 121 118 124 118 107 96 89 88 88 89 96 102 104 105 107 109 110 107 109 111 111 109 107 106 101 98 103 112 116 122 117 107 113 118 113 89 93 95 97 101 113 120 122 126 128 128 123 118 115 111 108 101 91 93 96 96 92 96 98 103 99 87 82 75 75 76 72 72 74 78 81 84 91 105 118 123 128 133 134 129 124 124 124 132 127 126 130 129 130 128 123 126 123 118 108 120 126 110 113 125 119 108 102 91 118 130 122 116 125 114 112 106 117 123 108 112 107 103 95 92 89 83 85 90 92 98 106 112 117 119 121 119 116 114 108 102 96 89 85 85 86 83 83 90 99 105 109 110 99 81 71 64 60 60 60 62 68 80 82 84 83 81 78 87 107 123 127 127 122 125 141 158 145 119 116 109 89 77 81 90 96 96 100 95 85 86 91 92 93 93 90 87 83 75 69 67 70 73 71 69 70 70 75 74 69 74 81 85 88 94  156 153 152 155 159 163 163 162 166 166 164 163 161 162 164 168 166 166 167 172 177 179 176 175 178 181 185 180 174 169 164 162 164 167 169 169 171 173 173 171 167 161 163 180 202 209 206 201 188 176 174 171 167 179 194 195 191 186 184 182 172 147 103 85 84 84 57 44 76 87 111 150 170 170 170 171 171 174 183 174 173 175 176 173 177 191 191 187 180 169 165 170 171 179 195 193 186 178 163 161 162 160 157 157 160 157 158 160 162 166 172 175 178 176 170 164 161 160 159 160 160 165 171 184 196 202 203 199 195 190 183 181 179 181 179 173 166 160 156 154 154 152 153 152 153 155 155 156 158 158 156 156 157 155 156 156 159 162 165 169 177 173 159 153 160 166 155 150 135 136 144 155 160 159 161 166 166 163 161 157 154 153 148 142 143 146 151 151 151 152 166 166 157 142 130 129 127 132 130 129 131 133 134 139 151 164 175 184 188 187 184 183 179 178 185 182 173 172 175 179 179 178 180 176 176 166 167 166 153 156 161 164 163 164 156 167 181 176 156 156 154 164 165 170 177 161 153 153 152 149 143 140 139 140 141 145 154 163 170 175 178 180 180 177 173 171 164 161 159 160 161 157 151 149 151 153 159 164 163 156 140 127 118 114 115 118 123 129 135 140 144 142 137 134 138 148 157 156 148 153 166 184 193 187 175 171 160 142 131 133 140 148 151 151 145 137 138 141 142 142 140 138 134 131 124 120 124 131 136 138 135 133 138 139 139 139 139 141 146 149 151 
0 32 35 40 44 51 64 69 67 59 54 45 37 36 33 34 36 30 39 51 54 50 32 17 8 6 4 3 5 15 33 43 36 24 28 27 24 32 43 52 65 72 84 101 114 116 112 113 98 39 0 11 48 87 91 62 38 29 27 30 41 40 51 56 30 15 16 5 12 21 12 20 27 22 17 18 11 6 16 16 26 45 35 41 71 72 32 11 2 8 19 20 27 35 56 91 49 7 32 34 30 32 28 25 24 13 1 0 3 37 56 51 36 17 8 13 21 22 26 32 34 41 60 82 98 99 85 75 62 41 22 5 0 0 0 1 6 10 12 6 4 9 23 33 37 35 34 35 34 34 32 33 32 30 27 23 8 1 7 23 35 41 63 37 19 26 16 0 1 23 28 32 40 41 44 42 43 44 38 31 32 32 32 36 34 30 33 32 23 16 8 0 0 0 0 0 2 4 3 0 0 0 10 32 54 66 67 58 49 37 24 16 11 16 20 47 26 5 23 43 45 19 16 26 29 17 31 55 35 17 30 40 30 16 10 8 7 46 30 15 40 34 21 2 2 5 7 22 21 19 19 18 15 13 14 14 12 7 5 7 4 3 1 0 0 0 0 0 0 0 0 0 0 0 0 0 0 4 14 36 61 69 74 66 48 25 10 3 1 1 2 3 1 1 0 0 16 34 48 57 46 53 86 98 71 36 24 24 19 11 1 2 10 20 38 52 47 36 39 41 41 42 40 36 26 18 11 2 0 0 0 0 0 0 0 0 0 0 0 0 0  108 109 113 117 121 126 128 124 121 120 111 105 104 106 112 111 109 114 119 119 116 113 110 112 114 118 114 112 113 116 115 109 106 107 105 106 107 111 117 120 126 134 145 157 158 156 156 147 122 105 115 127 140 143 135 129 130 127 121 120 117 121 121 99 85 85 71 60 64 71 88 102 100 103 108 106 105 119 121 116 122 117 124 140 144 135 127 114 109 111 111 115 117 126 147 138 128 128 117 108 106 106 101 102 103 95 94 99 110 121 122 115 106 103 103 101 103 107 108 109 118 129 145 154 151 141 136 133 121 107 101 102 107 104 97 92 95 97 95 95 99 102 106 105 105 103 107 109 105 105 105 107 106 104 102 99 98 103 114 114 110 122 107 102 118 111 89 94 97 96 100 110 117 122 124 127 129 123 117 118 115 110 107 101 97 99 97 92 97 101 106 95 86 82 75 73 74 74 73 75 82 92 106 118 126 129 132 134 131 124 116 110 108 108 128 112 103 110 132 138 125 122 122 121 108 113 129 116 108 117 123 120 113 106 94 98 131 126 119 126 116 106 107 111 114 98 95 95 92 91 87 85 85 88 89 90 89 89 96 101 109 114 115 116 118 114 110 99 94 96 93 90 85 84 82 81 82 89 102 112 117 115 105 94 78 71 76 82 84 82 79 75 68 64 71 90 113 131 142 136 137 151 148 125 114 110 93 85 81 78 81 88 92 96 96 90 86 89 91 92 92 91 92 89 79 72 64 63 64 69 72 70 70 70 69 70 75 76 76 82 88  152 151 154 156 160 165 167 170 170 167 165 165 164 164 164 166 168 171 174 178 177 173 173 176 179 182 181 176 172 171 170 166 161 159 160 162 164 166 171 174 174 176 189 201 206 203 202 197 181 170 170 177 189 196 188 185 185 180 174 170 164 158 143 108 90 88 70 60 66 68 89 124 144 155 168 168 165 176 181 176 177 173 176 187 194 190 186 176 169 169 169 168 170 177 193 189 183 183 168 163 161 161 159 158 161 159 159 161 166 174 176 176 172 166 162 161 160 160 162 167 173 185 195 199 196 192 189 186 180 173 169 170 171 171 160 151 151 152 151 152 155 152 154 153 154 154 154 155 155 155 155 155 157 155 156 155 157 161 167 165 166 176 165 150 159 165 155 150 138 136 142 153 159 160 159 161 164 162 158 157 154 152 152 150 148 150 153 151 151 157 168 164 156 137 129 128 125 130 131 131 133 137 150 162 175 184 189 189 187 182 175 168 162 161 180 174 157 151 178 187 177 176 176 176 163 157 168 162 151 157 163 161 163 166 159 156 181 180 162 161 159 163 168 164 170 160 153 153 153 149 149 148 146 146 145 143 143 149 153 158 165 170 176 179 178 174 167 163 160 161 165 162 158 154 151 147 147 149 158 167 168 164 156 144 133 130 135 139 142 143 141 135 128 123 124 134 147 153 152 155 170 188 189 176 169 160 143 134 130 125 128 138 147 148 149 142 137 141 142 141 140 139 135 131 128 122 119 123 129 134 136 134 133 134 137 138 138 138 141 145 149 
0 30 34 38 43 54 78 88 81 70 63 49 38 31 26 29 36 44 50 49 37 18 5 2 0 0 0 0 0 0 7 24 39 40 39 38 34 37 41 42 52 68 93 113 115 106 108 108 80 22 24 74 82 54 26 21 25 35 43 49 55 57 65 68 55 42 29 17 13 9 4 5 21 25 28 39 39 28 31 35 39 28 43 73 56 21 10 1 0 0 0 0 1 0 43 84 23 1 20 27 24 18 16 15 12 11 5 0 0 14 47 31 9 0 1 8 12 21 36 54 71 90 100 100 80 46 21 11 4 0 0 18 55 61 35 28 36 37 31 24 21 26 35 40 40 38 37 36 37 34 34 33 32 30 27 22 13 8 13 25 36 30 54 57 20 22 12 0 2 21 26 27 36 41 44 44 43 41 37 32 32 31 32 37 32 29 34 35 29 17 5 0 0 0 2 2 4 7 3 1 9 27 50 66 68 61 51 37 22 16 14 15 15 16 23 62 27 13 61 75 44 18 11 16 21 27 40 42 15 17 42 46 37 26 6 13 2 33 42 17 39 34 25 4 0 5 6 14 8 2 4 2 0 1 2 1 0 0 0 0 0 0 0 0 0 0 0 0 0 0 0 0 0 0 0 0 0 0 0 1 10 16 31 54 66 79 80 63 43 23 5 0 0 0 0 0 2 4 13 28 44 80 102 86 51 31 23 21 20 11 1 0 1 14 27 41 51 40 36 37 40 46 42 40 34 27 18 10 3 0 0 0 0 0 0 0 0 0 0 0 0  107 112 113 117 124 143 151 138 131 123 115 108 103 103 110 113 119 121 120 114 110 111 110 113 112 110 106 102 101 105 107 108 109 114 115 112 111 112 113 115 128 143 155 157 151 153 152 137 116 120 137 138 132 129 131 127 124 117 114 116 118 124 125 123 114 105 99 89 63 55 71 97 100 106 114 114 114 130 124 117 109 124 143 141 134 126 100 97 99 98 100 99 100 123 144 131 123 120 115 108 99 97 99 99 100 99 97 102 103 117 110 102 99 96 98 96 102 115 129 139 146 149 147 134 118 112 112 106 95 97 120 152 144 122 109 108 109 109 107 105 105 109 110 111 109 106 106 109 107 104 107 107 104 105 105 101 99 104 115 111 101 118 119 101 115 108 93 95 98 99 102 109 117 123 122 121 125 122 115 116 115 114 113 111 106 103 100 97 96 104 104 89 88 85 79 74 74 80 82 92 109 122 130 135 137 134 130 124 117 109 97 91 94 99 131 111 111 137 146 136 127 121 116 115 109 115 120 104 107 119 119 116 115 108 105 92 126 133 121 122 116 108 107 109 117 102 93 88 84 83 81 78 80 77 79 79 78 76 77 78 85 87 92 97 103 104 103 99 101 106 107 105 96 92 86 83 79 77 81 85 87 96 106 110 117 119 109 99 90 80 66 61 58 57 62 72 84 103 122 133 154 157 135 118 113 99 87 89 87 82 80 81 92 97 97 96 87 86 88 88 93 93 92 89 83 78 71 64 61 62 70 74 73 69 67 69 72 74 71 76 81  149 149 154 156 160 167 172 178 179 176 170 167 166 164 165 168 171 175 176 175 174 174 176 177 177 174 171 168 165 166 166 166 165 165 161 158 158 160 161 164 173 188 201 205 200 199 200 191 175 176 188 193 190 186 184 181 173 169 164 163 163 166 167 158 143 127 109 99 70 53 85 134 145 154 164 164 164 181 179 168 162 176 193 193 190 183 166 162 166 165 165 167 164 176 194 187 181 180 172 165 160 157 156 157 158 160 161 163 161 175 173 166 161 159 157 157 159 164 177 187 192 193 193 186 179 178 176 173 167 164 175 191 188 176 162 155 157 160 160 161 161 158 159 157 157 157 157 157 156 157 158 158 159 159 159 158 161 163 167 163 159 173 174 156 161 164 156 152 143 141 143 148 156 161 161 161 162 160 155 155 156 155 156 157 154 154 157 153 152 162 167 161 155 140 132 129 129 132 133 137 150 168 180 186 190 190 188 182 174 165 155 148 143 149 180 171 168 187 199 188 177 175 175 175 168 164 168 158 154 161 163 161 162 163 166 154 175 183 166 160 160 160 166 165 170 157 148 145 146 143 143 141 141 141 141 139 139 138 138 140 143 147 154 158 162 165 165 163 162 167 171 168 165 160 158 153 148 145 143 146 149 153 160 163 169 167 159 155 150 141 130 123 118 117 119 126 133 138 144 159 184 191 179 169 165 149 136 132 130 125 123 130 140 146 149 148 140 138 140 140 137 137 137 134 130 125 119 120 124 128 131 135 135 133 136 136 137 139 140 140 144 
0 27 34 41 45 52 62 59 54 53 54 53 47 41 37 40 47 50 37 22 7 0 0 0 1 3 4 3 1 0 0 3 17 29 41 48 48 45 46 49 66 95 114 114 100 94 103 98 56 39 64 60 36 27 35 42 47 63 62 59 64 69 68 63 68 60 47 27 24 26 8 0 16 33 39 48 50 50 38 20 50 79 77 33 18 23 30 19 13 7 9 9 3 11 70 62 6 4 13 18 19 18 17 11 14 11 21 9 23 21 9 10 2 5 5 10 26 53 79 92 94 81 60 29 5 0 0 0 0 6 22 44 72 77 50 32 32 26 25 21 19 22 29 30 29 30 30 30 29 30 31 32 29 26 23 20 17 14 16 19 23 20 32 63 24 17 11 0 4 21 25 30 34 40 43 41 40 36 35 31 33 34 31 31 30 31 34 39 34 21 3 0 0 2 9 10 13 12 9 22 46 66 70 64 57 41 25 15 11 11 10 13 21 23 26 59 55 74 75 46 35 14 3 11 19 28 41 37 13 28 50 48 39 34 20 9 13 28 49 17 42 41 36 7 0 2 3 20 23 16 13 12 12 11 4 7 6 3 0 1 1 0 0 0 0 0 0 0 0 0 0 0 0 0 0 0 0 0 0 0 0 0 3 5 17 28 33 50 64 71 61 51 38 20 9 1 0 0 0 2 47 94 95 67 38 19 16 14 12 9 2 0 0 6 18 30 47 47 34 32 37 42 43 42 38 33 28 20 12 1 0 0 0 1 0 0 0 0 0 0 0  105 108 112 117 121 132 132 126 124 122 123 118 110 110 114 117 119 116 113 111 111 110 109 113 112 107 106 102 95 92 94 99 103 111 119 118 117 118 120 129 143 155 155 147 145 149 141 127 121 131 134 131 131 131 130 124 128 125 118 118 125 128 125 128 127 119 108 103 88 72 75 95 105 108 115 115 127 127 106 121 141 145 137 133 118 106 100 98 96 96 99 93 101 136 139 120 117 117 113 109 103 99 98 100 98 104 103 117 115 106 101 99 101 98 101 106 124 143 148 141 134 125 111 99 90 91 93 93 100 107 122 151 149 129 112 109 108 109 107 105 103 109 110 108 108 107 107 107 105 103 107 110 106 107 111 112 107 106 108 107 105 112 124 104 115 108 96 96 101 101 104 108 113 121 120 116 114 113 110 114 118 118 115 113 108 105 107 100 98 106 97 86 93 92 91 88 88 92 105 123 133 136 138 138 134 124 115 109 99 92 87 89 93 97 132 133 147 149 137 134 120 113 119 118 115 119 115 102 112 121 117 114 113 112 106 98 117 136 122 125 122 115 107 104 114 103 100 97 95 90 85 85 88 83 81 80 80 79 78 78 81 81 81 84 86 85 91 95 101 108 115 116 109 103 93 88 86 85 83 84 84 83 81 86 92 98 109 112 118 115 104 94 81 71 62 59 68 80 95 129 157 143 121 114 103 91 85 89 89 83 82 81 87 95 96 100 92 85 85 86 89 91 92 89 86 83 75 67 62 59 65 71 75 73 71 70 68 71 71 74 76  150 151 156 161 164 167 168 172 175 177 175 174 171 168 171 174 175 175 173 175 178 178 177 174 169 164 164 164 159 157 159 160 163 167 170 166 159 157 156 166 183 200 203 197 192 196 194 182 179 186 189 186 185 184 178 168 167 166 167 167 171 171 173 174 169 161 139 120 96 84 103 139 153 159 165 161 174 183 165 165 186 196 190 186 172 158 153 152 155 155 155 158 158 185 192 180 174 175 173 167 162 155 151 155 156 160 163 171 171 166 162 156 155 155 155 161 172 181 190 191 185 180 174 168 163 163 163 163 161 165 176 190 191 180 168 163 164 163 164 164 165 165 164 164 163 162 161 161 160 161 161 162 164 165 166 165 168 166 165 166 163 169 178 165 168 164 160 150 141 141 141 146 152 156 158 159 159 156 153 154 158 158 158 158 155 154 158 156 152 164 165 157 154 146 143 140 139 141 152 167 179 188 193 192 189 183 174 165 156 145 140 142 142 147 179 184 199 199 188 186 177 170 172 173 172 170 167 156 158 164 165 162 158 163 166 160 170 185 168 164 161 161 164 162 166 160 151 144 142 141 141 140 138 138 137 136 135 135 132 131 134 135 137 137 141 146 150 152 157 167 176 176 173 166 162 159 156 156 152 148 148 147 148 148 153 156 164 168 169 166 158 149 138 131 124 122 127 133 139 166 190 185 170 166 154 143 137 134 130 127 124 127 134 143 149 152 146 138 137 138 137 136 138 138 134 128 124 124 123 125 127 131 135 135 136 135 138 139 141 140 141 
0 33 34 38 42 43 42 36 36 39 43 45 43 45 48 49 44 28 8 0 0 0 0 2 13 20 26 25 14 3 0 0 0 6 27 47 58 66 80 93 105 112 108 93 80 87 99 77 22 22 35 33 33 43 56 58 63 70 69 70 70 73 67 61 61 53 47 32 21 19 8 3 13 21 36 57 65 40 2 47 85 55 12 12 39 57 50 30 27 26 24 27 23 55 85 32 1 18 20 17 17 21 22 22 26 35 49 35 57 45 0 10 19 21 30 50 77 90 81 62 32 9 1 0 0 1 1 0 1 8 11 18 41 71 59 29 15 8 6 4 5 8 13 17 16 14 15 14 13 17 16 16 13 7 4 3 3 3 2 1 2 4 9 50 44 14 8 0 5 23 25 27 33 39 42 40 37 30 25 27 31 31 29 29 30 33 35 41 36 22 3 0 0 10 19 21 24 31 47 64 70 69 60 47 31 17 14 17 15 17 19 24 28 24 35 82 82 57 46 34 8 0 5 11 16 23 33 28 24 48 59 51 44 39 33 13 9 30 53 21 47 46 43 11 0 0 3 26 30 24 19 18 23 19 12 14 11 7 4 1 1 2 4 2 3 5 6 8 8 5 2 1 2 2 0 0 0 0 0 0 1 1 2 0 0 0 0 7 20 38 45 58 67 69 63 57 42 23 8 1 55 93 77 51 25 12 13 10 8 4 1 0 1 4 8 23 41 51 38 25 32 36 41 39 41 40 36 32 23 4 0 0 2 2 3 1 0 0 0 0 0  106 110 115 115 117 119 117 118 116 117 121 120 116 117 116 114 111 110 109 108 111 114 111 113 110 110 107 103 101 93 90 90 94 104 116 123 128 134 144 151 155 153 144 137 140 141 132 116 122 132 136 131 126 123 123 124 126 125 125 125 127 129 128 127 123 116 106 99 95 90 90 92 96 110 121 129 130 99 122 150 146 133 126 114 111 109 100 97 97 98 101 103 125 147 133 109 109 113 114 111 109 107 104 103 107 118 114 126 122 114 110 103 103 109 120 134 141 134 125 111 100 96 93 94 94 98 97 98 102 102 101 119 142 131 108 102 100 98 97 99 98 100 106 102 102 102 104 105 104 102 103 107 106 105 107 106 107 106 105 102 104 106 121 112 109 108 99 100 104 103 105 110 113 117 117 115 108 104 107 111 115 117 115 112 110 106 107 99 101 110 91 89 99 101 101 104 114 129 137 137 138 140 139 131 119 110 104 97 93 92 94 98 101 115 151 150 140 140 132 107 92 107 115 121 118 120 113 109 123 124 118 115 111 110 106 100 117 137 120 125 126 119 111 104 107 104 102 98 96 92 87 88 90 87 86 82 80 79 74 79 82 84 83 83 84 83 84 88 93 99 110 113 113 112 106 99 94 88 88 91 93 96 91 82 72 68 76 85 104 109 114 120 120 117 109 97 89 83 87 130 146 125 113 107 91 85 85 86 87 88 85 85 85 88 99 104 102 90 82 85 86 88 92 91 90 88 81 75 68 63 63 68 72 73 74 71 69 71 73 72 73  155 157 159 163 166 168 170 170 172 173 172 172 172 174 176 176 173 173 177 180 179 175 172 167 163 161 161 159 155 156 156 155 158 163 171 175 177 179 185 194 201 201 195 187 189 192 186 174 179 189 190 184 175 171 167 166 168 169 172 173 176 173 172 173 167 162 151 126 114 115 120 128 137 155 166 172 184 168 171 195 198 188 178 165 158 156 150 148 148 149 152 152 170 194 187 174 162 165 170 171 167 162 155 154 159 167 167 178 180 172 161 152 154 160 170 181 185 182 179 174 168 166 165 164 161 159 158 157 157 159 159 174 186 182 171 161 159 158 158 159 161 163 161 163 163 162 162 162 164 163 164 164 164 166 167 166 167 164 162 162 164 166 174 171 166 167 164 151 141 141 142 146 151 152 152 152 152 149 153 158 161 161 160 159 156 156 160 158 155 167 161 155 152 148 148 149 153 168 181 189 192 194 192 183 176 168 156 149 144 144 145 147 145 161 196 198 189 186 183 169 155 161 168 171 172 173 168 161 165 168 165 163 159 160 162 160 172 187 168 165 165 164 164 160 163 161 154 149 144 140 139 141 138 136 135 134 134 133 130 130 132 133 134 134 134 137 139 141 145 156 165 174 177 174 169 165 159 157 157 157 157 154 150 143 137 132 140 150 163 165 170 173 172 169 164 155 150 141 143 175 186 175 166 159 144 139 136 133 130 127 126 126 128 136 147 153 152 142 134 134 136 136 137 138 136 134 132 130 127 123 126 127 129 133 136 136 135 137 138 139 140 
0 36 35 31 34 34 37 39 40 41 43 47 48 44 40 26 12 2 0 0 2 11 19 31 37 44 52 58 60 57 47 20 0 0 4 28 54 76 95 110 113 97 78 61 65 89 93 48 28 42 40 30 39 60 67 66 67 73 71 71 64 58 61 60 55 51 47 39 30 20 6 12 15 15 31 56 45 15 57 81 40 11 22 52 59 54 52 39 24 21 23 30 45 85 73 6 9 36 36 30 24 22 26 31 41 53 47 31 45 31 6 8 40 60 79 83 69 42 13 1 0 1 7 2 0 0 3 3 5 7 8 10 22 59 65 28 10 9 2 0 0 2 11 16 17 18 18 19 17 21 20 16 11 6 0 0 0 0 2 2 0 0 3 31 63 19 0 0 8 28 25 27 30 33 35 38 33 27 19 20 28 29 28 31 31 31 33 41 39 20 1 0 2 18 25 29 44 64 75 74 66 55 36 21 16 20 21 27 35 38 36 31 26 44 77 73 58 52 28 2 0 0 11 14 16 16 20 21 33 59 64 56 48 44 39 24 5 29 63 23 46 49 48 23 0 0 0 21 34 27 21 15 14 11 6 5 4 5 5 1 0 4 5 5 7 9 13 17 18 14 9 4 0 0 0 2 0 0 0 0 0 0 0 0 1 0 0 0 0 0 3 9 17 33 52 72 78 80 70 55 69 81 62 35 8 2 10 12 9 1 0 2 3 9 11 21 34 43 48 31 26 30 36 37 42 42 41 39 29 13 1 0 1 2 6 7 2 0 0 0 0  111 112 114 114 115 118 120 122 118 118 120 120 118 115 112 111 111 111 110 112 120 119 116 117 117 121 127 126 126 118 107 94 89 96 107 120 133 145 157 160 151 138 132 134 138 134 119 126 152 149 128 120 125 127 129 126 127 127 129 127 127 125 125 122 117 111 107 105 99 89 92 97 96 107 122 129 114 129 150 144 139 121 114 112 115 115 105 95 92 96 100 114 140 144 125 109 107 109 113 114 110 110 110 109 116 115 106 117 119 124 119 114 124 135 140 130 117 99 93 96 103 107 106 98 96 98 100 101 100 101 101 105 129 134 111 98 96 93 92 95 97 98 101 104 106 104 106 105 109 110 107 108 106 103 97 92 96 106 100 86 94 106 114 123 101 106 106 103 107 106 107 109 112 114 114 111 104 97 100 111 116 115 117 114 108 104 107 100 108 109 86 95 105 107 114 127 143 146 143 142 141 133 127 119 109 107 104 101 102 99 98 102 126 148 146 140 137 124 106 89 78 105 111 120 119 114 110 115 129 128 120 116 111 109 106 101 121 142 118 124 127 122 113 104 105 106 103 101 96 91 86 84 84 85 84 79 78 77 73 77 81 81 84 82 83 86 85 82 83 84 92 100 103 109 109 108 105 100 95 90 93 99 98 90 82 76 69 64 71 72 76 79 94 108 121 130 129 124 115 124 125 112 107 92 78 81 83 84 82 84 89 87 86 87 98 105 103 97 83 80 83 84 92 92 91 91 86 83 75 65 62 63 67 68 74 73 71 72 73 70 72  159 160 163 165 168 170 171 172 172 172 173 175 176 174 174 173 174 176 176 178 176 172 168 164 164 168 171 172 175 175 168 158 155 158 164 174 185 193 202 206 200 191 186 184 188 189 178 180 199 200 184 175 175 175 173 171 173 175 175 173 171 172 171 166 161 161 157 147 135 119 131 149 149 156 167 177 174 183 199 196 190 175 160 156 155 156 153 148 145 146 151 158 184 194 182 165 157 160 164 169 172 169 165 164 168 170 167 174 176 179 171 158 167 178 185 182 175 167 164 164 168 172 173 166 159 157 157 155 155 156 157 162 176 183 172 158 153 153 154 157 157 156 156 156 157 158 160 163 165 164 162 162 160 160 161 158 158 159 156 149 154 161 168 176 165 166 165 149 142 140 140 143 147 149 150 149 148 144 149 158 159 160 159 160 159 157 157 158 162 169 158 157 154 155 156 165 179 187 189 192 194 189 180 172 162 157 152 150 148 148 148 151 169 195 195 189 187 177 161 154 145 155 162 170 171 171 168 165 172 170 166 164 162 163 163 161 174 189 170 164 166 165 164 163 164 163 153 149 144 140 137 137 136 132 132 132 132 130 128 128 130 133 134 135 137 138 136 137 135 137 145 156 164 171 174 172 165 158 156 155 154 155 154 149 142 133 125 125 133 137 142 148 160 168 173 177 177 174 170 175 175 167 161 145 134 137 138 135 132 130 130 128 129 131 142 151 153 149 136 129 132 135 137 139 139 138 137 135 132 125 123 125 127 128 134 136 134 135 136 137 138 
0 36 33 28 28 33 38 43 43 45 46 46 36 24 12 2 0 0 0 6 24 42 57 75 84 95 99 102 94 75 45 10 0 1 0 5 24 52 79 91 88 66 46 46 68 96 79 29 26 29 14 17 37 42 52 59 66 74 76 75 68 59 54 50 52 56 52 45 39 34 24 12 22 35 39 32 32 70 69 22 15 32 58 61 57 57 54 49 35 25 30 52 76 89 37 0 24 43 43 42 38 28 26 29 41 45 37 24 44 40 5 0 41 83 53 24 1 0 1 9 20 26 19 0 0 2 4 4 7 11 14 11 14 41 64 39 13 11 1 0 0 5 18 23 25 25 26 30 35 36 32 28 21 17 10 1 0 2 14 18 1 3 19 21 65 42 0 0 10 29 26 26 25 27 32 30 26 21 16 16 22 27 29 30 32 31 34 42 43 15 0 0 6 23 36 55 72 75 69 61 43 22 18 16 23 31 38 48 52 50 43 37 57 75 66 55 40 9 3 9 0 1 21 31 30 11 7 18 27 49 63 60 53 45 38 24 5 15 64 25 42 49 48 32 1 0 0 20 37 30 21 13 12 11 4 1 0 2 4 1 2 3 5 6 9 17 21 22 22 18 17 17 11 7 2 1 0 1 2 2 0 0 0 0 0 0 0 0 1 0 0 0 0 0 1 8 20 41 55 67 74 77 81 69 46 30 21 10 3 0 0 2 6 12 16 15 30 40 51 48 25 19 25 32 38 40 42 43 38 20 1 0 0 2 6 8 5 1 0 0 0  115 114 111 114 117 120 121 120 117 117 117 115 111 110 111 111 109 110 116 121 122 124 131 139 141 143 145 142 134 123 111 104 97 92 99 111 126 147 160 157 141 128 130 139 141 128 108 121 147 133 112 115 115 119 123 126 131 130 131 128 121 119 119 118 121 113 111 109 106 98 94 99 107 114 121 124 140 152 139 127 114 116 119 115 114 113 109 101 98 101 115 134 145 134 115 108 110 114 115 115 114 115 116 114 113 108 103 122 125 120 97 111 134 115 106 93 94 102 112 119 119 112 99 96 101 101 101 104 103 104 105 106 116 131 121 99 96 90 91 95 97 99 102 104 103 107 110 111 116 115 113 111 109 103 97 89 96 108 102 78 92 111 106 123 109 99 102 102 107 106 106 108 107 111 111 108 98 93 96 107 114 115 112 111 106 103 107 104 109 101 86 97 105 117 135 144 147 145 143 137 130 124 118 109 105 107 111 111 108 107 111 134 147 144 141 131 121 110 102 82 73 106 123 129 118 113 113 113 123 127 122 116 112 108 102 102 114 141 121 119 124 125 117 104 107 109 104 102 100 94 85 86 84 81 83 81 81 81 75 77 81 82 82 85 86 89 87 85 81 79 84 91 95 100 104 110 110 109 103 99 97 94 95 95 88 85 86 88 85 83 81 75 70 73 75 87 101 112 122 125 125 126 119 108 94 86 82 82 79 81 87 89 87 88 91 101 103 101 94 80 74 78 88 90 90 91 89 88 80 67 59 60 65 65 69 71 73 74 75 70 70  161 164 166 167 169 172 172 170 172 171 172 174 171 174 175 176 177 176 176 175 173 172 176 181 186 190 192 193 191 185 177 170 163 158 159 165 175 190 202 201 188 180 181 187 191 183 169 175 198 190 170 167 170 174 177 176 179 179 180 179 174 168 164 161 161 162 160 157 155 137 126 149 161 163 166 173 192 201 193 185 167 159 159 156 155 156 155 150 147 149 159 176 194 189 173 159 156 158 158 161 168 172 171 171 171 168 159 172 179 177 162 165 182 176 170 162 164 167 173 173 171 169 166 159 157 157 157 159 158 158 160 160 170 182 175 160 151 152 155 157 156 154 155 156 156 158 161 165 167 166 167 165 163 161 157 154 155 157 153 143 148 158 159 176 169 163 163 147 141 140 141 143 146 149 150 147 144 144 146 153 157 158 158 156 155 154 157 157 167 166 157 155 154 164 177 187 190 193 195 189 182 176 171 163 155 155 155 154 153 150 158 181 196 191 190 186 175 162 157 152 144 152 160 172 170 169 170 168 173 174 169 165 163 162 160 159 170 191 170 160 162 163 163 162 163 166 155 149 144 141 137 135 134 130 129 129 130 128 126 127 130 133 133 135 136 136 136 137 136 136 138 142 149 159 168 173 172 167 162 157 153 154 158 158 154 149 145 139 134 133 134 135 138 140 146 155 161 169 174 176 178 176 171 161 148 142 137 134 132 132 134 132 131 131 135 147 151 154 146 132 127 130 136 139 141 141 141 140 136 127 122 121 125 127 131 130 132 133 134 135 134 
0 31 26 27 32 36 38 45 45 44 38 24 7 1 0 0 0 0 11 33 56 79 93 95 93 74 53 34 17 4 0 6 9 11 13 11 20 46 73 83 69 46 32 50 83 92 54 18 13 8 0 23 49 48 52 46 43 45 53 64 68 64 63 60 54 57 57 51 44 36 31 24 35 62 55 39 32 33 15 5 32 53 53 56 57 53 47 46 43 36 47 70 93 67 7 6 32 42 49 50 51 48 33 21 30 43 53 65 64 34 0 0 4 9 0 0 8 21 25 29 28 26 13 0 3 10 7 3 4 8 10 11 15 28 61 52 16 3 0 0 0 6 20 26 28 23 28 33 36 38 34 31 26 19 11 1 0 3 18 21 1 6 27 20 53 62 3 0 9 23 20 20 27 26 29 30 27 20 15 12 16 23 27 31 32 31 33 41 35 4 0 0 16 44 61 73 73 64 51 33 16 15 27 31 38 50 54 57 56 47 53 71 68 62 60 24 7 14 11 7 0 5 31 59 62 22 2 16 22 41 60 65 56 48 34 22 19 10 57 25 36 44 44 33 2 0 0 16 38 31 19 12 11 12 3 0 0 2 2 2 2 4 6 9 16 26 28 30 32 30 28 29 29 18 9 4 4 7 9 10 7 0 0 0 0 0 0 0 0 0 0 0 1 1 0 0 0 0 3 15 29 50 67 72 75 83 75 63 44 26 4 0 1 7 13 16 25 42 50 59 51 30 20 21 30 42 44 43 40 23 9 3 0 4 8 10 11 9 7 0 0  113 111 111 117 120 119 119 117 115 114 112 108 108 107 108 107 110 115 118 126 132 139 142 143 138 130 124 120 117 114 114 109 105 106 109 120 136 154 163 157 144 135 135 141 137 117 104 116 138 117 109 119 122 123 119 116 118 120 123 125 123 124 121 116 115 115 114 110 107 105 105 109 123 129 134 125 124 131 116 108 110 113 116 115 112 108 108 106 103 107 123 142 142 123 108 107 112 116 116 113 117 117 114 115 119 122 129 130 124 114 81 83 100 90 98 113 121 124 118 111 109 103 95 101 104 103 101 102 104 106 105 107 111 132 130 102 92 93 93 95 98 101 105 104 103 109 114 118 120 118 117 111 111 105 96 92 100 109 101 84 98 109 103 119 120 96 102 102 100 101 103 106 107 108 110 109 101 94 96 100 105 108 107 105 103 100 102 103 107 94 85 105 120 134 143 146 146 141 132 126 123 122 113 109 111 110 113 113 112 124 142 147 144 142 123 125 131 118 102 72 82 110 139 154 128 116 116 114 120 127 126 117 110 107 101 103 112 141 121 114 116 119 115 105 107 109 108 106 100 94 87 85 85 78 75 77 81 80 77 77 80 79 81 87 90 91 89 91 92 92 94 94 95 98 104 108 109 110 108 106 97 86 85 86 87 88 87 90 89 87 87 91 89 84 78 74 72 78 88 94 108 122 126 128 129 124 115 105 97 88 82 83 86 89 92 96 107 108 108 99 82 75 78 85 93 95 93 91 80 72 64 59 62 64 69 73 73 73 74 71 72  164 163 164 167 172 172 172 173 174 172 171 171 172 174 175 175 175 175 175 178 185 190 192 193 191 186 182 182 180 178 175 170 165 164 165 169 180 194 201 196 186 182 184 190 187 174 162 172 195 178 164 163 167 172 174 173 173 174 176 178 176 172 167 166 164 163 163 161 157 153 141 149 172 174 177 171 175 187 174 158 156 159 159 156 155 155 155 153 150 154 165 190 195 180 164 156 157 158 156 159 165 170 172 173 175 174 174 181 180 174 155 154 167 163 165 170 176 175 169 162 161 162 162 159 158 159 157 159 160 160 163 163 166 180 180 163 151 151 157 157 153 153 154 156 158 160 165 169 168 169 170 169 167 162 157 156 157 161 153 146 153 158 154 170 175 162 161 144 139 138 140 144 146 148 149 149 147 146 149 152 155 155 155 153 151 151 156 159 169 162 156 157 165 180 189 193 195 194 189 182 175 167 161 156 155 159 159 157 155 166 191 195 188 191 185 176 175 165 157 145 143 154 163 175 172 169 170 170 172 175 172 166 164 159 156 159 167 190 174 159 160 160 162 163 162 165 155 149 146 142 137 136 132 127 126 126 128 129 127 127 129 132 135 137 137 140 142 142 143 146 148 147 147 152 161 166 171 172 167 161 152 147 147 152 156 157 156 151 147 144 143 140 141 140 139 138 139 146 155 161 165 174 177 178 178 173 168 159 146 134 131 130 131 133 132 143 153 158 158 150 136 129 130 134 138 141 142 143 136 129 125 122 122 126 130 129 129 131 132 132 135 
0 33 30 32 36 42 47 44 35 21 7 0 0 0 4 12 27 49 68 76 75 65 48 29 9 0 8 19 34 42 49 60 50 39 40 48 56 64 78 80 67 46 37 60 84 76 27 12 16 5 0 38 66 59 51 40 31 25 24 36 45 49 59 65 63 58 59 56 47 32 32 34 44 68 51 33 20 0 4 16 40 42 51 57 54 49 45 41 38 38 40 64 85 34 0 27 42 44 51 56 62 56 47 52 77 94 96 78 63 37 0 1 0 0 14 26 31 33 30 31 33 27 7 0 11 19 16 11 12 13 13 14 16 22 56 65 17 0 1 0 0 9 22 27 30 25 29 34 35 31 30 30 22 17 9 0 0 4 20 19 0 11 27 17 28 73 22 0 9 17 17 18 28 30 27 30 29 22 18 14 13 17 23 30 29 28 30 40 27 0 0 7 49 65 69 68 60 42 27 25 25 36 43 46 52 59 59 59 55 63 77 69 64 47 10 0 37 18 0 2 0 10 35 67 81 38 11 16 20 33 54 64 56 44 26 24 38 25 60 26 20 45 44 37 4 0 0 13 40 33 24 16 7 4 1 0 0 0 0 4 3 9 13 21 27 29 29 31 29 27 28 24 22 16 10 7 4 4 5 7 12 13 5 0 0 0 0 0 0 0 0 0 0 0 0 2 3 0 19 61 43 13 4 20 36 53 63 70 73 87 78 60 42 25 10 8 23 47 52 54 59 58 48 33 24 32 38 46 40 21 14 8 5 12 12 13 17 18 19 11 7  114 115 119 118 121 121 119 116 112 109 106 108 108 112 118 124 128 129 134 136 133 129 124 117 117 120 122 123 122 125 124 118 115 120 129 142 153 161 165 161 149 140 138 134 125 106 102 122 138 106 111 124 129 126 118 112 110 108 110 113 115 121 126 122 117 116 114 111 103 106 109 110 125 129 128 120 101 100 96 104 107 110 111 112 111 109 109 107 103 107 125 143 135 114 108 112 115 116 118 118 118 121 129 138 141 141 127 125 127 117 104 78 90 118 124 123 113 113 112 113 110 98 97 106 107 107 105 103 104 106 107 108 110 127 138 107 94 96 95 95 97 101 106 107 106 113 117 120 121 121 119 115 113 105 94 94 102 109 96 85 104 106 101 107 128 104 98 96 96 97 98 104 109 110 111 107 102 96 98 101 101 105 106 103 95 91 99 107 106 95 105 122 134 142 145 144 139 135 131 122 116 115 111 111 114 115 114 117 133 149 148 147 137 108 109 148 125 102 91 62 88 111 142 166 142 121 118 116 120 127 127 119 107 100 104 111 115 142 122 106 115 114 114 106 107 112 107 105 99 94 88 82 81 75 71 75 78 79 81 79 82 83 86 89 94 96 93 92 93 93 93 91 87 84 89 95 101 104 108 115 113 101 87 80 81 84 88 90 91 90 87 88 90 87 84 83 82 100 126 107 91 82 89 102 113 122 124 123 132 124 115 102 92 85 85 89 111 118 113 110 106 97 83 78 85 94 96 92 84 77 70 67 67 67 70 73 75 78 76 78 78  165 165 167 171 172 171 172 173 172 173 173 172 174 176 179 180 182 185 189 192 191 188 184 180 179 179 179 178 174 173 171 168 166 168 177 185 192 199 201 197 192 185 186 188 180 165 159 176 196 170 165 170 172 172 170 167 164 161 164 170 172 173 174 173 168 167 164 162 158 157 151 147 172 178 175 172 158 159 151 151 152 154 157 157 154 153 152 152 151 150 168 193 191 173 159 158 158 160 160 163 167 171 179 185 187 188 182 182 182 176 165 150 156 176 178 173 166 160 158 158 160 160 160 158 159 160 158 158 159 159 161 162 164 177 184 166 155 153 156 156 152 151 153 155 158 163 168 170 171 171 170 168 165 162 158 157 158 160 154 150 157 158 153 159 179 167 158 141 136 135 135 141 146 149 152 152 153 152 152 150 151 152 151 150 148 145 151 162 170 160 163 169 180 189 195 195 190 185 180 173 163 159 158 157 157 159 157 159 177 194 192 189 188 175 169 185 172 159 152 137 146 156 167 178 173 168 170 170 173 174 173 169 164 158 157 160 164 192 177 158 160 158 158 164 161 166 158 150 145 140 136 133 128 124 123 123 126 129 130 130 132 137 139 141 143 145 146 149 149 148 148 146 144 142 143 151 158 163 167 167 162 151 141 140 145 152 155 158 156 153 150 146 145 143 141 139 135 154 174 162 152 149 154 160 170 174 176 175 179 173 165 154 143 134 130 143 159 160 161 160 157 148 135 129 132 139 141 141 138 134 129 127 125 125 128 128 130 135 135 139 142 
0 45 42 36 39 42 36 19 7 1 0 0 4 10 23 34 39 37 33 19 8 6 11 23 43 58 77 85 84 74 70 70 67 65 68 76 93 92 81 68 59 45 43 69 79 47 13 21 17 3 0 43 63 52 46 41 34 31 34 30 29 32 39 46 57 62 63 58 52 45 37 37 47 58 25 14 19 0 0 5 19 34 47 50 49 49 47 43 39 38 42 79 66 7 5 37 43 48 60 75 88 97 100 91 71 41 19 0 31 45 0 7 0 0 17 30 35 36 34 38 39 26 1 2 20 24 19 16 12 14 17 15 17 18 49 71 23 0 1 0 0 7 23 28 29 28 29 30 32 31 28 22 17 15 3 0 0 8 25 13 0 19 25 19 21 66 51 1 4 15 17 21 23 31 32 30 28 22 16 11 8 12 15 23 26 23 27 38 16 0 10 42 66 64 61 50 31 24 30 37 37 44 52 53 54 58 58 59 69 70 63 62 31 1 0 22 35 6 0 1 0 15 34 61 77 42 26 26 22 27 46 63 51 33 24 33 46 39 61 30 3 40 43 37 10 0 0 8 36 33 24 15 4 1 0 0 0 1 5 11 15 21 23 24 27 24 24 26 25 24 21 18 12 7 7 7 3 4 6 6 7 12 14 3 0 0 0 0 0 0 0 0 0 0 0 4 9 9 45 74 69 36 4 0 0 1 7 22 35 44 58 72 74 77 74 51 40 39 40 40 31 43 61 65 49 34 33 39 33 18 17 18 17 20 18 17 18 25 28 18 5  122 120 118 115 118 117 112 110 110 111 112 114 117 124 125 124 122 123 121 119 120 119 124 133 141 147 151 146 135 131 127 125 127 135 144 161 167 163 156 154 147 137 133 127 114 102 105 126 131 103 118 130 129 123 119 114 109 110 107 102 104 110 117 121 126 123 118 113 108 106 110 112 120 117 115 121 93 89 93 96 105 109 107 109 110 107 107 110 108 111 138 142 123 106 107 113 118 123 130 135 141 143 137 121 100 91 84 112 129 115 122 91 75 102 110 112 110 110 116 116 107 95 101 110 109 106 106 103 102 107 106 107 108 121 141 113 102 100 95 96 96 99 105 109 112 116 118 120 124 122 118 117 113 101 94 95 101 108 92 90 107 105 99 100 129 120 98 91 93 96 98 100 107 111 110 108 103 100 99 101 104 100 96 94 88 85 98 109 112 113 126 134 139 144 143 137 131 129 127 115 114 115 112 109 111 113 122 137 148 147 145 128 98 91 113 129 108 99 78 55 95 107 138 165 147 132 124 119 118 124 126 116 102 99 112 118 117 139 122 95 113 114 113 110 106 108 107 108 100 92 86 80 78 74 74 77 80 82 85 89 90 91 93 96 91 91 95 91 85 86 87 82 75 73 73 78 89 98 106 115 120 115 103 91 83 83 88 88 90 92 89 87 86 89 92 89 87 114 126 118 110 84 66 70 74 75 88 100 112 120 123 126 125 119 107 102 106 114 118 103 102 108 107 97 86 86 91 91 85 81 76 77 78 72 72 72 80 87 83 78 74  171 171 170 172 173 172 172 172 174 174 175 178 179 182 186 187 186 184 183 182 179 179 178 181 186 188 188 186 180 176 174 172 175 179 185 198 203 201 197 195 191 184 184 184 174 164 160 178 193 167 167 174 174 171 169 165 160 157 157 159 163 166 170 173 175 175 170 167 165 159 156 149 165 170 167 173 155 154 153 151 148 150 155 155 154 154 156 153 152 155 182 192 183 164 156 158 160 166 173 178 184 187 186 179 167 162 156 170 184 175 174 154 147 164 163 157 156 158 158 159 160 159 158 159 159 159 157 156 156 156 158 159 160 174 187 173 160 157 157 156 153 151 154 159 162 168 170 171 172 172 170 167 164 161 157 156 158 159 153 154 158 157 151 152 177 174 156 139 132 132 134 137 146 151 154 156 155 153 152 149 148 149 148 146 143 139 149 164 170 170 178 182 190 196 194 188 181 177 169 160 155 153 154 156 156 155 163 185 195 189 189 184 168 158 164 174 165 158 141 129 147 157 170 180 174 169 171 171 172 173 174 168 162 158 159 159 163 190 176 152 159 156 156 165 162 167 159 149 143 139 134 129 125 123 124 126 129 134 136 137 140 143 145 145 147 148 146 145 144 143 141 136 134 130 127 131 141 152 160 167 170 163 151 140 138 142 147 154 157 158 157 154 151 146 145 144 143 162 173 167 159 140 127 130 138 150 154 158 165 173 177 178 176 170 159 155 156 158 159 157 159 160 157 148 138 135 137 138 136 136 133 133 131 127 125 127 135 142 144 144 144 
0 46 42 36 27 16 6 0 0 0 1 0 3 4 1 0 0 0 0 8 26 51 71 83 96 103 102 99 93 81 67 52 47 52 69 94 109 102 74 49 41 42 52 74 61 19 15 36 21 1 3 47 55 50 46 37 39 41 36 29 26 27 31 39 43 47 49 54 53 50 67 76 52 37 7 4 8 0 0 0 0 12 36 44 43 41 42 42 40 40 63 85 32 0 19 52 69 89 98 99 87 62 31 6 0 0 12 24 48 50 2 16 3 0 6 34 39 36 34 38 41 16 0 8 23 22 20 16 14 12 15 16 17 16 42 69 31 3 1 0 4 14 24 33 33 31 30 30 29 29 28 24 19 11 1 0 0 9 25 5 5 26 26 22 29 60 68 11 3 14 20 17 21 29 32 28 21 17 15 11 6 7 11 14 15 17 20 34 27 28 46 57 63 55 36 21 21 32 38 46 48 48 51 54 54 56 65 70 59 56 47 12 0 3 22 31 13 7 8 7 0 5 9 21 34 21 22 37 27 24 36 55 46 31 33 48 51 44 60 38 1 29 42 36 18 1 0 3 32 36 27 22 16 11 8 5 9 11 14 18 23 23 24 28 31 31 28 26 17 13 9 8 2 2 5 7 8 11 8 8 6 7 14 11 0 0 0 0 0 0 0 0 0 0 0 0 2 23 54 65 48 15 0 1 1 6 9 4 1 1 10 29 40 56 69 73 77 79 73 66 38 20 22 42 58 63 58 46 25 15 20 24 30 32 29 25 23 23 13 1 0  122 115 114 111 110 111 108 110 112 112 118 118 117 118 117 112 111 112 113 117 126 132 144 157 166 167 167 163 150 137 122 114 116 129 151 168 169 156 146 143 142 132 128 122 107 103 109 132 125 103 125 129 127 120 114 111 107 106 103 102 102 102 111 115 118 118 121 120 117 130 142 120 116 105 100 107 97 89 88 87 94 104 109 109 107 107 106 107 108 125 144 132 109 103 114 128 137 141 141 130 117 100 86 87 100 116 131 135 130 118 117 110 78 84 110 110 110 110 113 113 103 98 105 110 106 107 104 102 99 102 103 105 104 117 138 119 112 102 96 98 101 103 107 114 117 118 122 123 126 123 119 116 110 99 92 93 101 102 88 95 105 105 100 102 127 128 98 87 87 91 95 100 106 108 111 109 103 102 100 98 100 93 91 88 87 89 107 122 126 131 137 143 142 136 127 126 128 124 124 118 116 114 112 109 115 130 144 144 144 134 111 96 93 105 105 101 99 113 112 64 65 74 91 112 112 117 124 122 118 120 126 116 103 111 122 122 121 140 126 92 107 114 110 111 109 107 103 106 101 94 85 81 82 83 84 86 88 91 92 94 95 96 100 101 99 96 94 85 79 77 75 73 71 73 78 82 88 96 108 113 118 120 113 99 90 86 85 87 91 91 90 91 91 91 96 95 104 121 118 113 96 72 66 72 78 80 81 80 81 88 99 109 124 126 127 131 128 119 121 106 93 92 101 110 111 101 91 81 78 79 82 87 84 80 75 79 86 80 79 75 71  172 171 171 172 171 170 172 174 175 177 180 182 182 182 181 180 178 176 172 171 173 178 182 189 193 193 192 191 184 178 172 166 167 175 190 205 207 198 189 188 187 183 184 180 167 161 159 183 188 167 168 172 172 169 163 161 158 154 150 151 154 158 162 166 171 174 175 173 170 177 188 160 161 165 163 161 156 152 152 152 150 149 151 151 152 152 156 154 152 172 193 186 168 155 161 168 178 185 187 185 176 168 160 159 165 172 180 184 184 177 173 165 151 149 155 152 154 156 157 161 162 160 158 157 156 156 154 154 152 153 156 156 156 169 186 177 168 159 157 157 154 155 158 163 167 168 169 171 173 171 167 163 162 159 157 156 158 158 151 152 157 155 150 154 175 182 161 137 132 131 133 137 144 151 155 158 156 152 148 145 145 145 145 144 141 139 154 176 180 183 190 192 193 190 183 178 172 165 161 158 152 152 153 151 154 173 195 195 189 187 177 161 153 157 159 156 159 156 142 128 128 136 144 155 156 161 171 172 173 172 173 167 160 160 163 162 164 187 180 153 156 157 155 164 163 167 158 149 144 140 136 132 132 133 134 136 137 141 142 143 145 150 153 151 151 150 144 139 136 132 129 127 125 125 127 130 134 144 155 163 171 169 159 147 137 135 139 144 149 155 158 158 157 154 153 151 157 167 169 163 149 134 127 129 134 138 138 138 140 150 159 165 175 177 177 179 179 171 168 156 149 149 155 160 160 151 140 133 134 137 137 137 138 132 130 138 145 144 144 140 133 
0 35 27 13 2 0 0 0 0 0 0 0 0 1 5 8 5 18 35 43 56 70 77 83 90 98 101 98 95 84 67 48 33 32 51 88 105 95 64 39 32 50 68 76 39 18 30 36 12 0 12 46 45 44 40 41 50 38 27 29 34 35 38 42 45 43 40 36 46 84 89 63 57 24 0 7 13 6 1 0 1 0 8 34 43 38 36 37 35 49 80 56 7 40 88 100 85 61 45 18 2 0 3 17 29 39 56 54 52 55 4 22 12 0 0 26 41 35 38 40 33 4 0 13 21 17 16 20 18 12 12 15 15 18 43 65 27 0 0 1 12 25 27 32 33 33 33 32 33 31 29 28 22 9 0 0 0 14 19 0 9 22 26 23 33 57 75 31 3 15 19 19 23 26 27 28 23 21 15 10 9 8 9 12 9 9 26 53 54 56 57 55 46 30 18 15 25 37 44 49 51 51 52 55 58 71 76 58 60 36 3 0 11 21 27 21 8 3 4 2 0 0 0 0 0 0 0 6 12 18 30 39 36 25 39 59 60 52 63 41 12 20 43 39 16 0 0 1 27 37 33 27 24 21 17 15 16 13 11 18 23 25 31 33 35 36 33 25 16 10 8 2 2 7 3 1 4 9 5 10 10 6 8 15 9 0 0 0 0 0 0 0 0 0 0 0 0 5 25 36 26 7 0 0 0 5 11 13 8 0 0 0 2 11 24 36 51 60 68 81 85 74 57 43 35 43 59 63 48 29 22 27 40 42 38 29 14 2 0 0 1  116 112 109 107 104 106 111 113 114 112 113 114 113 111 111 103 106 112 113 119 127 136 145 153 164 166 165 164 152 137 123 110 103 114 141 160 160 147 134 135 138 128 124 113 105 105 113 137 123 109 125 122 119 114 113 112 105 104 104 106 105 106 106 110 114 115 111 119 142 154 133 119 114 98 93 91 96 95 85 82 85 94 102 104 105 106 102 101 114 136 137 122 122 133 136 128 115 105 93 88 84 89 114 143 152 154 144 132 133 122 108 111 98 78 105 113 109 110 112 112 104 105 106 105 103 103 103 100 97 100 101 102 102 117 136 119 112 103 99 104 109 110 113 117 121 121 122 124 124 123 118 110 105 95 88 90 100 94 83 96 102 103 102 108 127 132 108 88 87 89 92 97 104 107 111 111 105 103 101 95 92 92 89 85 90 104 129 138 138 141 143 138 128 124 119 119 122 122 124 120 117 115 112 118 135 147 145 144 127 100 92 96 104 102 97 94 94 102 85 59 55 58 54 54 60 68 90 105 113 118 117 109 103 117 126 127 127 145 131 92 96 115 112 105 106 107 100 104 103 99 93 91 89 88 88 88 90 91 90 95 97 102 107 109 106 101 93 83 76 75 70 73 75 77 82 86 91 92 103 114 119 122 117 105 93 85 84 82 82 84 89 90 89 89 95 95 100 107 104 103 88 71 67 69 77 81 88 90 88 81 82 80 84 94 107 119 124 122 123 124 118 109 101 99 100 108 107 94 81 82 84 91 91 87 84 83 79 77 74 70 71  170 171 170 169 171 171 173 174 175 177 176 174 173 169 168 161 159 162 162 166 174 178 180 186 192 193 191 189 184 176 167 161 158 163 185 203 203 192 184 185 185 184 182 175 165 159 159 190 187 165 166 168 167 163 159 159 154 150 150 150 153 156 158 161 163 168 169 172 190 200 185 171 169 163 155 147 151 155 152 154 154 151 150 151 151 152 153 152 160 186 191 179 176 182 185 182 176 172 163 158 153 155 170 189 196 194 189 182 186 178 158 162 165 150 155 155 154 153 157 163 164 159 157 155 155 152 150 150 150 149 151 153 152 166 185 176 172 163 160 160 158 160 163 166 168 170 170 171 169 166 164 160 157 155 153 152 157 156 149 150 152 151 150 159 176 183 168 141 130 133 135 140 148 153 156 156 154 151 145 143 142 142 142 141 142 151 173 189 190 193 194 192 184 174 170 165 159 159 161 159 153 153 152 155 177 194 192 191 184 168 158 152 155 156 156 155 153 156 138 123 122 123 126 130 134 138 151 163 170 170 170 164 159 162 166 167 168 189 183 157 153 158 156 163 164 167 162 154 149 145 142 141 140 140 141 141 142 142 143 145 151 155 157 153 149 146 139 134 130 126 125 126 127 130 133 136 138 141 150 159 167 171 164 151 140 135 137 138 139 144 149 152 155 159 158 158 160 164 163 158 145 133 128 129 134 136 138 136 132 130 134 141 149 157 161 169 173 174 178 177 170 163 155 153 155 159 159 149 139 138 139 140 142 139 143 146 145 143 137 131 125 
1 15 3 0 0 0 0 0 7 15 17 21 33 36 35 33 22 29 43 46 51 65 74 80 87 96 98 97 91 81 68 49 35 32 56 90 99 81 55 38 43 65 72 57 31 40 59 32 0 0 17 42 37 43 42 44 43 32 31 35 41 41 43 46 53 46 35 57 88 57 31 57 43 4 2 26 28 20 4 0 0 1 0 5 27 42 42 53 64 87 74 17 17 60 46 21 4 0 0 8 20 28 45 52 44 40 40 26 35 62 6 26 29 0 0 8 36 37 36 40 19 0 8 17 16 13 11 19 22 18 18 14 15 20 53 66 17 0 0 7 26 38 38 35 31 30 31 34 36 33 30 29 21 8 0 0 0 14 7 0 14 19 24 22 40 52 71 61 9 14 18 18 21 25 29 30 28 25 17 10 7 7 4 5 11 33 54 63 57 56 49 31 18 16 15 18 28 36 42 47 52 52 51 58 78 71 60 58 22 0 4 24 28 21 19 10 4 5 4 0 3 4 9 20 13 2 0 0 0 1 18 31 27 13 5 23 35 43 64 37 10 13 32 46 18 0 1 0 25 35 34 27 19 19 12 9 8 4 2 9 18 24 30 32 34 31 35 33 21 14 8 6 4 2 1 0 2 6 8 8 10 6 5 13 13 5 2 0 0 0 0 0 0 0 0 0 0 0 0 2 3 3 2 2 0 7 6 4 2 0 1 1 0 1 5 0 4 13 23 37 51 73 89 91 87 73 63 63 62 52 41 37 43 43 26 6 0 0 4 9 11  111 108 109 106 102 106 109 114 116 114 114 118 114 112 110 100 103 113 111 116 126 133 141 148 158 162 161 156 148 134 120 111 105 118 138 150 147 137 134 138 137 127 122 114 113 117 120 133 109 107 114 110 112 110 111 109 102 103 106 105 104 108 109 112 112 109 125 148 148 136 126 119 102 96 104 97 90 87 93 85 80 85 91 98 104 106 115 124 139 140 127 117 113 103 91 84 84 88 98 110 111 119 144 152 142 133 114 115 137 121 111 106 105 82 88 111 111 109 113 109 103 104 106 106 101 99 101 101 97 99 98 99 102 121 135 116 108 100 104 115 122 122 123 124 123 123 123 126 122 119 114 106 102 93 85 85 98 84 85 97 99 102 101 109 123 132 121 94 88 90 92 96 103 109 110 110 110 102 97 97 93 89 91 96 110 124 137 145 144 140 134 123 112 108 109 109 113 116 121 121 118 118 124 141 144 143 137 117 94 91 101 100 100 98 95 92 95 96 78 80 89 89 100 93 74 65 71 86 100 115 117 108 96 90 94 104 119 143 132 98 88 107 112 104 103 107 103 104 103 99 95 92 89 83 81 81 79 79 82 93 98 105 109 111 108 105 98 85 81 77 75 78 81 82 85 89 91 92 99 110 117 120 119 110 96 87 79 76 73 73 80 83 86 89 89 92 94 97 95 91 88 80 75 73 79 79 83 87 88 89 91 90 84 83 83 80 86 96 105 117 127 128 125 124 115 112 109 106 101 96 91 92 93 87 85 81 80 78 73 71 70  169 171 170 168 172 170 171 170 168 166 163 163 163 159 157 153 153 156 160 164 171 175 180 184 189 191 190 188 183 174 165 158 156 165 184 198 194 184 181 184 187 184 179 174 172 170 168 191 176 162 162 161 160 159 158 156 151 149 150 152 154 156 159 162 161 159 175 196 200 188 177 172 166 161 162 154 148 147 152 152 151 152 153 151 151 152 160 169 184 192 184 177 176 171 162 159 156 154 156 157 156 167 187 194 191 185 170 167 189 178 156 153 167 156 152 156 155 156 161 166 161 157 154 154 154 151 148 148 147 146 148 148 149 169 184 174 166 160 163 166 169 172 170 169 170 171 170 168 166 163 158 155 154 153 149 149 155 152 148 148 150 149 148 162 174 180 177 150 131 133 137 143 150 155 156 154 152 150 144 141 142 139 138 145 159 174 189 195 195 194 186 177 169 160 154 154 155 158 161 161 154 151 162 185 194 188 188 177 163 153 151 154 156 156 155 154 154 157 145 136 140 141 153 153 143 137 137 146 158 169 171 165 155 147 150 154 161 186 181 156 149 157 158 159 162 167 163 156 153 149 146 144 139 138 138 136 136 138 138 142 149 152 154 151 147 143 139 132 128 128 130 132 132 136 138 138 141 141 143 154 162 170 168 156 147 139 136 136 133 133 134 140 145 151 156 159 160 159 159 155 148 142 135 132 134 135 135 133 130 132 132 133 137 143 143 144 153 161 166 171 177 177 177 177 170 165 162 160 155 150 148 146 148 146 145 147 144 138 130 126 121 
6 1 0 0 0 0 3 12 27 37 46 54 56 48 41 37 28 27 39 38 45 57 68 73 75 80 85 85 79 70 60 46 40 57 81 98 89 66 45 40 60 73 60 28 25 48 60 22 0 0 38 58 49 49 43 40 39 35 36 40 42 43 44 46 46 51 83 80 31 0 33 67 23 0 10 28 33 27 18 8 1 0 0 0 1 49 94 97 90 88 43 0 0 0 0 0 5 25 40 46 47 47 46 39 36 29 13 7 34 69 9 17 35 8 0 0 23 39 36 34 7 0 11 15 9 7 9 16 18 19 20 18 14 22 60 57 6 0 0 18 37 46 49 47 39 33 33 37 37 31 31 31 24 9 0 0 3 15 3 7 22 26 25 24 45 48 49 72 17 10 16 19 26 30 33 33 29 24 21 16 12 8 7 20 42 54 59 61 53 37 23 17 12 9 13 21 28 36 41 47 52 50 63 72 65 54 38 10 0 14 31 30 23 16 10 6 3 5 7 0 3 9 20 45 45 27 30 37 28 9 3 22 35 32 10 0 0 0 43 37 3 20 14 38 26 0 1 0 22 37 31 25 15 8 4 0 0 0 0 1 12 24 31 35 36 36 38 35 21 11 9 8 2 1 1 1 3 4 8 9 8 10 11 12 14 11 6 1 0 1 0 0 3 6 5 4 10 7 0 0 0 0 0 1 0 6 8 5 1 0 0 0 2 15 13 0 0 0 0 1 8 22 37 49 59 72 80 87 87 84 74 57 41 17 0 0 6 20 29 29 18  106 106 110 108 107 111 111 116 118 118 122 124 118 113 109 102 103 109 108 111 121 129 133 138 147 151 150 145 138 127 116 109 117 132 143 144 136 133 137 141 135 122 111 111 116 122 122 126 103 115 121 115 114 108 107 106 104 105 107 109 108 109 112 108 116 144 152 141 128 120 127 116 95 101 108 107 99 95 93 88 83 78 80 87 111 141 144 140 139 129 111 95 81 83 89 99 114 121 122 119 123 138 144 143 128 109 99 110 140 124 106 106 109 92 78 103 109 112 110 100 100 105 104 101 99 99 99 99 98 98 95 98 102 126 131 110 98 93 113 126 134 137 136 133 128 125 124 123 116 115 109 103 99 90 80 87 95 83 92 99 100 101 98 114 123 123 128 99 91 93 93 100 108 113 113 110 107 100 94 98 94 92 107 120 129 137 142 144 137 126 117 109 99 91 94 104 111 116 123 123 121 133 145 145 140 129 106 94 98 103 99 97 97 96 94 91 96 98 91 88 89 95 120 125 112 110 111 112 106 108 118 117 109 95 76 66 72 132 137 103 88 92 108 108 105 110 105 104 103 99 92 86 82 73 67 67 70 72 75 88 102 110 112 113 111 106 97 90 85 87 88 83 85 88 88 90 90 93 95 103 114 120 120 115 102 88 80 75 74 72 75 79 81 87 92 106 104 97 95 90 90 86 84 81 81 77 81 85 87 88 87 88 91 94 87 81 75 69 71 81 91 105 113 120 125 123 125 121 121 114 104 96 92 86 87 87 86 83 80 74 66  169 169 169 171 170 168 169 165 163 162 164 164 162 158 157 155 153 156 158 161 165 170 175 180 183 186 183 181 176 169 162 159 163 178 191 192 186 181 180 185 188 181 173 173 175 173 178 189 170 167 165 163 162 160 156 152 150 151 154 153 156 158 159 157 164 188 203 198 187 175 177 171 161 163 167 165 162 153 146 146 148 148 152 151 163 183 187 187 191 186 175 164 156 155 158 159 161 163 163 162 168 183 193 191 184 170 151 156 190 181 155 151 165 163 151 154 152 157 165 166 159 154 152 152 150 148 149 148 146 145 145 145 150 176 184 173 164 157 166 173 176 181 180 176 174 170 167 165 162 157 154 152 152 149 146 149 153 149 146 144 146 148 146 164 174 173 180 160 137 134 138 144 153 157 156 155 151 147 143 142 142 140 151 167 179 188 195 195 190 180 171 160 151 146 146 149 152 156 159 160 157 169 188 191 188 185 174 159 152 152 153 156 157 156 153 150 154 157 153 144 140 147 166 172 164 160 154 154 157 164 172 171 165 155 144 137 138 179 184 159 151 151 159 161 164 167 164 157 154 149 145 141 135 130 126 125 126 129 134 140 146 149 151 151 147 145 139 131 127 133 136 138 137 137 140 141 142 142 141 147 159 167 168 161 149 138 134 134 130 129 128 129 134 139 149 163 163 160 160 158 154 151 147 142 140 136 134 133 131 130 130 135 144 146 142 137 131 131 135 144 156 165 170 172 176 174 176 175 172 165 160 153 149 147 146 145 142 138 134 127 122 
10 2 7 14 9 10 21 30 36 42 47 53 54 45 36 35 29 30 39 36 41 50 57 60 62 65 70 68 68 59 48 44 56 87 101 95 75 50 34 42 66 68 39 6 18 35 38 9 0 2 50 65 66 66 60 57 50 45 44 41 42 44 44 42 72 92 53 6 0 17 62 62 12 0 10 17 17 17 20 25 39 39 12 0 0 7 29 38 69 65 12 6 19 20 18 18 28 43 52 55 55 50 43 34 21 11 5 14 37 70 10 28 60 17 0 0 4 28 37 21 0 4 20 17 10 6 8 11 15 14 14 15 16 28 67 46 0 0 0 28 47 50 53 55 50 42 36 36 33 31 32 30 27 14 0 0 8 9 1 17 26 27 26 24 49 47 26 73 29 7 20 22 28 32 33 32 31 26 24 18 16 21 37 53 57 56 56 43 23 15 10 7 6 11 15 22 26 36 41 45 49 65 72 63 51 21 0 2 25 40 31 25 20 12 8 8 10 6 2 0 1 6 20 46 42 30 44 67 72 52 19 17 36 55 55 28 6 0 29 38 0 21 8 7 10 0 1 0 16 35 29 20 8 1 0 0 0 0 0 3 14 26 35 39 40 39 33 29 18 10 2 4 2 2 0 2 3 4 7 8 9 11 12 14 16 14 7 3 1 0 0 0 3 11 14 33 54 42 7 0 1 0 0 0 0 2 5 2 0 0 0 0 8 14 1 0 3 11 8 2 0 0 0 3 12 20 33 48 64 72 79 87 85 70 42 27 38 42 38 31 18  111 117 122 113 110 112 112 114 116 116 120 122 115 107 107 105 103 107 106 107 116 122 126 131 135 137 137 135 131 121 115 121 138 146 147 137 130 131 135 138 129 114 99 101 106 113 124 123 101 121 128 126 122 119 117 112 109 107 107 110 112 108 109 131 151 147 129 115 106 119 125 109 96 100 100 103 103 100 106 114 124 109 83 80 89 103 111 130 135 117 111 110 106 103 107 111 119 123 124 127 138 147 141 126 106 97 97 108 137 124 118 129 120 114 83 100 105 109 108 98 101 106 103 99 100 97 96 97 96 97 96 97 108 134 128 109 101 93 120 138 142 145 146 139 134 124 121 118 111 108 103 102 97 85 79 92 89 82 93 98 99 98 98 115 122 115 133 108 96 94 98 106 110 113 113 109 108 102 95 95 105 114 124 134 141 143 138 130 121 107 98 90 85 84 90 101 112 117 120 124 138 145 144 139 120 97 90 101 104 101 99 99 97 99 96 96 99 97 92 90 90 97 116 115 106 114 124 128 122 113 116 120 122 121 107 85 73 125 135 97 94 77 76 92 106 107 104 105 103 95 89 79 71 62 55 53 58 71 82 90 102 112 116 113 109 106 103 96 96 93 89 88 89 91 90 90 89 87 88 97 111 119 121 116 106 90 82 77 76 71 71 76 80 80 103 120 114 103 95 88 89 89 88 90 90 82 81 82 79 78 82 86 90 85 77 81 83 79 71 65 62 63 72 87 97 101 114 121 122 125 127 121 118 107 98 98 97 92 83 77 70  169 172 174 169 166 164 164 161 160 161 161 163 161 160 158 153 151 156 156 159 163 167 169 174 176 177 175 172 168 163 159 163 177 192 194 187 182 180 181 186 184 176 165 164 164 163 181 186 165 173 175 175 174 170 167 161 154 154 156 155 158 156 156 175 197 197 189 175 160 169 178 171 160 158 161 164 165 163 158 161 170 166 151 152 154 163 168 185 190 178 171 168 169 163 161 162 164 167 166 172 184 193 192 182 167 152 143 151 186 180 167 175 175 173 157 162 155 158 167 165 159 153 150 149 147 145 147 146 146 144 143 142 151 181 183 172 164 156 170 179 184 184 184 181 177 170 165 160 158 153 151 151 149 146 145 153 153 147 143 143 145 147 146 164 175 168 183 167 145 138 144 149 154 157 157 156 152 146 139 139 147 162 175 184 191 194 192 186 176 163 154 145 139 137 142 146 150 155 157 161 178 191 188 188 182 169 156 152 151 152 156 158 159 156 152 149 154 157 154 147 142 151 167 168 161 159 161 166 169 165 169 173 175 173 162 148 138 171 182 156 155 143 141 154 164 165 163 155 151 145 137 132 125 119 114 114 120 124 131 138 145 148 150 148 146 143 139 135 134 133 136 140 141 140 140 141 140 141 140 144 155 165 167 161 148 139 133 133 130 129 128 128 131 134 154 170 167 162 157 158 158 157 154 151 149 144 138 134 128 126 130 141 147 142 138 135 131 130 128 125 123 129 136 145 156 164 168 172 174 178 179 175 170 161 153 149 144 141 134 129 126 
13 17 21 21 11 16 26 34 37 37 40 45 44 39 34 32 26 27 36 36 35 38 45 51 56 56 55 55 55 55 47 52 77 97 98 83 60 35 30 49 63 52 20 17 40 48 33 2 0 4 44 50 56 61 64 68 66 61 57 56 52 40 52 91 74 19 0 6 22 44 72 49 4 8 21 9 3 6 52 89 80 54 20 0 0 1 0 47 78 32 6 24 27 26 32 45 57 64 72 71 55 48 50 29 3 6 14 16 27 69 15 21 20 3 25 5 0 7 24 11 0 14 22 19 10 2 3 4 11 11 7 11 14 34 71 31 0 1 0 29 55 59 57 57 56 49 40 35 33 33 34 32 28 12 0 2 13 4 9 26 29 26 26 26 54 47 7 63 50 5 20 26 27 31 35 35 33 29 27 28 38 52 57 57 57 48 30 8 2 9 5 8 14 15 15 20 25 31 37 45 69 70 60 46 11 0 11 37 45 32 23 21 13 11 14 17 21 17 6 1 1 10 32 51 38 27 40 59 61 48 26 23 37 54 61 54 37 20 35 43 0 13 15 0 0 0 0 0 2 9 12 11 4 0 0 0 0 0 2 6 13 28 39 39 40 36 29 19 12 12 39 33 2 0 0 0 0 3 7 9 10 13 16 18 20 18 11 5 4 1 1 2 2 6 20 58 76 60 22 0 0 0 0 0 0 0 0 0 0 0 0 3 10 3 0 4 14 16 8 2 1 2 1 0 0 0 1 9 19 26 32 44 60 73 86 90 91 79 65 50 28  121 123 117 107 105 107 109 110 111 111 113 115 110 107 104 100 101 106 105 105 111 115 119 123 123 126 127 125 119 115 121 136 146 144 139 134 127 127 130 127 118 104 102 109 111 109 127 118 97 113 119 120 122 125 131 127 118 117 117 112 107 117 149 153 135 116 104 102 109 126 123 107 98 97 91 91 94 126 163 149 127 116 97 83 76 84 121 138 126 114 111 108 108 110 119 129 135 141 142 141 146 150 131 108 98 98 94 102 138 124 125 121 124 138 107 92 99 108 102 98 102 103 104 101 95 94 93 94 93 90 94 95 112 132 118 108 107 95 121 145 148 150 152 145 139 128 116 110 105 105 105 102 95 86 86 94 84 87 94 94 98 98 97 117 120 104 130 116 96 97 103 109 111 112 114 112 106 104 103 112 123 128 135 142 142 134 122 118 108 91 86 83 81 80 87 97 106 111 122 140 145 143 135 109 90 94 103 103 96 96 100 98 98 102 102 101 98 98 94 89 90 103 120 113 105 109 118 116 114 110 118 125 124 126 127 121 114 132 134 94 93 84 64 70 102 105 102 89 88 88 87 78 70 60 53 55 61 74 81 87 98 109 112 113 111 108 105 102 101 133 126 90 91 91 89 87 86 85 86 92 107 124 129 125 112 92 79 78 73 69 68 72 77 85 118 127 115 100 90 89 87 86 88 91 91 91 86 85 80 76 84 91 87 80 83 87 84 80 73 68 67 64 60 60 62 65 75 87 98 106 112 117 119 123 125 123 118 107 99 87 76  170 173 169 160 157 157 157 156 156 158 159 160 159 158 158 153 149 155 155 156 160 164 166 168 171 169 169 167 164 159 160 172 188 195 189 184 180 177 180 182 178 168 164 165 163 161 185 185 163 169 172 176 175 175 177 174 166 163 164 162 159 163 191 201 192 179 164 153 157 177 180 167 157 152 151 150 156 171 179 186 183 177 161 154 151 148 172 195 183 175 172 168 167 168 170 174 180 184 184 187 193 195 184 170 153 143 136 146 187 178 182 181 177 183 169 160 158 163 166 162 157 152 151 150 148 145 145 145 143 143 144 143 157 185 181 171 166 157 172 186 189 188 186 183 179 172 165 159 155 151 150 152 149 147 147 153 149 143 140 144 146 146 146 165 173 162 181 175 155 146 150 152 155 159 159 156 152 146 143 152 167 181 189 193 194 189 181 176 164 148 140 138 134 133 139 146 149 152 162 185 191 187 185 175 162 153 150 152 153 154 158 157 158 155 152 150 153 157 157 149 143 158 170 167 157 154 158 160 163 163 168 174 178 179 175 171 164 174 177 150 154 146 136 140 164 164 163 150 144 140 135 128 120 113 111 112 115 122 130 137 142 145 148 147 145 143 142 140 137 153 158 141 141 143 140 139 137 138 137 139 149 162 166 159 149 141 135 134 134 131 128 129 131 141 166 174 168 156 148 151 152 156 158 157 156 154 149 141 131 128 137 145 145 140 137 136 132 129 128 127 125 122 122 121 123 131 141 151 158 163 163 168 172 176 177 175 168 160 150 140 130 
14 18 17 13 15 23 28 37 41 40 46 48 41 33 30 31 26 24 34 34 27 31 39 43 47 47 47 51 48 51 55 71 91 98 87 65 39 22 38 55 57 32 18 41 59 63 37 0 0 16 48 42 41 48 50 53 54 55 58 57 61 81 84 39 1 3 18 24 27 55 73 31 1 21 27 17 5 1 33 39 5 0 1 8 6 0 10 66 51 4 10 31 43 55 64 69 69 70 68 57 44 51 55 17 1 12 14 29 48 65 14 0 1 12 26 11 0 0 4 2 7 24 25 21 16 8 4 4 7 12 14 17 17 41 68 18 0 1 0 23 57 64 62 63 61 54 42 38 36 33 36 34 25 6 0 8 9 1 19 30 31 30 26 27 55 39 0 43 72 12 18 29 29 32 35 35 32 34 43 52 57 59 57 51 37 20 7 0 3 8 4 13 17 15 12 20 25 29 50 72 63 51 31 3 0 20 50 47 33 20 16 13 10 16 21 26 26 16 6 1 0 11 38 47 28 22 43 53 49 39 33 37 35 39 45 39 29 33 43 40 28 11 17 2 2 0 0 0 0 0 0 0 0 0 0 0 0 0 4 15 21 25 36 38 36 33 27 17 9 4 26 26 1 0 1 2 3 4 7 8 9 16 22 22 24 22 17 8 4 2 3 2 2 8 39 74 78 46 15 6 2 2 0 0 0 0 0 0 0 0 0 3 3 0 1 11 15 14 9 3 0 0 0 0 1 1 0 0 0 0 2 16 20 26 34 47 57 71 83 90 85  115 109 104 102 103 106 111 109 109 110 110 110 106 104 102 97 99 102 103 103 106 110 112 115 115 117 120 115 113 117 130 141 145 140 137 130 121 124 121 118 112 109 115 120 121 118 131 109 100 113 113 114 115 117 122 123 122 123 120 122 138 152 144 122 110 100 100 102 116 132 120 105 101 97 93 86 83 100 115 97 91 96 101 100 89 102 132 130 113 108 112 124 134 138 145 147 147 148 143 141 150 146 118 105 99 91 105 125 137 120 115 107 104 104 106 92 87 98 99 100 105 107 106 103 98 93 93 94 93 92 98 98 119 138 115 106 109 92 116 147 150 151 149 145 135 124 114 107 104 107 105 101 91 88 89 88 82 90 94 96 99 95 96 120 117 100 122 127 98 100 103 106 109 111 112 112 109 114 120 124 131 136 140 133 127 124 109 107 94 83 83 86 85 80 88 97 109 127 142 140 139 128 100 89 102 110 105 99 94 94 97 99 102 106 107 105 101 97 94 91 95 109 119 110 101 107 110 110 112 109 121 125 125 126 122 119 120 133 137 121 94 85 79 84 100 109 103 77 69 75 79 76 74 71 63 61 63 73 81 86 93 104 107 109 112 106 104 103 94 117 126 90 85 88 88 88 86 83 81 86 106 130 135 130 116 94 80 77 73 72 68 72 76 105 128 124 107 89 81 84 86 86 84 86 90 91 88 86 85 83 89 88 82 83 86 85 82 79 71 67 63 63 61 59 61 60 59 58 63 77 94 95 101 103 110 115 122 122 123 120 112  165 163 157 154 155 156 157 157 158 158 159 159 157 154 155 152 149 154 156 153 156 160 162 163 162 163 162 161 159 158 169 183 193 192 184 181 177 177 177 176 174 168 169 170 170 171 191 177 163 165 165 166 170 172 173 173 171 171 169 171 184 202 199 185 170 157 151 150 163 182 178 164 152 151 148 145 143 149 155 155 157 160 163 161 152 160 185 188 176 175 177 178 181 186 189 190 193 194 192 190 194 193 179 161 145 137 148 170 188 178 178 165 154 152 159 157 152 157 163 158 154 152 155 154 151 148 146 146 145 145 146 147 166 188 178 166 166 159 170 187 190 190 187 181 177 172 166 158 154 151 152 152 151 149 153 152 144 139 139 141 144 145 147 168 175 162 173 179 160 150 151 155 156 159 158 154 152 156 165 174 182 189 193 189 185 182 173 167 153 142 139 138 136 134 139 144 150 168 189 189 186 181 170 158 150 150 152 151 152 155 156 157 155 154 154 152 153 157 157 150 145 163 172 165 153 150 154 161 161 161 169 172 176 178 178 172 173 173 173 165 153 149 143 147 161 164 166 149 139 140 141 137 134 127 123 121 119 123 129 133 137 142 146 147 146 144 142 140 137 145 162 155 145 142 142 140 138 135 135 135 146 160 166 160 151 140 133 132 132 132 128 130 132 153 173 172 162 146 134 138 143 146 151 156 158 157 156 150 141 140 146 146 141 136 134 134 130 127 124 122 123 123 122 122 122 120 121 124 129 144 152 153 160 163 165 168 173 174 174 170 163 
68 14 14 20 29 36 36 41 45 46 46 44 41 35 25 26 24 20 31 32 22 25 32 33 35 39 45 49 48 53 71 86 97 91 67 40 18 23 47 58 38 4 21 48 53 48 17 0 0 35 60 53 48 50 49 45 43 39 39 72 98 63 7 0 26 44 42 30 34 66 64 11 6 26 25 22 17 7 0 0 0 2 16 34 35 17 45 65 17 0 18 53 57 56 54 50 45 36 33 31 39 65 64 15 4 31 51 49 27 65 18 0 18 23 22 19 6 0 0 1 19 30 29 24 20 17 9 6 10 13 13 16 21 53 64 9 0 1 0 15 54 62 61 62 59 49 43 40 35 29 31 27 18 3 2 13 6 2 22 28 25 29 25 28 53 31 0 25 77 20 16 30 32 35 34 36 45 53 57 57 56 55 44 27 8 6 3 0 9 13 4 14 16 18 18 19 29 56 73 62 44 19 0 5 33 49 41 30 20 11 9 8 11 20 29 32 28 12 0 1 0 13 41 43 22 21 41 44 45 37 49 57 34 19 22 22 19 20 31 37 48 20 11 8 25 5 0 2 0 0 0 0 0 0 0 0 0 0 0 6 16 21 34 36 36 34 27 17 12 6 0 0 0 0 0 1 4 5 7 8 11 21 31 36 35 31 23 12 6 3 2 2 1 17 62 81 65 29 11 12 10 9 3 1 0 0 0 0 0 0 0 0 0 0 8 14 14 13 8 4 1 0 0 0 0 0 0 0 1 1 0 21 37 21 17 20 20 23 31 37 52  105 101 102 106 110 112 112 112 110 110 110 108 104 98 101 101 102 104 102 103 102 107 109 111 110 114 116 112 113 125 135 144 143 134 129 123 122 120 119 111 106 110 117 119 119 124 128 100 113 123 121 120 118 116 115 115 111 109 131 153 150 130 115 110 109 107 102 106 123 131 114 101 100 99 97 91 80 74 76 81 91 102 116 120 114 123 134 120 101 110 131 139 143 141 140 141 138 136 136 142 155 148 121 103 106 124 136 129 132 120 108 99 101 99 99 99 83 79 94 105 107 109 107 106 103 99 96 96 97 98 100 104 123 139 113 103 108 91 108 145 152 151 147 141 128 120 117 108 104 101 101 101 92 88 92 83 81 90 89 90 96 95 98 124 120 100 110 129 101 100 102 106 109 109 111 116 121 127 131 135 138 134 125 118 121 109 97 100 87 84 84 87 89 87 87 110 135 144 140 134 119 94 92 105 111 105 98 96 94 93 95 100 105 110 110 105 102 96 93 89 98 116 118 102 99 103 104 113 105 115 126 122 122 122 123 120 117 127 135 133 106 86 87 113 108 110 108 93 76 68 64 65 66 71 71 72 72 73 82 90 92 97 104 106 109 107 103 100 99 91 85 84 85 80 82 85 84 81 79 87 109 133 141 137 126 104 82 76 72 71 70 67 83 120 129 119 99 83 80 79 74 79 85 84 88 87 89 88 88 91 90 84 83 87 86 83 80 78 75 71 62 61 59 56 62 62 63 63 56 62 95 104 95 88 93 97 102 106 107 113 117  157 154 152 154 157 157 159 160 160 158 159 160 156 152 152 151 150 153 154 153 152 157 159 159 159 160 158 158 158 167 182 193 192 185 181 178 176 176 177 173 167 168 169 167 168 177 191 171 167 173 170 168 168 170 169 167 166 164 181 200 200 190 179 170 164 160 156 153 172 183 172 157 149 148 147 146 140 133 135 143 151 161 172 174 168 176 190 181 166 171 186 190 191 193 191 190 188 187 187 186 194 196 179 155 151 170 184 184 187 178 162 148 148 149 150 155 151 151 158 157 156 157 158 156 154 153 151 150 149 149 149 150 172 187 173 162 164 160 165 184 189 189 186 180 174 170 165 158 154 153 153 151 152 150 154 148 141 139 139 140 143 143 147 172 175 161 166 183 164 152 151 154 155 153 153 157 163 172 181 187 190 188 182 175 180 175 165 161 148 141 141 138 138 137 136 151 176 191 187 183 180 165 155 149 149 152 152 152 154 155 155 157 156 155 155 153 155 157 159 152 149 166 170 160 151 149 152 160 161 166 171 169 171 175 176 178 176 172 169 174 159 148 145 163 162 163 166 155 141 137 138 137 139 141 139 137 134 134 134 135 139 143 146 146 147 145 142 141 140 137 140 149 155 150 143 139 137 135 134 134 143 159 166 163 154 141 132 130 130 131 130 126 140 167 174 169 154 137 130 129 129 136 144 150 153 156 157 156 153 153 150 146 139 135 132 131 129 126 122 119 120 120 120 120 121 122 122 126 125 128 153 155 151 148 152 153 154 159 162 168 169 
66 24 24 27 32 43 43 44 45 46 43 40 38 32 23 19 18 19 29 28 21 21 27 30 32 36 44 45 48 65 85 98 89 67 41 17 16 42 59 49 10 0 15 39 39 30 6 0 1 44 54 53 54 54 58 56 46 52 87 81 26 0 5 34 46 43 47 45 55 75 45 3 18 24 21 22 21 13 7 3 11 39 44 40 36 47 69 34 0 0 9 24 27 25 23 29 28 23 25 31 40 74 66 16 31 53 27 0 5 70 23 3 21 21 22 20 24 4 0 0 15 25 25 20 21 18 13 15 17 18 20 20 22 60 54 2 0 1 0 7 46 63 61 56 52 46 42 38 32 27 27 20 11 1 9 12 0 5 19 19 18 22 21 29 58 29 0 16 78 30 16 34 35 39 43 54 62 59 57 55 46 32 19 8 0 1 0 0 19 11 4 13 20 23 21 39 66 61 56 40 7 0 13 46 53 36 25 18 15 9 4 9 16 28 36 33 28 10 1 9 0 19 50 40 15 18 37 43 41 45 64 74 49 13 4 4 10 12 20 38 46 31 14 7 26 13 0 1 4 22 12 2 0 0 0 0 0 0 0 0 0 5 15 22 31 32 28 24 13 8 6 3 2 0 0 0 0 2 2 7 12 23 39 46 44 42 32 14 9 8 2 1 1 39 76 73 44 17 9 10 9 10 8 6 6 3 0 0 0 0 0 0 0 0 8 15 17 10 6 5 1 0 0 0 0 0 0 0 0 1 0 16 52 33 29 40 38 29 24 13 16  107 103 103 108 115 118 113 112 112 111 109 106 101 96 94 99 101 105 100 99 101 106 107 110 110 114 115 113 119 132 143 143 134 128 120 120 122 118 117 100 96 105 108 108 110 123 120 98 120 124 125 125 127 126 123 120 121 142 152 136 115 105 109 115 116 113 111 116 131 127 106 99 95 92 96 92 82 81 78 89 122 128 121 122 129 133 126 106 92 103 114 119 126 126 129 129 126 123 126 130 150 149 120 116 130 131 121 113 133 121 108 101 104 105 101 106 99 78 87 104 107 108 108 106 106 104 102 101 103 103 102 102 129 130 105 99 102 91 98 137 150 149 143 134 123 115 112 105 103 103 101 97 93 91 88 77 84 88 82 88 93 93 99 127 118 100 102 133 106 100 106 107 111 116 121 126 133 137 139 136 130 117 106 109 116 97 90 98 88 88 89 90 90 93 115 140 141 139 131 110 93 104 119 112 105 99 95 94 92 92 96 103 109 112 109 104 103 98 99 92 100 119 117 97 94 101 110 109 106 123 130 122 118 119 121 122 121 126 130 129 116 97 82 106 111 109 110 108 106 91 77 68 66 66 59 60 63 68 69 77 83 88 98 105 110 110 105 100 99 94 90 86 84 82 76 72 73 79 83 87 109 133 140 138 131 109 84 77 76 71 69 66 101 127 122 107 88 78 76 74 71 70 78 84 87 83 84 87 88 91 89 84 86 89 87 85 81 79 75 69 60 61 58 57 60 61 62 59 56 55 85 116 101 90 97 98 97 93 92 95 99  156 154 154 154 157 159 161 161 160 159 158 159 155 151 149 150 152 153 153 150 148 153 155 156 158 159 157 157 164 180 192 194 187 182 176 174 174 177 176 167 160 160 163 162 163 181 186 166 171 176 174 173 172 174 171 167 172 193 202 194 178 163 163 168 169 167 163 167 182 181 166 153 148 148 147 146 143 138 136 140 151 163 172 178 182 188 184 173 160 160 170 179 181 181 177 176 174 172 173 174 189 196 178 168 180 187 181 169 186 180 161 149 150 149 151 155 158 149 152 158 158 160 161 159 159 158 155 155 154 154 151 153 177 184 171 162 164 162 161 180 186 186 183 177 172 169 165 160 154 154 155 153 150 152 153 145 140 140 139 140 140 142 149 175 172 159 157 183 168 154 150 150 151 154 158 170 178 186 191 191 184 176 166 166 175 166 159 156 148 142 140 140 139 139 156 181 186 185 184 176 163 156 155 152 151 151 153 155 154 154 155 155 157 158 157 155 156 159 160 156 156 170 170 155 145 147 159 162 162 169 173 168 167 171 175 179 181 180 177 177 170 155 143 159 165 164 166 161 152 142 137 134 133 134 135 136 138 139 140 141 141 143 145 149 149 146 142 141 140 139 138 140 147 152 148 142 141 138 133 134 142 157 164 161 153 142 133 129 128 128 128 130 155 174 172 161 144 131 127 128 127 130 135 141 145 149 151 155 157 156 154 147 142 139 134 129 127 125 122 118 116 116 117 117 119 123 123 124 125 123 148 160 149 147 149 148 149 150 150 155 158 
22 33 31 29 33 41 46 48 47 44 42 40 38 32 21 13 10 19 29 25 18 15 22 26 29 34 40 46 60 81 95 94 69 40 15 10 32 61 62 25 0 0 7 28 26 20 3 0 5 37 44 47 55 55 48 62 88 88 47 1 7 28 32 28 23 27 30 34 68 77 24 9 38 39 33 29 26 20 14 17 36 64 52 32 43 69 51 4 0 0 16 40 21 14 23 30 37 37 35 37 39 70 72 48 32 4 0 6 22 75 28 2 20 19 17 19 26 7 0 0 2 22 25 21 25 18 18 22 21 23 23 22 32 70 40 0 0 0 0 0 32 55 57 50 44 40 36 31 30 27 24 17 7 3 16 6 0 10 13 11 14 16 11 35 72 30 0 12 68 49 12 31 36 48 58 61 59 59 54 38 22 11 5 1 0 0 0 5 28 11 5 14 17 26 54 72 55 39 25 3 0 19 47 49 37 20 16 15 14 8 6 12 21 34 35 35 31 8 0 10 0 20 50 33 5 15 37 45 43 55 74 82 62 19 0 0 1 1 8 18 30 33 16 8 15 19 0 1 6 34 28 16 8 3 0 1 0 0 0 0 0 0 0 0 4 10 17 17 11 11 6 3 5 6 4 1 0 0 0 1 7 22 42 46 48 46 37 18 10 10 6 0 12 62 78 56 26 7 3 7 7 7 8 9 16 16 4 0 0 0 0 0 0 0 0 2 11 9 6 7 2 0 0 0 0 0 0 0 0 0 0 8 50 39 25 39 48 48 45 40 29  111 106 106 112 112 118 116 114 116 112 112 110 104 96 93 94 98 104 101 95 97 105 107 106 110 113 113 120 130 141 143 137 129 120 115 119 123 119 109 93 89 104 102 98 106 129 112 95 116 117 121 123 126 123 127 145 154 144 124 113 109 102 101 96 102 105 108 124 135 121 103 105 104 100 97 96 89 88 89 111 146 132 119 133 140 133 116 107 95 104 116 108 109 118 122 122 122 117 114 115 139 140 128 131 122 111 100 98 132 125 109 103 101 101 104 106 101 89 77 90 106 108 108 110 108 108 107 106 108 106 104 108 135 126 103 102 106 99 94 125 141 139 135 128 121 117 113 107 103 104 103 96 92 93 81 76 88 88 84 85 91 85 104 137 116 98 97 130 113 99 105 108 117 127 132 136 140 140 133 124 112 102 94 108 108 89 93 100 88 90 92 91 99 124 143 137 131 125 102 93 112 125 121 110 100 96 98 94 93 95 101 108 112 110 109 106 104 97 102 95 105 121 114 92 87 104 112 106 119 129 133 128 117 112 115 117 118 123 125 122 121 106 92 104 112 109 110 111 110 99 89 77 72 66 63 64 64 66 63 64 67 70 73 85 94 101 99 96 96 93 87 83 83 82 80 80 73 68 72 80 105 128 130 130 122 108 83 73 73 72 67 84 122 125 113 96 78 71 72 72 72 71 76 80 83 84 83 86 87 89 88 87 85 87 89 90 85 82 74 66 62 63 59 58 60 61 58 57 60 60 81 118 106 87 92 101 103 103 104 98 94  158 155 154 157 158 158 161 160 159 160 158 156 156 153 149 149 148 151 153 151 149 152 155 154 155 157 156 161 175 189 194 188 183 179 173 172 174 177 170 161 156 155 158 156 160 186 181 161 168 172 171 174 175 171 173 189 202 199 186 176 164 155 153 154 157 161 163 177 189 179 167 162 157 156 152 151 149 148 146 150 160 168 172 185 191 187 176 172 160 163 172 167 165 166 164 164 162 161 160 162 182 190 183 186 182 170 153 146 183 182 160 148 151 149 151 157 162 156 147 155 158 157 159 161 161 160 159 158 157 157 154 161 185 183 168 161 164 164 159 171 179 179 175 171 169 167 166 162 156 154 155 153 153 154 150 141 139 137 137 139 138 139 156 180 171 161 153 178 173 156 147 148 156 165 175 184 190 191 187 181 170 159 153 170 174 161 158 155 147 144 144 139 144 168 189 185 179 180 172 160 159 159 157 155 153 152 154 156 156 154 154 156 157 156 154 153 156 159 157 156 161 172 167 150 144 152 162 165 165 169 174 170 164 167 174 177 178 180 181 178 174 165 152 156 165 162 166 162 153 143 135 131 128 125 126 128 132 137 140 141 140 141 141 145 146 145 144 143 139 136 135 136 138 138 144 152 148 142 136 136 141 151 155 156 151 141 133 130 128 125 125 140 169 175 167 152 134 127 126 126 126 128 132 138 140 142 143 147 154 156 157 155 149 145 143 137 131 127 123 118 116 115 116 115 118 120 123 125 124 123 142 160 153 144 144 149 153 152 150 146 145 
22 26 32 33 36 43 45 49 49 43 42 40 35 31 22 14 12 15 23 23 18 17 25 28 30 35 40 54 76 91 95 74 46 21 7 24 57 69 44 5 0 0 2 24 31 13 0 0 9 30 32 37 39 48 75 90 55 8 1 27 54 63 60 48 36 27 15 34 76 57 5 16 45 52 52 39 33 34 35 37 45 56 44 39 63 65 16 0 1 0 0 28 61 35 26 41 40 42 43 39 42 62 42 11 0 6 21 23 24 78 38 2 18 16 19 25 16 0 0 0 0 6 22 19 17 18 21 23 23 27 31 28 45 72 24 0 2 0 0 0 16 40 39 41 39 33 29 28 28 24 21 13 4 10 15 1 1 7 10 16 14 14 23 58 63 28 4 9 55 68 12 35 48 57 60 60 56 47 33 20 13 8 4 1 1 0 0 19 30 12 8 12 32 61 64 48 32 9 0 5 30 49 42 34 26 17 19 20 15 10 13 21 27 34 33 36 27 3 0 8 0 16 50 26 1 18 44 43 48 64 80 84 75 29 0 0 0 0 3 16 18 22 19 18 15 21 2 4 4 32 28 19 16 9 4 3 4 6 13 11 7 2 0 0 0 0 0 0 2 4 2 3 6 6 9 7 2 0 0 0 0 4 29 43 45 41 31 15 8 6 5 1 40 78 72 39 11 0 1 4 4 4 5 8 15 19 16 8 3 0 0 0 0 0 0 0 0 5 9 8 2 0 0 0 0 0 1 0 0 0 0 3 36 43 22 27 33 37 43 45 43  108 107 108 114 112 115 118 117 116 113 113 111 107 100 95 96 101 107 108 99 99 109 109 108 110 115 120 130 138 145 139 133 125 117 114 120 123 114 106 96 91 97 107 103 112 132 104 98 111 112 114 112 121 139 151 144 125 114 116 123 129 124 117 105 97 93 104 129 134 117 104 113 119 120 110 110 113 111 114 123 134 129 133 138 134 124 112 121 119 100 108 123 111 109 115 117 121 120 115 120 132 125 120 112 100 94 97 100 133 130 107 102 103 98 105 101 89 93 86 81 100 107 108 110 109 110 109 109 111 111 111 119 140 121 102 104 107 104 97 115 129 126 125 120 117 117 117 113 107 104 103 94 93 91 77 82 84 84 88 83 87 97 129 133 120 105 90 124 125 101 112 123 128 132 140 141 136 129 118 108 100 92 94 112 101 85 98 99 90 88 90 109 133 139 134 124 116 100 99 118 127 121 115 105 96 96 100 98 98 100 105 112 110 108 106 107 105 90 99 94 101 118 105 83 89 109 107 111 125 132 138 134 119 108 108 111 113 117 124 122 122 114 105 106 115 111 111 111 110 100 88 80 72 67 68 70 72 81 86 83 77 74 65 67 68 74 81 87 92 88 81 80 81 82 84 81 79 75 71 68 87 114 121 121 114 99 83 75 70 71 70 104 128 120 104 83 69 66 67 69 66 69 74 79 81 80 80 85 84 84 87 89 88 87 88 89 92 86 78 71 65 63 59 57 58 62 60 58 63 66 74 105 108 85 83 94 96 103 108 108 107  157 156 154 157 160 157 159 161 160 158 158 157 157 153 147 148 147 148 149 150 148 151 155 155 154 154 160 173 187 194 190 185 179 174 170 171 175 173 167 163 154 151 160 157 168 193 174 159 160 163 165 166 169 182 197 197 186 175 172 173 172 170 166 159 155 152 159 181 189 177 167 168 171 171 168 166 165 166 165 167 172 175 182 189 186 180 172 177 177 161 168 178 166 158 159 161 160 158 154 165 180 181 183 173 154 143 142 148 183 182 161 147 148 148 154 161 157 153 152 149 156 156 158 161 162 162 162 160 159 158 162 169 189 178 163 161 166 167 160 161 168 169 166 166 166 165 163 163 159 156 155 154 154 153 146 141 142 138 139 138 138 149 175 179 172 164 149 171 179 156 150 156 168 179 188 192 191 184 175 165 157 148 152 176 170 157 157 154 147 145 143 155 177 186 182 177 175 169 162 160 161 159 157 154 151 150 153 155 155 154 154 156 158 155 151 154 160 155 158 157 164 172 163 147 148 160 162 162 167 171 174 175 166 162 168 170 170 174 180 180 177 172 164 160 167 164 170 164 154 143 139 134 129 123 121 123 130 138 145 149 146 142 141 138 142 144 145 143 140 136 133 132 135 136 135 138 143 149 143 137 140 148 150 149 144 138 132 130 127 124 128 156 173 171 160 143 130 128 126 124 125 127 130 136 139 139 142 147 149 148 151 155 157 154 150 148 143 135 126 121 117 114 116 115 116 119 120 124 127 129 138 156 154 143 140 145 148 148 149 151 147 
40 12 22 35 39 45 46 50 50 47 44 43 36 32 23 19 17 16 21 23 23 17 20 31 32 38 48 72 90 94 82 52 23 9 19 50 72 58 22 6 3 0 0 12 28 9 0 0 19 30 27 27 53 96 72 14 0 14 39 52 56 59 65 65 60 55 47 60 77 33 0 16 34 47 49 36 27 33 36 37 40 39 40 55 64 32 0 0 0 0 5 7 32 66 39 20 37 38 47 57 46 15 0 0 3 20 24 19 22 74 28 0 13 11 23 25 4 0 4 3 0 0 10 19 20 19 23 26 27 31 40 36 54 67 12 0 4 1 0 0 5 27 29 33 32 27 26 26 27 28 27 15 7 18 6 0 7 11 11 9 13 40 63 66 46 27 3 8 41 78 43 49 59 59 59 50 35 22 19 15 14 15 16 8 0 0 1 32 25 6 14 36 60 54 40 20 2 0 9 40 46 36 31 23 22 22 27 22 13 11 15 26 34 33 32 30 18 0 0 5 0 8 45 18 6 38 47 39 52 69 80 86 83 53 8 0 0 0 0 20 26 22 21 26 22 21 4 7 2 27 32 23 17 10 6 6 13 18 27 27 30 33 27 17 4 0 0 0 0 0 0 0 4 8 11 9 10 7 2 0 0 0 4 15 26 31 27 14 7 7 5 21 66 82 56 22 5 0 0 1 1 1 4 8 16 16 16 17 3 0 0 0 0 0 0 0 0 0 3 5 2 0 0 0 0 0 1 0 0 1 8 5 28 44 23 19 26 26 26 32 38  103 106 108 111 115 114 116 116 119 117 115 113 111 103 93 96 104 107 105 104 101 108 115 115 116 121 132 137 143 142 135 127 120 116 116 120 117 109 110 105 97 90 104 102 119 123 96 106 109 106 107 124 150 150 130 113 105 111 119 123 128 130 131 125 120 112 120 135 128 108 96 107 124 129 122 123 126 126 128 130 131 138 139 132 124 112 103 117 106 99 106 112 122 114 106 111 117 121 128 131 122 115 105 91 90 92 95 100 133 129 107 98 99 102 108 96 86 90 93 85 84 100 108 108 108 109 109 109 110 117 119 128 138 113 100 105 111 108 93 101 118 117 117 115 112 114 115 113 113 112 105 98 98 83 79 91 86 85 82 83 105 129 139 133 128 105 93 116 137 120 122 132 137 139 137 131 121 112 102 96 92 92 106 109 88 87 103 93 87 95 113 134 133 127 120 110 95 106 125 121 116 110 105 99 95 100 100 100 99 100 106 111 108 106 104 105 100 85 97 92 97 117 98 86 104 110 103 111 123 129 137 142 125 108 102 103 104 106 123 130 127 121 113 110 117 112 110 106 111 101 89 83 74 72 74 74 80 89 97 99 103 106 100 86 76 68 66 71 76 80 77 79 83 83 85 85 81 79 77 72 75 91 96 99 101 90 81 72 70 69 84 119 125 114 94 72 64 63 64 64 62 66 72 76 77 79 85 81 73 74 79 88 90 92 92 88 88 87 87 84 71 64 63 61 59 62 58 63 69 71 73 96 110 89 83 89 89 95 98 106 107  155 155 154 157 160 159 160 161 162 160 159 159 156 153 150 148 148 148 147 150 147 149 154 155 155 158 172 186 193 191 186 183 174 169 169 172 174 167 164 165 156 150 159 161 176 190 164 159 159 158 158 170 193 198 189 173 161 162 167 170 172 175 176 173 170 164 170 186 187 169 156 165 176 179 177 178 178 179 178 178 181 182 187 186 182 173 165 177 168 159 159 165 176 172 158 160 159 163 175 183 181 180 168 145 139 140 141 146 181 183 162 146 145 151 161 159 149 144 151 152 152 157 158 160 161 162 160 159 159 163 166 175 186 174 162 159 164 168 160 151 155 156 156 159 163 165 163 164 163 160 157 156 154 152 144 142 142 143 141 142 158 177 183 178 175 164 145 161 185 171 166 172 182 190 190 187 177 167 158 151 148 146 161 174 161 155 157 154 145 146 164 184 184 178 175 173 166 162 165 161 159 156 155 152 148 151 153 155 154 152 154 156 156 153 151 156 161 152 157 156 161 171 158 146 157 162 157 158 163 170 176 178 169 161 161 163 164 165 175 180 179 177 173 167 172 167 167 164 156 147 141 136 131 126 125 129 136 142 146 151 152 153 151 146 143 141 142 141 142 140 136 135 136 136 135 136 137 139 142 144 143 145 143 144 140 134 130 127 126 124 142 167 171 164 150 133 126 126 126 125 126 126 129 135 135 140 145 144 138 133 140 148 154 157 156 155 152 146 139 132 122 116 115 116 117 119 121 124 129 131 137 154 154 144 141 143 144 144 146 147 146 
40 5 7 20 32 43 46 51 51 49 49 47 41 32 26 21 17 18 23 20 18 21 19 27 32 42 67 91 98 86 58 27 9 14 43 67 67 36 5 21 20 0 0 3 19 4 0 4 25 23 42 86 81 28 0 10 34 40 38 40 45 50 53 56 56 58 65 83 69 20 8 22 14 19 23 19 20 22 26 30 31 36 59 69 47 6 0 1 1 0 19 35 8 23 55 35 20 46 45 17 0 17 23 0 4 11 14 15 21 69 20 0 9 13 27 15 0 0 6 5 1 0 0 15 23 19 22 24 29 37 42 42 65 57 3 0 7 7 0 0 1 21 29 26 24 23 27 28 28 30 32 18 19 19 0 1 9 4 2 17 49 67 45 24 40 22 0 11 45 80 61 52 57 54 41 26 19 10 13 20 24 28 24 7 0 0 18 45 16 12 48 61 44 31 10 0 0 11 40 44 36 27 21 23 27 32 32 21 14 16 25 29 32 32 33 27 8 0 2 9 1 1 32 13 18 49 39 34 53 66 78 83 86 71 22 0 1 0 3 22 38 37 26 22 23 25 9 6 0 24 33 26 22 13 9 10 17 24 29 30 33 43 46 46 34 21 6 0 0 0 0 0 0 4 9 7 9 13 13 10 8 2 0 0 0 3 9 11 8 6 9 43 75 69 39 9 0 0 0 0 0 0 0 8 14 14 13 5 0 0 0 1 1 0 0 0 0 0 0 0 1 0 0 0 0 0 0 0 0 8 18 17 24 49 28 16 22 21 15 20 31  98 98 102 106 114 114 115 115 117 120 119 117 111 105 99 98 105 108 102 102 104 106 112 119 122 132 141 143 143 135 125 116 114 113 116 117 110 104 116 118 102 89 94 104 126 113 93 107 103 112 141 151 132 112 106 106 106 105 105 109 116 118 119 121 127 129 136 137 119 101 97 106 120 121 117 120 119 120 122 123 126 140 136 127 112 99 99 117 93 97 112 109 110 122 118 107 122 131 122 112 122 119 95 91 91 92 93 99 131 124 105 95 98 106 103 85 83 89 90 93 85 87 108 109 108 107 106 108 113 122 125 136 132 110 103 104 111 110 91 89 110 113 110 111 110 112 115 115 115 115 105 100 93 77 88 94 88 81 91 114 130 122 120 142 128 100 104 117 140 134 132 136 138 133 124 114 103 98 96 97 95 102 114 100 85 96 103 88 97 122 132 128 119 115 108 90 104 125 122 113 105 103 102 100 101 103 99 96 100 104 104 109 107 101 103 105 93 89 100 92 93 112 94 97 113 102 102 111 121 128 135 142 135 113 99 97 102 108 116 131 133 128 118 113 118 113 111 106 111 104 93 86 78 75 75 81 89 94 98 103 107 112 114 111 105 91 76 69 64 64 71 78 83 87 87 85 87 86 84 80 79 81 84 81 71 72 75 74 69 74 104 124 119 105 83 65 63 64 63 62 62 63 71 78 78 79 81 72 67 72 72 76 82 90 88 90 88 83 86 88 84 75 68 66 63 60 59 63 72 80 79 95 115 97 83 88 87 85 90 98 102  152 153 153 155 159 160 161 162 162 162 162 160 158 155 152 148 148 148 147 146 147 149 152 155 159 168 184 193 192 186 183 178 171 169 171 173 169 160 163 167 160 152 155 161 183 185 162 158 155 163 186 199 192 178 163 152 149 151 153 157 161 166 169 171 171 174 183 187 178 161 152 162 170 174 171 170 171 174 175 176 177 186 188 183 176 163 157 179 160 152 157 159 165 179 173 161 173 182 183 177 180 180 159 145 142 142 140 145 181 181 161 144 149 158 161 151 140 141 143 150 152 154 159 160 161 160 158 158 163 167 169 179 184 170 160 157 159 168 160 148 144 145 148 153 157 160 162 163 164 162 160 158 155 147 145 144 143 141 149 166 177 177 176 184 177 160 154 163 188 183 182 187 190 185 178 169 159 150 145 146 147 150 171 167 156 153 156 150 152 171 182 179 175 173 171 164 161 164 164 161 157 156 154 149 152 153 155 157 155 154 155 155 155 152 152 159 157 149 156 158 157 166 154 152 161 156 151 153 160 167 174 179 175 162 159 159 159 161 168 177 179 180 177 172 173 168 167 165 157 149 144 137 133 130 128 135 140 143 147 148 152 157 157 154 150 145 140 137 137 139 139 139 140 141 137 135 136 138 136 136 138 142 145 144 137 133 131 129 124 129 158 170 168 157 138 125 125 124 125 124 125 125 131 135 136 141 143 139 131 129 131 136 141 147 153 155 156 152 149 146 136 127 118 116 119 119 122 126 132 137 137 152 157 147 139 141 140 138 139 142 144 
37 4 2 8 18 28 36 44 43 41 45 42 45 38 28 25 18 18 24 23 14 16 22 29 35 58 86 98 91 63 30 11 9 36 62 68 49 11 6 37 33 2 0 0 3 1 0 5 39 71 89 45 2 1 27 45 44 38 38 37 36 36 35 38 40 41 62 84 52 20 40 33 6 2 4 10 20 24 27 35 37 53 81 61 17 0 8 6 0 0 20 38 30 12 9 41 38 17 0 3 28 69 36 0 2 8 14 10 14 69 25 0 8 25 24 2 0 0 2 4 2 0 0 3 18 17 19 25 35 41 39 44 69 38 0 6 10 14 2 0 0 16 27 21 21 20 22 27 29 29 25 20 28 9 0 6 6 6 33 60 54 28 3 1 29 22 8 32 54 71 62 49 40 30 23 17 9 9 23 29 31 31 21 1 0 3 35 39 31 56 60 43 18 3 0 0 15 41 39 36 31 27 24 28 38 41 32 18 17 26 34 34 32 31 30 19 1 0 9 21 8 0 8 13 33 41 26 30 50 62 74 77 83 84 43 1 0 0 10 34 45 42 36 23 20 23 20 20 4 20 37 30 22 16 13 12 14 22 28 32 33 42 45 42 37 35 26 10 3 0 0 0 0 0 0 0 3 11 14 14 19 18 13 5 0 0 0 0 3 2 24 69 77 50 22 4 0 0 0 0 0 0 0 7 12 12 3 0 0 0 2 8 9 3 0 0 0 0 0 0 0 0 0 0 0 0 0 0 1 9 18 25 20 42 28 6 13 16 10 9 20  97 93 98 100 107 112 115 115 114 115 116 119 114 110 109 105 107 110 105 100 102 103 109 118 128 139 144 143 136 128 118 113 115 117 118 113 101 103 121 122 107 94 87 101 128 108 96 114 135 149 135 117 105 106 109 110 106 105 102 103 101 102 105 106 111 129 140 133 117 113 111 110 109 103 101 105 107 108 112 114 125 142 131 118 107 95 103 122 95 98 105 108 108 106 119 117 110 114 106 108 135 119 94 90 92 96 94 96 131 124 102 96 104 105 90 77 81 85 87 90 93 82 94 104 106 106 106 113 119 124 127 137 124 107 102 103 112 109 97 86 104 108 105 105 106 112 116 118 118 112 108 103 85 84 94 91 91 106 125 126 117 99 97 121 119 111 118 125 141 139 137 132 125 117 107 95 89 93 98 100 100 107 109 91 86 101 101 104 127 131 120 113 111 102 88 103 122 118 115 109 102 100 99 104 108 105 101 99 103 108 107 106 107 104 103 101 89 93 103 98 90 99 95 108 107 90 96 110 122 129 135 139 142 123 104 99 98 110 121 127 129 131 119 116 118 116 117 109 109 106 95 85 82 77 75 85 93 99 101 106 110 117 113 110 109 102 94 83 73 63 61 62 68 78 81 84 88 83 87 88 86 82 80 76 69 62 64 72 70 88 120 125 112 91 71 62 61 61 60 60 60 63 70 77 76 80 78 70 75 76 76 74 72 76 80 85 85 85 87 87 84 83 79 70 67 64 59 64 75 82 83 86 110 101 79 81 83 82 84 89 92  150 150 151 152 155 156 157 159 159 158 161 160 160 156 155 153 148 148 147 144 147 149 152 155 167 181 193 193 188 183 177 171 168 169 173 171 162 159 164 168 165 156 153 160 189 178 158 160 180 197 194 181 165 156 151 151 148 147 148 148 149 152 154 158 161 171 186 184 175 168 164 164 164 162 157 158 159 160 163 163 172 189 184 178 169 150 156 181 160 150 152 154 159 163 174 174 170 174 164 162 182 180 157 144 143 144 143 148 183 181 161 147 155 161 157 144 137 136 138 142 153 154 158 157 159 158 158 161 166 168 170 181 179 165 157 155 155 163 161 147 136 138 141 148 154 157 161 162 164 163 160 158 151 146 146 143 146 160 174 176 173 166 157 163 169 166 169 173 190 190 190 187 179 169 158 148 143 141 142 145 145 157 172 160 153 154 159 162 176 179 174 170 173 171 160 160 163 162 163 161 155 154 154 155 157 155 156 156 155 156 155 154 154 152 154 162 154 147 154 160 156 160 155 160 159 149 148 150 157 167 172 177 179 168 158 158 158 160 165 172 176 178 177 177 175 171 170 167 158 149 143 138 134 131 131 137 140 143 147 151 155 159 157 153 151 146 142 136 133 135 134 136 139 141 140 135 134 137 138 135 133 134 138 143 142 139 136 137 132 145 169 170 163 145 127 121 121 123 123 122 122 124 131 134 137 141 139 131 129 130 131 131 130 135 143 146 149 153 154 153 149 143 134 127 121 122 124 130 135 138 138 146 157 148 135 135 134 132 133 136 139 
27 7 5 3 6 9 16 25 32 34 38 40 44 42 35 31 26 21 26 22 16 16 23 33 52 81 95 93 71 38 13 7 27 58 69 58 24 0 18 38 38 10 0 0 0 0 0 57 91 50 7 0 14 33 41 41 40 36 36 37 36 30 26 26 23 26 63 79 34 20 44 31 5 0 2 15 29 35 37 41 48 71 71 35 5 2 13 4 0 0 13 31 44 55 20 0 41 42 15 31 47 68 23 0 3 6 7 1 11 70 19 0 12 25 9 0 0 0 4 4 7 4 0 0 5 17 25 33 36 39 40 45 68 26 0 9 16 24 6 0 0 12 18 14 16 17 20 26 32 32 22 31 26 1 8 11 22 52 64 39 8 0 1 16 35 40 38 45 54 59 48 28 20 13 6 6 10 20 26 30 32 28 10 0 0 13 48 44 44 48 28 14 15 3 0 10 31 37 34 33 31 30 32 38 41 33 24 20 23 33 37 37 32 30 27 10 0 0 20 25 5 0 3 25 42 26 13 31 48 62 73 80 85 88 61 12 0 0 4 29 51 53 42 24 20 24 23 28 13 21 36 28 23 18 11 15 18 19 24 28 36 41 39 39 34 29 24 18 12 4 2 0 0 0 0 0 0 2 8 15 19 19 19 23 16 6 0 0 0 0 4 26 47 29 7 2 1 0 0 0 0 0 0 6 8 2 0 0 0 1 4 11 14 10 4 0 0 0 0 0 0 0 0 0 0 0 0 0 1 2 15 30 19 31 38 11 11 10 3 3 6  95 95 95 95 98 101 105 109 112 113 113 117 118 114 112 111 108 107 107 97 98 103 110 122 134 142 143 137 130 120 115 114 116 117 114 104 97 108 116 119 113 99 84 98 119 96 122 147 137 119 105 102 108 111 109 108 105 105 105 105 99 96 97 93 97 125 140 126 110 117 119 111 100 93 92 96 102 103 105 113 130 136 124 113 99 93 102 120 93 90 99 115 128 122 108 117 120 112 108 114 134 111 90 89 91 93 91 95 131 124 102 99 107 97 84 80 81 83 85 90 98 93 85 99 103 107 111 117 124 125 127 137 122 105 101 106 109 105 96 86 96 102 99 102 106 109 114 120 120 112 111 97 85 100 96 104 119 127 121 108 95 93 98 112 120 123 130 135 139 134 125 119 109 98 89 84 89 94 96 100 103 111 100 88 97 112 113 120 125 116 108 116 103 89 100 111 109 109 109 107 106 102 107 108 106 100 97 102 106 108 109 107 105 103 105 98 90 97 103 98 89 92 103 112 92 81 94 108 118 128 135 143 147 131 111 102 98 106 119 130 131 128 118 116 119 118 119 112 109 106 93 83 79 76 78 87 91 96 103 107 112 116 112 109 107 101 93 86 80 74 69 66 62 61 62 73 79 83 85 85 82 80 82 78 74 72 74 65 62 65 84 103 99 80 64 62 62 60 59 59 59 60 70 76 76 78 74 73 77 75 77 81 77 70 71 77 80 84 85 86 88 88 87 81 75 69 64 70 77 81 88 81 99 105 82 76 73 72 74 76 80  150 150 149 151 151 152 152 155 157 157 158 159 160 160 156 154 151 149 148 147 147 149 152 161 178 190 194 189 182 178 170 165 167 171 172 166 159 161 161 165 168 162 152 161 184 166 175 194 195 184 168 156 152 152 151 150 148 148 149 149 148 145 146 146 148 169 188 181 170 169 170 167 160 151 147 150 152 153 154 160 177 186 178 175 159 145 159 181 158 145 147 162 177 176 168 174 176 166 157 162 183 175 154 142 140 142 143 149 184 179 160 152 160 160 151 143 141 138 138 142 149 156 155 156 154 158 161 163 166 169 176 187 176 161 153 149 148 158 162 147 131 133 136 144 152 156 161 164 164 162 163 158 149 150 148 154 169 178 177 169 161 149 145 151 166 176 181 185 190 189 183 172 162 150 138 133 136 139 142 143 145 166 167 155 150 159 168 175 177 171 167 172 170 160 157 159 158 160 161 158 156 155 158 160 158 156 154 153 154 154 154 155 153 153 159 160 152 148 152 157 155 156 160 162 152 142 145 149 157 165 170 176 180 173 161 159 159 160 164 172 173 173 172 175 176 172 173 168 159 149 143 138 134 133 134 134 140 143 148 152 157 159 157 152 147 145 140 134 130 129 129 130 135 138 141 138 137 138 136 133 132 133 131 131 132 138 145 142 139 138 147 160 155 134 122 121 121 121 122 121 121 123 131 136 141 142 132 127 130 129 131 131 130 127 127 133 139 144 149 154 154 151 147 142 135 130 128 132 135 138 142 140 154 152 133 127 125 123 123 126 131 
13 13 11 8 4 5 7 14 22 26 34 38 41 39 35 31 28 33 36 26 20 15 23 48 75 95 97 77 44 15 6 23 51 69 65 38 7 8 25 33 34 18 0 0 1 0 10 55 10 0 13 27 30 34 35 36 38 37 37 38 36 29 26 27 20 30 76 70 13 7 30 20 1 0 7 22 31 32 36 42 58 75 45 18 3 8 16 4 0 0 34 53 47 16 3 7 11 50 49 19 45 65 17 0 7 9 6 0 11 72 18 0 22 12 0 0 0 0 4 9 9 9 3 0 0 17 34 34 36 37 38 53 64 14 0 9 21 26 4 0 0 6 18 14 15 16 19 27 30 29 30 37 11 2 23 41 66 55 18 0 0 7 27 46 55 55 50 51 48 37 35 13 3 2 3 7 14 18 22 25 29 26 4 0 0 34 61 46 36 20 13 18 4 0 8 19 19 25 31 36 39 39 46 42 31 19 16 24 32 38 39 35 35 29 13 1 0 7 29 30 8 0 6 39 35 12 12 29 46 61 74 82 88 89 73 28 0 0 0 18 51 63 53 25 19 23 19 24 18 22 36 27 22 18 9 14 14 17 25 30 38 38 38 37 31 25 20 14 10 6 5 1 0 0 0 0 0 0 0 3 8 16 19 19 18 17 12 3 1 0 0 0 0 2 0 0 1 0 0 0 0 0 1 3 3 0 0 0 0 1 2 7 14 13 9 5 1 0 0 0 0 0 0 0 0 0 0 0 0 2 17 30 17 27 52 20 13 9 0 0 1  99 98 96 93 92 96 97 101 108 114 113 115 115 113 111 111 114 111 107 102 99 104 118 132 140 144 140 130 121 115 113 117 117 117 110 98 100 108 109 111 112 104 87 96 103 106 136 118 104 104 104 106 108 104 104 106 105 103 101 99 97 96 97 91 98 130 140 118 99 104 111 103 92 88 92 94 98 101 107 119 131 123 117 104 93 94 105 117 90 111 129 135 123 110 107 110 124 126 114 116 135 114 94 92 91 90 89 93 132 122 100 100 100 85 84 87 87 89 95 98 99 100 86 89 105 111 114 119 123 127 130 136 116 101 102 107 106 104 97 82 88 100 99 100 105 111 114 118 118 114 109 89 95 109 118 130 124 111 102 92 96 107 116 124 129 133 134 133 130 127 112 102 97 87 83 85 89 91 94 98 106 108 89 90 114 123 121 122 112 112 116 101 88 96 103 103 101 104 110 112 112 112 112 104 97 93 94 103 107 106 106 108 104 104 102 90 92 103 105 102 92 95 111 101 84 84 92 104 114 127 135 142 147 138 118 104 98 104 113 129 137 130 116 113 116 117 119 112 112 107 92 84 81 77 81 86 90 98 105 110 115 115 111 104 102 99 91 82 78 77 76 74 72 69 61 63 67 73 77 81 78 76 76 78 75 72 70 67 71 63 57 60 67 67 66 64 59 61 61 58 57 60 67 75 77 75 76 77 75 72 76 81 81 76 72 73 77 81 81 80 85 85 84 84 83 79 73 72 76 84 87 80 95 115 90 76 72 62 59 63 68  148 148 149 150 149 150 152 153 154 156 157 158 158 158 156 157 155 154 153 150 148 149 158 173 187 193 191 183 177 172 166 166 170 173 169 160 158 159 158 160 167 165 154 161 169 171 194 182 170 158 151 152 154 151 150 149 146 146 147 147 146 145 145 142 147 178 191 177 159 158 163 162 153 147 146 147 149 151 154 167 182 180 177 168 149 144 160 181 156 160 177 186 179 167 160 165 177 176 165 165 184 174 153 143 141 142 138 145 184 178 158 158 161 155 148 144 143 143 145 148 150 154 153 156 158 160 162 166 169 171 178 185 173 158 148 143 142 153 160 147 128 129 135 141 149 156 161 164 165 162 161 154 151 156 167 178 178 173 167 154 147 149 158 168 176 184 188 188 185 185 174 155 143 135 131 131 134 138 138 139 154 172 158 154 162 173 174 174 169 171 176 168 158 157 154 156 157 157 158 159 159 160 161 157 156 153 152 152 152 152 153 155 153 158 161 157 151 149 152 158 156 157 164 156 143 138 142 149 155 163 170 175 180 177 164 160 160 158 164 171 174 174 168 170 174 174 175 171 160 149 142 136 133 133 133 134 139 143 149 154 156 157 155 151 148 144 139 135 132 128 126 127 130 132 136 139 139 137 137 135 131 131 131 129 128 128 130 139 144 138 137 137 138 134 125 120 118 117 120 120 121 124 131 137 141 136 127 123 126 125 125 132 132 128 126 124 127 134 139 142 147 151 152 150 147 144 140 137 137 140 141 138 148 157 137 121 116 115 116 119 123 
4 19 16 14 10 6 8 12 15 16 22 26 33 31 29 30 27 37 42 38 34 28 42 71 90 95 81 50 18 3 12 44 66 68 50 14 7 21 27 32 41 24 0 0 0 0 0 2 19 35 35 30 29 33 33 35 38 35 36 35 33 32 30 25 18 51 85 53 2 7 22 13 0 0 17 29 29 28 33 53 69 56 19 17 2 18 14 2 0 7 36 10 0 9 22 29 18 10 44 42 25 52 15 3 14 15 10 0 13 68 10 6 18 0 0 0 0 0 2 8 9 7 5 0 0 5 32 36 39 38 35 62 48 0 2 9 19 23 7 0 0 3 17 18 16 14 18 25 29 28 39 28 0 22 58 70 45 6 0 3 18 38 52 57 56 54 47 33 16 14 44 10 0 4 9 6 7 9 17 21 20 12 0 2 36 65 44 29 23 29 23 2 0 4 15 19 23 28 37 48 52 52 48 34 22 16 16 31 35 37 36 35 33 19 1 0 1 15 28 34 12 0 8 37 16 9 14 24 42 56 71 82 88 90 80 41 4 0 0 10 44 61 64 29 11 19 18 23 23 24 31 27 19 15 11 13 14 17 25 33 34 34 36 33 28 25 17 10 7 4 4 2 0 1 1 0 0 0 0 0 0 3 11 15 12 12 16 12 24 47 26 2 0 0 0 0 0 0 0 0 0 0 0 0 0 0 0 0 0 0 0 2 6 13 10 7 5 1 0 0 0 0 0 0 0 0 0 0 0 2 10 18 14 23 63 30 9 10 1 0 0  104 99 99 100 93 91 94 98 103 110 110 110 110 109 109 109 117 118 112 110 105 111 128 137 143 142 133 122 117 112 115 120 118 112 103 101 106 107 109 114 114 107 90 86 91 105 115 111 108 108 104 104 105 101 102 105 103 102 99 100 97 92 92 92 111 137 132 107 92 97 101 94 87 90 94 94 95 101 113 123 127 117 117 94 92 92 110 115 104 134 116 102 100 101 102 106 111 121 123 116 129 112 97 97 96 92 86 96 130 115 103 102 91 85 90 92 92 94 101 104 102 100 98 85 99 114 115 122 125 123 133 130 112 99 100 106 106 102 96 82 84 101 99 100 104 111 117 116 114 116 98 88 111 129 132 124 106 96 98 104 116 122 127 130 134 133 127 117 116 125 101 89 90 87 86 88 87 90 91 94 106 100 96 118 123 116 114 112 123 120 97 91 92 96 100 102 102 108 117 119 117 114 107 95 92 91 97 103 107 107 105 104 106 109 96 87 95 102 104 104 92 95 104 85 85 88 89 98 113 126 135 141 146 143 124 107 100 103 111 123 135 136 116 107 112 115 119 118 115 104 95 87 81 79 81 85 88 99 107 110 112 112 111 101 99 96 87 82 80 74 71 71 74 78 72 69 65 62 66 74 77 77 78 75 75 77 75 85 108 98 80 74 69 63 61 62 65 63 62 60 59 63 71 77 76 73 78 79 71 70 72 76 81 79 77 75 74 74 74 75 76 78 79 81 85 85 83 82 83 87 86 79 90 118 94 70 67 60 55 56 61  147 147 146 148 149 149 150 152 153 154 156 156 156 155 158 155 155 156 157 155 153 156 171 186 193 192 184 179 172 165 164 170 171 172 165 159 158 156 158 163 170 168 158 158 162 173 175 164 156 151 149 151 151 150 148 147 146 145 147 146 143 144 145 142 157 186 188 168 147 145 152 154 147 146 145 146 147 146 161 179 183 173 174 156 145 144 165 179 162 185 175 161 152 148 150 157 166 177 177 167 179 172 152 143 140 140 136 146 184 174 157 160 158 150 149 149 147 148 150 151 152 154 158 152 159 163 162 167 169 169 182 185 169 151 142 138 135 147 159 151 131 128 135 142 148 155 161 164 163 164 158 153 161 175 181 179 170 163 155 154 159 170 175 182 186 187 185 179 175 181 167 144 132 133 132 130 132 134 133 138 165 166 162 173 177 172 169 169 177 180 166 154 154 155 153 153 155 156 158 160 163 162 158 154 150 149 149 151 154 154 155 155 156 161 157 152 151 150 153 159 158 158 159 147 140 139 141 147 154 162 169 175 181 180 168 161 160 158 160 168 176 176 167 166 170 172 175 174 166 152 143 137 134 133 133 135 139 144 150 156 157 157 155 151 148 143 136 132 131 128 125 125 127 128 129 134 135 137 138 136 136 134 132 130 131 130 128 140 162 155 148 148 144 141 134 132 129 122 118 117 118 126 136 140 135 129 126 122 122 125 126 130 132 130 130 125 123 124 128 131 135 140 146 150 151 152 149 147 145 143 140 133 147 163 140 113 110 108 110 114 117 
0 19 24 24 21 14 18 13 14 20 22 20 24 20 22 27 29 35 41 40 39 50 71 90 96 84 58 24 2 7 34 60 69 57 25 6 15 26 41 63 62 25 0 0 1 0 12 47 48 40 32 31 33 35 34 33 33 30 33 32 30 30 23 18 24 66 80 29 0 18 27 13 0 0 12 27 27 29 44 65 61 25 21 18 2 17 10 0 0 1 0 8 22 29 27 24 29 17 3 28 28 22 9 6 21 16 12 3 22 68 7 4 3 0 0 0 0 0 0 6 11 11 13 13 1 0 22 35 32 27 30 64 34 0 5 14 19 19 8 0 0 0 12 18 16 14 18 25 28 36 37 12 27 61 62 26 0 3 20 34 45 55 60 58 52 40 28 11 0 3 56 23 0 2 7 7 6 8 16 20 14 0 28 62 62 30 14 29 38 21 0 3 9 11 17 24 30 37 44 50 55 51 39 25 18 21 28 37 37 35 37 37 24 5 0 0 11 24 26 39 24 0 1 10 2 9 17 22 34 54 70 80 87 91 87 54 8 0 0 1 30 59 67 36 11 16 16 26 30 34 31 25 21 14 11 13 16 17 23 31 35 35 34 29 27 25 18 13 6 2 1 1 1 0 1 3 3 1 0 0 0 0 0 2 5 10 17 19 51 81 77 40 5 0 0 0 0 0 0 0 0 0 1 0 0 0 0 0 0 0 0 2 3 10 10 5 5 0 0 2 5 4 1 0 0 0 0 0 0 0 0 2 4 4 48 40 0 3 1 0 0  104 103 105 103 98 97 97 97 100 104 105 107 105 104 108 109 115 117 114 114 116 124 138 144 145 137 126 118 114 113 118 117 113 104 100 104 109 113 122 130 124 114 99 83 85 100 113 114 110 105 102 104 104 102 102 101 100 101 101 98 97 91 89 95 121 139 124 98 93 96 98 90 84 90 94 93 95 106 121 127 117 116 109 88 88 89 112 112 95 98 92 89 95 100 102 105 109 108 117 116 117 108 97 100 97 95 88 100 131 114 103 93 89 93 94 95 97 98 101 105 107 107 110 95 87 109 118 123 121 119 137 124 108 98 100 103 105 101 98 83 81 96 99 105 105 106 111 113 116 106 88 111 129 128 119 108 103 110 118 124 129 134 135 133 129 122 116 106 102 128 106 86 85 85 88 88 87 90 89 99 111 118 127 123 110 109 114 122 119 97 91 96 97 100 101 103 107 111 117 118 115 111 99 91 92 95 101 104 106 109 108 104 104 97 93 96 97 97 105 108 93 89 86 82 87 90 93 95 109 124 134 142 146 147 131 111 103 102 106 115 133 139 116 105 108 113 122 123 123 113 100 87 80 80 79 85 90 98 106 112 110 109 108 101 99 94 88 81 75 70 69 65 69 76 77 75 70 63 63 65 67 72 77 74 78 79 82 110 127 124 111 84 77 75 67 67 63 63 66 64 64 71 76 76 73 72 72 75 68 64 71 74 78 82 83 80 72 72 72 73 74 75 78 79 81 82 86 88 87 87 87 79 83 111 98 63 58 56 52 53 57  148 146 146 147 147 147 149 152 153 152 153 153 154 154 156 153 154 156 157 157 160 170 183 191 192 186 181 175 164 161 169 173 173 168 161 160 160 163 172 179 178 174 163 155 159 160 159 158 158 154 151 150 149 149 147 146 145 143 146 146 144 145 143 145 169 188 179 157 142 143 148 151 146 145 147 147 145 154 172 185 176 172 169 148 143 143 171 177 155 152 145 143 144 146 148 150 157 164 173 170 170 169 149 142 138 136 134 147 182 170 159 157 153 149 149 149 149 149 152 154 158 160 164 157 156 162 165 166 165 170 186 182 161 144 139 136 133 143 158 154 136 131 136 142 146 152 160 164 164 160 153 165 179 180 174 168 162 160 162 170 174 181 185 186 183 178 173 168 162 179 169 140 129 132 132 130 131 130 131 147 173 176 183 180 170 168 170 177 180 163 153 149 151 153 151 153 153 154 158 162 163 159 153 149 146 148 148 150 152 154 154 157 161 160 153 148 149 150 154 161 159 157 149 140 140 139 139 143 153 161 169 176 182 182 172 162 160 159 159 166 176 178 165 162 164 168 176 176 174 163 148 140 135 134 133 134 139 145 151 153 155 155 153 149 146 142 136 132 128 126 122 123 124 125 126 128 130 131 134 137 139 138 137 135 132 130 135 161 177 175 164 144 141 148 146 144 141 137 132 126 123 133 140 135 128 126 122 123 120 120 124 128 129 131 131 127 124 125 124 128 130 132 136 139 145 150 153 154 152 148 144 136 145 163 145 113 105 105 107 109 113 
0 13 25 32 31 22 20 19 25 27 27 27 23 12 11 21 29 32 36 38 47 71 88 97 90 63 27 4 0 25 57 69 63 39 10 13 32 52 71 69 40 15 7 1 0 0 8 42 52 52 49 37 35 35 37 36 35 29 28 29 27 27 18 15 38 78 65 10 2 25 25 15 2 0 7 22 28 42 60 61 32 9 29 7 3 15 7 0 0 6 26 23 25 26 26 27 31 33 21 0 22 25 0 11 24 21 17 7 36 68 7 0 0 0 0 0 0 0 1 6 12 20 28 35 12 0 6 27 23 21 35 65 16 0 7 19 23 19 11 0 0 0 11 18 17 17 18 21 31 42 31 41 67 45 9 0 17 37 46 53 57 56 52 41 31 24 18 5 0 0 56 42 0 2 3 4 7 12 16 14 17 49 73 49 14 10 39 41 10 0 10 19 17 17 20 27 32 40 45 51 51 42 31 20 20 29 39 41 42 36 33 27 7 0 0 7 19 25 26 40 39 2 0 0 5 11 13 25 35 52 68 79 90 93 91 66 17 0 1 0 13 49 63 38 16 17 15 30 33 39 45 30 22 17 9 11 11 15 20 27 34 34 30 27 23 21 20 19 10 8 8 3 1 2 1 5 10 6 1 1 0 0 0 0 0 1 10 34 65 78 72 55 19 0 0 0 0 0 0 0 0 0 1 0 0 0 0 0 0 0 0 0 2 7 10 6 5 2 0 4 11 14 14 9 2 0 0 0 0 0 0 0 0 0 12 28 3 0 1 1 1  101 107 109 107 103 103 101 103 105 105 104 102 99 100 104 108 113 116 116 121 127 136 144 146 139 124 116 113 113 119 119 116 111 101 103 111 121 131 134 131 127 123 111 91 84 93 105 114 115 110 102 102 103 102 103 99 98 95 94 95 92 90 91 101 131 136 112 93 90 92 97 90 82 87 90 94 105 119 127 121 107 117 97 86 85 88 113 107 85 93 95 96 96 99 101 105 110 112 107 116 120 110 102 97 97 95 88 105 131 113 97 91 91 97 97 97 99 100 106 109 113 121 124 114 86 98 118 118 115 122 138 118 103 96 103 104 104 102 102 87 82 98 103 105 106 106 107 111 110 98 113 133 128 115 107 113 120 126 129 131 130 130 127 123 116 110 106 97 88 125 115 87 82 80 80 84 86 88 86 109 132 134 125 112 110 120 124 108 91 94 98 100 98 96 100 101 104 110 114 117 112 103 92 95 100 100 102 104 107 109 108 104 95 91 95 96 96 96 103 112 98 93 83 86 87 88 93 98 107 121 132 142 147 150 137 115 106 100 102 110 130 136 114 99 101 114 126 124 126 124 112 103 94 88 85 85 89 97 106 110 107 108 104 101 98 94 88 80 77 71 68 65 66 71 73 74 72 68 66 64 64 61 66 70 75 81 103 122 123 116 110 86 68 65 68 72 76 73 67 61 63 67 72 68 70 68 64 66 67 64 70 74 81 89 93 90 79 73 75 76 75 77 79 78 75 76 82 85 92 92 89 86 83 96 100 74 62 56 55 55 59  145 146 146 147 147 148 150 151 151 154 153 151 152 152 153 153 154 156 157 160 170 183 191 193 188 184 178 167 158 166 172 172 169 161 159 162 170 180 184 184 182 179 168 157 155 157 161 161 159 159 153 150 149 148 146 145 145 142 143 144 144 143 142 150 180 187 172 150 142 145 147 151 146 143 147 144 150 169 182 180 167 173 161 142 138 141 174 176 148 142 144 145 145 144 145 149 153 157 164 172 174 168 152 140 138 135 131 153 183 172 160 153 150 149 148 148 149 150 153 155 161 167 171 167 154 160 164 163 163 173 186 176 153 139 136 133 135 141 156 154 139 133 138 144 145 150 157 161 163 159 171 181 179 173 164 161 165 170 175 179 180 182 181 177 171 164 162 160 155 178 175 144 126 129 130 130 131 131 129 159 186 186 177 171 172 176 180 175 158 147 147 149 150 151 150 150 152 155 159 160 159 154 148 148 148 149 149 151 153 155 157 159 157 153 149 148 148 149 155 162 159 155 141 139 140 138 139 142 150 160 169 175 181 183 175 163 160 159 159 164 174 175 165 161 162 167 176 178 177 176 165 154 147 141 135 133 139 146 149 151 152 153 151 148 146 140 136 133 129 125 123 122 121 123 124 124 125 126 126 131 135 137 138 138 136 134 152 170 173 169 163 139 122 125 132 142 150 147 142 138 137 137 136 130 126 122 120 121 119 119 123 126 126 128 133 131 127 124 127 129 128 131 130 130 135 141 147 152 153 154 152 148 145 154 153 126 108 106 105 107 113 
0 5 22 33 29 29 27 29 31 28 28 33 30 17 13 19 29 39 40 41 62 90 99 93 70 37 8 0 15 49 68 65 46 12 5 28 55 65 49 25 6 8 22 11 0 1 0 17 53 65 64 55 42 38 39 38 37 32 28 31 29 28 24 25 56 85 47 0 12 29 28 16 1 0 8 22 36 57 62 39 5 19 28 0 8 16 8 0 0 8 28 29 27 29 29 30 36 37 37 30 10 26 23 10 16 18 18 11 58 72 3 0 1 5 4 4 5 3 4 9 12 23 29 37 32 3 0 11 22 22 49 52 1 1 10 20 22 20 12 0 0 0 7 15 17 19 21 27 39 53 65 64 35 4 13 35 48 54 53 55 51 40 30 23 20 16 15 12 1 0 46 60 0 1 1 2 6 7 8 38 72 67 32 9 25 54 32 2 0 15 26 22 19 20 25 29 31 34 43 45 37 29 21 20 34 42 43 43 42 40 26 6 0 2 11 20 17 19 22 38 42 4 0 1 10 14 13 26 36 50 68 81 90 93 95 77 28 0 0 0 4 38 59 41 18 18 17 28 30 32 43 36 26 19 10 13 11 12 18 24 28 31 27 25 22 21 23 22 15 12 11 6 1 3 2 4 8 7 5 4 2 1 0 0 0 0 0 22 49 56 57 46 22 4 0 0 0 0 0 0 0 0 0 0 0 0 0 0 0 0 0 0 0 5 8 5 3 1 0 8 12 12 15 13 7 1 0 0 0 0 0 0 0 0 0 7 3 0 0 0 0  94 106 113 111 105 104 106 109 108 106 105 104 100 98 104 110 115 118 118 130 138 143 146 140 129 121 111 108 114 117 115 111 101 99 112 126 131 130 125 122 124 122 125 106 90 90 101 113 116 113 107 103 102 103 101 100 95 94 94 92 96 94 94 114 136 129 102 93 93 94 95 92 83 86 94 103 118 125 124 108 110 114 87 82 82 86 115 103 87 93 96 98 99 101 102 107 110 115 116 117 119 116 107 97 92 90 88 116 131 107 88 93 97 99 99 98 100 102 107 111 114 122 128 127 100 91 109 115 112 127 133 113 99 96 101 106 104 102 101 93 84 100 106 107 110 110 108 112 116 124 132 127 115 110 118 125 125 125 127 126 122 119 114 112 108 102 104 92 79 119 122 87 79 80 81 81 82 88 111 134 132 121 115 117 128 122 100 90 96 98 96 100 96 97 95 96 102 108 109 107 99 94 94 100 101 102 104 107 110 108 101 98 96 97 96 97 95 95 105 110 96 88 86 90 90 89 90 100 108 121 133 143 148 151 140 117 107 100 99 103 120 128 117 101 99 109 113 116 123 123 119 118 115 108 104 98 93 97 103 103 102 105 103 100 97 94 87 80 79 75 68 64 63 64 69 68 68 69 67 68 70 69 68 65 62 73 98 110 107 106 104 83 69 64 60 58 63 71 71 70 69 64 58 57 65 63 62 64 62 62 66 73 85 92 93 94 83 73 74 75 76 78 77 74 72 75 78 83 92 90 90 90 89 93 98 86 73 67 62 60 59  144 145 145 147 148 150 151 151 152 151 153 153 152 151 152 153 155 156 156 166 181 190 194 189 183 177 168 159 161 170 172 170 162 156 161 172 181 183 183 183 178 176 178 166 153 153 155 161 161 160 156 153 149 147 147 146 145 143 144 145 145 145 145 161 185 183 165 147 143 144 145 151 148 144 145 147 163 179 183 169 164 170 150 135 132 142 174 171 147 142 147 146 147 146 145 149 153 155 162 170 175 173 163 142 133 131 128 160 183 171 155 146 146 148 149 149 149 150 153 157 163 170 174 176 160 156 161 159 163 175 185 171 147 137 137 136 137 142 156 156 139 134 140 144 145 148 152 162 171 178 182 179 169 162 162 166 171 177 179 180 178 175 169 165 160 153 152 153 150 175 179 148 124 125 127 128 124 128 154 185 184 175 171 174 182 182 169 154 147 146 146 146 148 148 148 147 149 157 160 160 156 149 144 147 150 149 148 150 153 156 160 158 152 149 148 148 147 149 156 161 159 155 144 141 140 138 141 145 151 160 169 175 181 185 178 164 161 160 159 160 168 174 169 163 161 161 161 169 177 179 176 171 168 163 155 149 143 143 145 150 150 150 149 148 147 143 139 134 131 127 125 123 121 121 123 123 122 122 122 124 126 128 134 137 139 141 153 163 164 161 152 133 124 121 115 116 122 133 142 146 146 140 133 133 130 124 121 119 118 121 122 124 130 132 133 137 133 127 129 129 129 130 130 130 130 132 138 144 148 153 154 155 153 154 155 142 129 122 115 113 116 
0 1 13 30 29 31 31 32 33 33 32 33 31 28 29 27 32 43 50 58 80 98 96 77 42 13 0 8 42 62 62 52 21 4 23 50 53 32 11 0 1 24 27 4 0 0 0 4 36 60 61 55 47 40 40 39 37 36 33 32 29 27 26 36 72 77 23 0 22 34 32 17 0 0 4 26 53 63 44 12 6 40 20 0 15 16 9 0 0 13 27 28 30 30 29 33 38 37 39 54 42 6 21 13 7 9 10 21 61 53 0 1 8 14 12 10 7 5 6 11 17 25 30 33 38 18 0 1 16 24 55 27 0 5 14 17 19 20 10 1 0 0 5 15 14 17 22 36 65 80 59 22 10 29 50 55 57 57 50 40 30 19 15 14 14 14 16 19 6 0 34 69 4 0 3 5 3 10 52 76 54 18 12 43 53 20 0 2 15 26 23 22 23 20 24 28 29 33 37 30 21 17 20 31 42 44 46 47 41 32 9 0 5 17 23 20 19 21 25 39 37 10 0 0 5 10 15 23 37 53 67 80 89 93 95 80 38 3 0 0 1 28 47 39 20 21 21 25 28 25 27 28 22 12 4 12 14 10 9 20 22 27 27 26 22 23 25 25 19 11 11 9 7 6 4 3 2 5 7 4 4 7 4 2 1 0 0 0 11 32 40 29 16 9 4 0 0 0 0 0 0 0 0 0 0 0 0 0 0 0 0 0 0 2 2 0 0 0 0 2 7 10 12 11 9 2 0 0 0 0 0 0 0 0 0 0 0 0 0 0 0  92 100 110 108 107 108 110 109 108 106 105 107 105 103 105 105 114 122 125 135 142 142 141 131 123 115 106 111 116 116 114 102 97 108 124 130 130 127 117 110 116 119 127 104 95 87 91 106 112 112 107 104 102 101 99 97 97 96 96 94 95 94 102 127 138 120 97 94 94 94 96 93 83 83 100 113 121 124 111 101 119 108 82 80 79 91 118 92 86 93 95 98 100 101 104 109 112 117 123 129 114 116 115 111 93 86 94 121 128 100 85 91 93 96 97 99 97 100 109 117 120 124 124 125 118 92 93 107 108 129 123 110 96 99 101 103 106 103 98 91 81 97 107 107 110 107 112 129 135 130 123 114 115 122 124 122 121 122 120 118 114 109 107 107 105 103 107 99 78 110 126 93 80 80 82 85 92 121 136 124 115 116 124 122 111 93 91 96 98 98 98 99 95 95 94 95 97 101 102 96 95 98 102 100 101 104 103 104 109 103 96 96 101 103 100 97 94 97 109 111 107 98 92 88 89 90 92 97 108 118 130 142 149 151 142 122 109 102 98 101 114 125 122 105 101 105 102 104 112 119 121 122 122 119 115 113 108 100 98 100 103 103 101 98 97 94 89 82 76 74 71 67 68 65 64 66 67 66 65 68 71 74 75 75 69 67 74 90 107 106 92 77 73 65 63 61 57 60 64 75 79 75 74 70 66 60 63 65 60 62 65 67 85 94 92 89 84 76 70 73 75 77 73 74 74 74 76 77 81 85 86 86 87 91 93 91 84 82 79 75 66  144 144 146 148 147 149 150 149 151 150 149 151 153 155 152 152 153 156 163 174 186 194 190 184 178 170 159 156 165 171 170 164 159 159 173 183 186 183 181 174 166 171 184 166 154 150 151 157 159 158 153 150 148 146 147 147 145 144 146 145 146 146 151 173 187 177 158 145 144 145 146 153 153 145 145 160 175 182 172 159 169 166 140 129 128 140 177 163 142 141 145 147 147 147 146 150 153 154 161 176 171 174 171 160 135 126 133 165 181 165 140 138 140 143 146 147 147 150 155 163 167 169 172 173 170 157 158 158 159 179 182 163 137 135 136 136 136 141 156 157 143 137 141 144 146 145 154 175 182 180 177 168 162 166 168 173 177 179 178 174 170 166 161 157 152 150 149 152 147 170 181 153 128 129 129 124 133 166 188 183 173 171 181 181 173 166 154 144 145 146 145 144 145 145 144 146 152 156 156 154 152 147 147 147 148 148 148 152 155 158 157 153 152 148 148 148 147 150 157 157 157 157 146 138 138 137 140 145 152 160 168 176 180 183 180 169 161 161 158 157 166 176 171 161 162 156 149 157 167 175 176 175 173 171 171 169 160 147 143 147 150 149 149 147 146 144 141 135 131 128 127 125 125 122 120 122 122 121 121 122 123 123 127 139 142 140 144 153 163 160 142 128 124 121 119 118 117 115 125 138 144 145 146 144 141 136 133 129 124 120 120 121 132 137 136 139 139 133 127 129 129 128 132 131 129 127 129 132 135 139 143 148 152 155 156 153 147 142 135 127 121 
0 10 4 18 28 29 25 29 32 31 31 28 28 26 33 31 28 39 58 76 92 97 80 48 18 7 11 35 58 64 55 30 7 21 49 49 21 2 0 5 29 48 18 0 1 8 1 0 12 43 57 53 45 40 40 39 36 38 36 32 31 29 29 45 76 63 11 9 32 39 36 22 5 0 7 45 62 50 15 0 27 44 9 2 15 18 8 0 0 16 29 28 31 35 33 33 38 43 47 59 63 12 0 30 22 3 27 40 62 35 0 3 9 12 9 7 4 5 12 15 22 29 30 31 32 29 5 0 4 30 52 6 0 6 14 13 14 16 13 2 0 0 3 15 16 15 28 57 67 45 18 19 43 57 59 57 52 45 34 25 17 12 9 13 15 18 17 19 12 0 19 70 10 0 0 1 25 68 71 31 5 7 58 55 11 0 9 15 22 21 20 25 28 22 21 25 31 31 24 13 13 22 32 38 40 41 47 45 32 10 0 9 26 30 24 19 21 19 34 41 24 56 53 27 33 19 16 22 36 52 67 79 88 91 90 84 50 9 0 1 0 14 33 20 13 23 22 23 27 27 21 26 27 17 7 1 5 13 11 15 18 20 25 23 22 21 22 21 18 13 10 11 11 7 5 5 5 3 4 1 5 6 8 19 19 18 17 3 14 47 43 20 10 7 3 0 0 0 0 1 1 0 1 1 0 0 0 0 0 0 0 0 0 0 0 0 0 0 0 0 1 9 11 10 6 0 0 0 1 2 1 0 0 0 0 0 0 0 0 0 0  92 94 105 106 107 106 108 108 107 105 102 104 106 110 107 104 113 123 130 140 146 140 132 123 115 110 107 114 116 113 108 100 104 124 130 127 124 119 113 115 121 124 118 91 100 91 86 93 106 110 107 103 102 100 98 97 97 96 97 98 95 96 108 132 134 111 97 98 99 97 96 94 84 89 113 120 123 114 97 104 124 97 79 81 80 95 119 89 85 93 94 101 105 104 104 107 110 116 126 139 114 107 121 121 106 98 107 125 124 94 80 90 93 93 96 95 95 102 111 119 124 126 124 122 124 104 80 96 113 133 116 102 95 99 99 99 102 102 100 90 78 98 108 105 104 109 129 132 128 122 116 119 125 123 123 121 121 121 116 112 108 104 105 104 103 103 104 104 83 97 130 98 87 82 88 110 133 134 119 104 106 133 128 105 93 96 96 96 95 99 98 98 96 92 96 97 96 93 90 90 97 103 103 99 99 104 107 107 103 100 102 105 103 103 100 97 92 103 107 98 148 164 138 124 103 92 91 97 106 120 132 141 145 147 145 127 109 102 98 100 110 120 117 104 103 100 96 102 107 114 122 125 117 113 115 117 116 110 101 100 102 103 100 96 96 93 87 82 77 74 72 69 71 70 66 66 67 68 64 69 68 74 82 104 116 104 84 102 127 114 82 75 72 67 63 61 58 60 69 76 75 71 70 71 78 77 74 67 62 65 64 63 76 92 92 84 85 79 70 71 74 78 71 73 74 73 77 75 75 75 75 77 77 90 94 91 88 87 84 79 75  144 145 146 148 147 147 148 148 148 148 147 148 151 155 154 151 151 159 173 184 191 190 184 179 174 162 156 160 167 170 164 159 163 173 181 185 184 178 170 166 165 176 187 162 158 153 149 153 156 156 151 149 149 148 146 146 145 145 147 146 146 147 159 181 186 170 153 144 147 148 147 152 152 146 157 172 180 175 158 156 175 159 132 124 123 142 181 163 139 140 145 147 148 148 147 150 154 155 163 182 173 165 176 174 154 138 148 171 182 156 129 132 136 138 139 141 145 153 158 163 167 169 171 170 170 163 151 158 162 182 178 152 129 131 134 134 136 141 152 156 144 141 144 145 143 153 174 180 179 173 167 166 170 173 176 178 178 175 171 166 160 158 156 154 151 149 148 151 147 163 185 159 135 130 133 150 184 189 178 170 167 182 182 172 161 156 147 142 143 144 145 145 144 144 144 149 152 153 152 151 151 150 150 147 145 147 149 153 158 156 154 152 151 149 148 148 149 155 158 151 162 168 167 158 147 141 140 143 150 159 167 175 179 181 182 171 160 160 157 157 165 174 169 161 162 154 146 150 158 170 175 175 168 163 168 173 173 165 150 145 148 148 147 146 144 143 141 136 131 129 127 126 128 126 124 124 121 121 123 121 121 126 139 152 159 155 149 161 174 163 137 126 124 123 121 119 119 123 133 137 135 132 133 137 141 148 147 142 137 132 129 126 127 137 139 138 140 139 130 128 128 129 131 128 128 126 125 127 127 125 127 131 141 153 155 152 152 151 146 141 134 
0 14 6 5 22 27 24 23 22 23 27 24 22 21 27 28 26 46 68 86 94 82 52 19 9 17 37 58 66 59 36 8 17 40 38 14 0 0 14 31 42 42 5 0 10 37 12 0 0 18 41 47 44 42 42 43 40 39 38 38 31 26 30 55 79 46 6 22 39 38 32 19 5 0 30 61 51 22 0 11 51 37 1 1 11 13 3 0 0 17 29 30 33 34 33 32 37 46 52 64 67 15 0 14 33 10 22 35 69 25 0 6 8 7 8 12 13 14 12 17 23 25 28 31 31 30 14 0 0 43 38 0 3 8 13 16 11 15 11 0 0 0 4 14 16 35 65 58 30 21 36 52 53 55 52 45 32 26 21 16 13 11 14 19 18 16 15 18 14 0 13 73 12 0 8 47 71 54 17 0 0 36 55 5 2 27 26 15 22 26 25 24 25 23 23 27 29 22 15 11 19 31 38 37 38 37 40 39 23 6 18 32 35 31 25 18 17 28 46 26 0 7 15 6 29 26 14 9 19 45 64 80 85 86 84 84 61 16 0 1 0 3 9 20 19 23 18 20 26 25 17 18 25 26 21 9 0 8 13 12 11 19 22 20 18 17 19 18 17 13 12 16 16 14 7 7 10 10 6 4 1 5 15 12 21 53 62 31 34 64 54 21 9 5 3 0 0 0 0 0 0 2 7 6 1 0 0 0 0 0 0 0 0 0 0 0 0 0 0 0 0 4 10 9 3 0 0 1 0 2 2 0 0 0 1 3 0 0 0 0 0  96 95 101 109 109 107 105 103 103 100 99 98 98 108 108 107 119 131 136 142 142 133 123 118 112 112 114 114 112 105 99 108 121 127 126 120 114 115 118 119 119 123 105 100 113 98 86 83 96 103 101 101 100 100 99 98 98 97 97 96 94 102 119 136 128 107 99 97 98 99 95 97 95 109 124 128 119 101 90 116 122 91 75 75 78 99 116 87 86 91 95 100 105 104 105 108 114 117 125 137 108 98 114 122 117 109 104 128 119 90 80 86 91 91 94 98 105 108 111 118 121 122 124 121 116 112 89 87 125 131 110 97 96 99 101 101 100 98 98 93 80 94 102 105 118 134 130 126 120 120 126 125 125 124 121 118 115 111 107 99 100 101 102 102 100 101 103 107 93 93 130 94 89 98 122 135 132 121 100 83 117 132 105 94 104 99 94 96 94 98 99 98 94 94 97 97 93 88 87 93 101 104 101 98 96 99 115 114 103 106 111 113 109 103 102 100 104 112 95 80 100 115 107 130 118 102 92 96 107 118 129 137 142 144 146 133 110 100 98 98 102 107 112 100 102 95 94 103 106 107 114 117 113 104 106 112 117 119 110 102 100 98 99 97 94 89 85 81 76 72 73 74 72 71 71 70 71 69 67 66 68 83 96 116 137 128 110 117 131 113 82 73 73 70 64 60 62 67 70 72 75 71 67 61 62 66 75 78 74 71 66 65 70 81 88 79 77 77 76 74 75 78 75 74 73 75 78 76 77 73 72 74 74 85 96 89 85 88 85 83 84  147 146 146 146 147 147 146 147 146 145 147 146 149 151 152 150 156 168 180 190 191 184 178 172 165 161 163 166 169 166 160 163 174 181 185 181 173 168 164 161 165 182 177 162 162 155 150 148 151 151 149 149 148 148 145 146 147 145 145 147 148 151 166 186 182 165 150 145 147 147 148 150 153 159 172 180 174 161 145 162 175 149 125 119 117 147 181 155 134 138 142 146 150 150 150 151 154 158 169 183 169 156 168 176 170 160 153 177 178 147 129 133 134 137 139 144 150 155 159 162 166 169 169 167 163 163 155 156 175 184 171 140 126 125 130 131 134 140 150 155 147 143 144 145 159 179 182 177 171 165 169 174 177 177 178 173 169 164 157 153 150 152 153 152 151 149 146 147 147 159 184 162 139 138 165 188 187 180 171 157 176 185 171 160 158 155 145 142 145 145 145 146 145 147 150 151 150 149 147 147 151 150 150 147 146 148 147 151 155 154 155 152 149 149 149 147 153 161 156 144 150 154 153 167 168 154 146 145 151 159 168 171 177 180 181 174 162 158 158 157 164 166 161 158 163 152 141 146 152 162 170 172 167 158 157 166 175 175 165 153 148 146 145 145 144 144 141 136 133 129 127 127 128 126 127 126 124 125 122 119 125 139 153 162 172 167 162 168 179 164 137 126 124 122 120 119 123 133 137 136 135 129 124 122 120 128 143 149 147 144 139 135 135 136 140 139 139 142 137 129 130 129 127 126 128 127 128 130 129 126 125 126 130 145 155 149 148 151 154 153 148 
0 8 6 1 14 21 19 20 17 16 18 21 20 18 22 25 36 62 82 92 87 61 25 6 9 36 64 72 64 45 16 16 35 28 4 0 0 14 34 36 35 23 0 0 28 49 27 1 0 3 21 38 43 43 42 43 44 42 37 35 32 27 33 67 75 28 7 30 35 35 31 18 8 20 54 56 26 7 8 31 52 24 0 3 9 7 1 0 1 18 23 30 33 34 36 35 37 42 51 66 47 5 20 13 22 33 6 21 71 12 0 8 9 10 10 16 19 20 18 19 22 24 27 24 26 23 19 4 0 25 19 0 4 8 11 17 12 14 9 0 1 0 1 23 51 67 53 33 32 42 52 52 46 40 32 27 20 16 11 9 14 19 21 17 19 16 15 15 15 8 5 73 26 20 67 65 33 7 0 0 4 22 3 5 39 41 24 22 26 23 24 20 21 27 30 26 20 18 12 16 27 33 37 37 37 38 41 38 25 21 35 37 32 26 20 15 21 42 38 8 0 0 0 0 0 0 0 0 0 15 24 46 80 84 91 90 72 25 0 0 0 0 2 18 16 23 15 19 29 25 12 8 15 25 24 18 8 1 5 12 11 11 21 21 14 12 13 13 15 13 13 14 14 13 9 9 12 12 12 8 7 13 5 0 25 64 59 20 17 57 61 27 9 7 4 3 0 1 0 0 1 6 7 4 0 0 0 0 0 0 0 0 0 0 0 0 0 0 0 0 0 1 3 5 2 0 0 0 0 0 0 0 0 0 0 19 12 0 0 0 0  96 96 97 104 106 106 104 100 98 95 96 96 97 103 102 111 126 134 142 142 134 124 118 114 116 118 118 116 109 101 106 120 127 124 118 110 111 115 114 113 119 124 93 112 120 107 91 85 89 96 100 102 102 100 99 99 98 96 95 94 94 104 126 138 122 103 99 98 98 97 97 101 110 127 133 121 109 90 93 125 114 82 68 70 77 106 113 80 85 90 95 97 104 107 106 109 114 117 126 122 101 102 104 119 123 113 108 131 112 86 83 84 88 92 99 107 112 114 112 117 117 116 118 113 106 104 103 88 112 123 108 96 97 97 99 98 99 98 96 93 79 89 106 127 135 134 125 123 121 125 126 125 122 118 113 107 102 97 95 94 95 100 100 100 103 105 103 105 101 94 129 107 110 135 136 125 115 105 80 94 115 98 91 107 107 93 96 96 93 95 94 94 94 98 96 92 90 84 87 97 100 101 100 98 96 100 112 110 105 109 110 108 107 104 102 102 110 106 87 83 93 90 85 91 93 91 89 94 107 100 115 137 136 145 150 137 113 102 102 101 98 96 95 101 103 91 96 107 106 103 106 111 114 108 101 100 109 117 116 110 102 99 98 98 94 87 82 80 76 73 72 72 71 75 74 73 73 73 72 68 78 93 98 112 125 116 101 101 119 113 87 73 74 70 66 64 70 72 71 76 73 71 71 68 64 59 59 63 69 72 76 72 69 71 75 76 75 72 78 79 77 77 78 80 82 82 79 76 79 76 72 71 67 71 93 94 79 79 83 87 90  148 147 144 145 146 145 145 146 143 144 145 145 147 150 150 150 164 177 188 192 185 179 172 163 160 165 170 170 168 160 167 179 183 184 180 170 162 164 163 159 167 187 166 160 165 158 151 147 147 151 150 149 146 146 146 146 146 146 147 148 147 154 174 186 177 161 147 144 147 147 148 152 162 174 183 179 164 146 144 170 170 139 118 112 115 157 178 142 129 136 140 146 151 150 151 152 154 160 173 177 163 152 153 172 176 170 158 179 171 140 130 134 135 138 146 151 155 158 160 163 165 166 166 163 158 157 162 154 171 180 158 128 124 123 127 131 134 140 149 156 150 142 149 167 181 180 177 173 171 173 176 179 177 172 168 160 152 148 142 142 145 146 149 149 148 146 144 144 145 153 183 166 160 182 187 182 175 172 154 161 177 169 150 150 158 151 143 141 144 144 146 147 148 152 152 150 146 144 142 145 149 150 148 145 145 147 147 148 149 152 154 152 150 148 148 151 159 157 150 145 150 158 150 145 152 155 155 149 153 152 153 167 172 179 183 177 162 158 159 158 159 153 147 155 164 152 142 146 150 155 165 168 168 162 153 153 162 172 174 166 156 149 146 144 142 140 137 134 133 130 127 127 128 127 128 127 128 127 126 127 137 151 156 165 169 164 156 154 169 164 141 125 122 122 120 122 131 136 135 135 132 129 125 122 119 117 119 124 134 144 148 145 143 139 141 142 140 139 141 136 133 130 127 128 127 128 130 129 128 127 126 125 123 133 154 147 138 143 148 153 155 
0 8 1 0 3 9 13 15 14 13 13 16 16 14 22 31 53 77 90 88 67 34 9 4 24 60 77 72 52 28 23 31 22 5 0 0 8 30 34 30 28 7 0 2 39 45 40 16 0 0 9 26 38 39 37 36 38 39 32 30 31 26 45 77 59 11 14 32 30 32 31 26 29 46 55 29 10 13 24 46 46 14 0 1 4 6 2 0 2 14 19 25 30 33 35 36 37 41 49 40 12 4 38 44 20 24 20 30 58 1 3 11 11 14 18 23 24 22 21 19 17 15 20 23 20 20 25 12 0 1 0 4 14 13 15 17 17 17 12 1 0 0 23 66 65 47 40 47 48 46 45 38 29 24 18 15 10 9 15 17 21 20 19 15 16 16 16 16 20 13 2 66 70 65 52 20 1 0 0 0 1 0 3 31 48 33 21 25 25 19 16 20 29 28 26 24 21 19 14 21 31 34 32 34 37 37 39 39 35 35 38 37 32 24 21 22 36 39 21 2 0 0 1 0 1 0 0 0 0 0 0 2 42 40 50 65 60 38 14 0 0 0 0 0 5 21 13 21 32 28 12 0 7 15 21 19 14 7 3 6 11 12 15 20 17 10 9 10 14 11 13 13 14 13 8 10 13 11 10 12 14 4 0 5 46 59 24 0 2 34 61 36 12 8 8 6 2 0 0 0 7 13 9 4 3 0 0 0 0 0 0 0 0 0 0 0 0 0 0 0 0 0 0 0 0 0 0 0 0 0 0 0 0 0 0 21 27 0 0 0 0  96 95 93 94 100 104 100 97 97 95 95 95 96 102 106 117 127 139 143 135 126 117 112 116 126 125 119 113 103 108 118 125 125 116 107 106 111 111 110 109 120 114 93 115 117 113 99 90 88 93 96 101 102 98 96 97 97 91 93 96 95 111 133 134 113 100 99 98 97 95 100 116 128 135 128 111 102 91 107 125 103 73 59 64 74 114 108 73 82 91 95 97 103 105 107 108 110 117 116 108 111 110 108 110 116 119 118 125 108 86 86 87 89 97 107 112 115 118 117 113 109 108 112 108 103 104 109 95 89 115 108 96 99 102 100 100 103 98 94 98 89 111 135 136 130 130 125 122 123 121 118 115 114 106 99 96 92 93 94 96 93 94 96 96 100 101 101 104 102 97 131 133 135 133 122 106 108 97 80 100 93 85 98 111 102 92 94 97 92 87 92 96 96 94 96 93 88 87 90 95 97 97 97 96 97 99 102 103 104 108 109 108 103 103 103 109 104 93 91 88 96 98 89 95 93 87 86 89 91 91 98 125 108 111 122 128 118 114 109 104 98 89 85 98 100 90 100 112 111 105 100 108 112 111 104 98 97 105 116 118 111 105 101 94 90 83 77 75 72 73 73 73 75 74 73 75 74 76 77 78 87 90 100 114 112 98 80 79 102 110 93 73 73 71 68 71 74 68 68 76 77 77 77 76 72 68 61 59 59 61 66 73 83 85 76 73 72 71 79 80 77 76 75 84 89 82 78 78 73 70 70 67 60 60 90 100 73 69 74 78 79  148 146 142 144 143 144 142 143 141 140 140 141 144 149 151 160 174 185 191 188 179 172 164 158 162 168 172 170 164 166 176 182 182 178 169 161 159 161 161 160 178 182 158 159 161 162 154 148 147 149 150 149 147 146 147 146 146 148 148 150 151 158 180 185 171 156 146 144 145 144 147 165 176 183 182 167 150 139 155 174 160 130 112 107 114 166 176 137 127 133 140 145 148 150 151 151 155 165 171 172 165 155 157 165 173 173 172 180 165 134 130 133 137 143 152 156 159 163 162 160 161 161 161 156 151 155 161 157 156 172 149 125 121 122 127 131 132 138 148 156 151 158 178 184 181 178 175 175 177 177 175 172 166 161 155 147 139 138 138 140 142 143 144 145 143 141 141 141 138 143 179 182 190 189 180 166 168 162 151 169 163 141 141 154 155 146 143 140 141 142 146 150 152 154 151 148 142 140 140 143 146 148 147 142 143 145 145 145 146 147 151 151 147 147 149 157 157 154 149 144 147 158 156 145 141 143 147 146 150 152 144 160 156 160 168 174 169 164 162 161 156 148 145 157 163 152 146 148 151 151 159 167 166 164 156 150 149 157 169 173 168 158 148 143 141 136 133 129 128 128 126 126 126 127 129 129 129 129 132 139 148 153 159 166 162 155 143 139 159 165 149 129 121 121 121 129 135 135 133 131 132 128 125 124 121 120 120 119 119 121 127 139 149 152 146 142 141 141 142 142 137 133 131 129 130 130 129 127 125 123 122 122 119 126 151 150 128 127 134 141 147 
0 11 2 0 0 0 3 9 14 12 13 16 17 19 31 52 75 90 93 73 38 13 1 13 50 73 74 65 40 22 18 9 1 0 0 9 23 26 30 29 21 1 0 11 38 37 41 31 5 0 1 7 23 34 34 34 33 36 31 32 32 32 58 76 36 1 19 32 29 27 31 44 53 52 26 3 12 24 35 53 40 5 7 8 3 3 1 0 1 10 17 22 25 31 34 33 40 48 33 5 0 14 50 53 24 4 25 60 43 0 8 13 20 22 22 25 27 26 20 19 16 13 10 19 18 20 25 25 10 0 0 12 21 22 25 23 22 20 15 2 6 38 64 58 44 45 50 48 42 32 25 24 17 10 6 9 14 17 22 21 22 18 17 14 13 14 19 16 8 15 41 80 68 33 9 2 11 1 0 0 0 6 21 39 42 31 22 27 23 17 22 28 27 23 21 20 20 21 21 24 30 34 35 30 28 32 35 36 36 38 36 34 30 22 22 36 40 27 20 3 0 2 2 0 1 4 3 0 11 18 14 5 0 0 0 11 51 55 33 18 4 0 0 0 0 4 3 21 35 31 16 0 2 8 19 23 17 14 8 4 3 8 12 11 12 13 9 9 9 7 9 8 9 9 8 8 12 14 11 14 7 0 2 35 50 25 0 0 1 20 53 44 14 10 7 5 1 0 0 8 17 17 11 7 4 1 0 0 0 0 0 0 0 0 0 0 0 0 0 0 0 0 0 0 0 0 0 0 0 0 0 0 0 0 0 11 31 5 0 0 0  97 90 84 86 94 97 97 96 94 94 94 96 98 104 118 130 137 143 139 128 121 111 108 124 127 122 119 112 108 113 122 122 114 105 101 107 108 108 107 110 124 97 95 112 110 110 107 93 88 87 93 96 99 97 95 97 94 91 93 98 99 119 132 124 104 97 100 97 96 100 116 130 135 127 114 105 94 97 121 124 94 75 66 61 74 114 99 72 82 88 92 95 100 106 105 108 113 110 106 115 123 118 114 103 102 115 128 125 101 83 88 92 99 106 113 115 120 121 119 111 106 101 99 99 100 103 110 110 88 106 108 104 104 107 108 105 105 102 100 109 121 135 134 130 129 129 125 122 120 115 110 105 98 92 90 90 90 93 91 95 95 94 92 94 97 98 98 98 107 125 142 135 127 116 100 110 107 83 86 87 85 89 103 107 97 92 94 93 89 92 99 99 95 93 95 94 89 88 91 92 93 96 95 93 95 94 95 98 101 104 109 108 103 104 112 107 92 97 93 88 97 98 88 92 95 92 91 97 101 104 97 91 89 81 96 128 128 121 119 113 101 89 86 93 93 88 105 117 117 108 95 106 108 110 108 101 96 95 103 116 115 109 106 97 89 82 75 73 70 68 67 68 73 74 75 75 76 77 84 93 98 92 110 112 94 81 76 74 92 109 98 74 75 71 70 72 71 69 75 77 81 83 79 81 81 74 66 61 63 63 61 64 70 74 80 81 78 74 75 78 76 75 75 85 90 82 78 75 73 70 70 68 61 58 83 102 76 62 66 70 71  147 144 140 140 142 142 141 140 140 139 138 140 140 145 158 171 183 190 188 180 174 164 155 159 166 169 172 168 168 176 181 182 176 166 158 157 158 159 157 162 187 171 155 159 158 160 157 150 148 146 148 148 149 147 145 145 147 147 146 149 152 166 183 179 166 150 145 145 143 144 158 177 183 181 167 151 138 140 164 175 153 127 115 108 124 175 172 131 125 131 139 142 146 150 151 155 163 168 170 175 171 161 163 160 161 169 179 181 158 128 131 136 144 150 156 160 164 165 164 163 159 155 153 150 150 157 163 168 154 159 142 132 128 124 127 132 133 138 149 163 176 182 183 181 179 179 179 178 175 170 163 157 150 143 140 140 136 136 137 139 142 143 142 140 138 138 135 131 137 163 190 186 184 174 157 164 168 153 158 158 137 129 146 157 151 140 138 138 139 144 148 152 152 151 149 143 140 139 139 141 144 146 146 143 141 145 144 143 143 146 148 146 144 145 156 158 155 155 149 143 145 157 157 148 143 144 144 145 150 152 148 146 150 148 155 176 177 169 167 164 156 150 148 154 156 151 152 154 156 152 153 163 165 165 159 154 150 146 156 170 174 167 156 144 139 134 131 127 125 124 125 125 126 127 130 130 129 133 139 149 151 153 163 162 153 144 131 128 148 164 155 133 122 123 130 137 134 129 129 130 129 126 124 125 124 122 120 119 119 117 118 120 125 136 146 149 147 144 143 142 140 134 130 133 133 133 130 127 123 122 121 121 119 123 147 156 132 116 119 126 133 
0 8 0 0 0 0 0 1 4 11 17 20 21 26 44 72 92 94 80 50 17 2 1 30 66 70 67 53 24 5 0 0 0 1 15 24 23 23 27 25 10 0 0 21 34 34 37 38 16 0 0 0 10 27 33 33 30 29 31 30 31 43 68 66 17 2 23 31 26 23 45 57 50 27 0 4 22 27 38 56 33 2 13 17 10 2 0 0 2 5 11 20 22 23 27 36 47 36 5 0 0 13 43 28 5 0 12 69 28 0 10 18 22 23 23 25 26 26 21 16 15 10 8 14 13 21 19 42 40 0 0 13 21 28 30 27 25 27 32 40 60 64 49 44 46 44 37 27 20 13 13 12 7 3 11 18 25 25 22 22 22 20 15 16 17 13 12 12 29 62 69 40 18 1 5 50 24 0 1 0 7 19 24 41 39 21 20 27 25 28 33 26 20 19 13 14 21 24 22 24 28 33 35 31 27 31 30 31 32 35 33 31 29 23 34 43 28 24 21 1 0 5 4 0 2 8 4 2 10 26 37 41 37 24 12 40 63 56 44 33 22 6 0 0 0 0 0 10 26 31 22 1 0 2 15 22 19 19 14 10 9 8 13 11 6 8 8 5 7 8 5 4 1 3 6 11 15 20 13 4 3 4 32 53 29 2 0 2 2 10 41 54 24 6 9 6 0 0 4 14 15 13 7 3 1 0 0 0 0 0 0 0 0 0 0 0 0 0 0 0 0 0 0 0 0 0 0 0 0 0 0 0 0 0 0 4 32 14 0 0 0  95 89 79 77 83 89 91 92 94 95 97 102 106 115 129 141 143 141 132 121 111 105 113 127 121 117 114 112 113 120 122 111 103 105 101 100 103 105 104 117 122 89 104 106 107 107 107 98 89 86 89 92 96 96 95 95 93 95 95 95 104 123 130 115 99 99 99 95 99 115 131 134 128 110 103 102 94 101 129 118 88 82 79 70 82 114 86 72 83 86 91 95 97 101 106 115 117 107 109 114 112 110 97 86 87 103 129 122 99 85 93 100 104 109 115 119 122 120 118 112 103 96 93 91 98 103 117 127 92 90 105 110 114 113 113 112 114 118 122 130 130 127 125 127 127 124 119 115 109 104 99 93 88 87 90 93 92 94 93 95 96 93 91 95 96 94 102 119 134 139 128 119 101 100 125 115 90 75 82 84 88 90 103 102 95 92 94 95 98 98 97 94 90 90 90 91 90 89 90 90 92 96 94 93 93 92 95 95 97 102 106 106 102 109 112 96 97 104 91 88 98 98 90 93 98 96 95 97 103 110 117 121 116 111 129 136 130 126 125 119 107 94 88 86 86 90 104 115 118 111 94 102 107 105 108 104 100 94 94 105 111 115 111 101 87 77 73 75 72 67 63 62 64 68 75 79 83 82 95 118 110 109 114 100 81 70 69 67 80 107 106 85 71 71 75 70 70 74 79 81 82 83 82 80 81 77 72 69 65 63 63 69 74 70 68 73 82 82 82 84 79 77 80 85 88 82 78 75 72 68 65 66 62 61 76 98 87 65 60 63 65  142 141 138 135 134 136 139 138 136 137 140 142 144 154 170 181 191 190 181 174 165 153 153 160 167 170 170 169 174 182 182 174 165 159 155 153 155 156 153 171 187 162 156 156 156 156 156 152 146 146 147 148 149 148 145 145 145 145 147 149 155 175 184 173 159 148 147 146 146 157 173 181 180 168 152 142 136 145 172 172 146 126 123 119 136 181 159 124 125 131 136 139 142 145 153 164 170 172 172 173 167 165 161 149 142 156 179 180 156 129 136 146 152 155 159 165 166 166 164 162 157 149 145 144 152 156 168 180 158 153 141 137 137 131 131 138 143 151 168 184 184 181 180 180 179 178 174 171 162 154 147 142 139 138 137 140 139 136 137 139 139 140 140 137 135 131 132 151 176 188 182 179 164 151 174 172 156 151 149 133 129 133 149 157 147 136 136 139 144 149 152 152 150 146 143 141 140 139 139 142 144 144 144 142 140 141 140 140 143 143 144 144 145 153 159 153 154 155 148 144 145 156 156 151 144 145 145 145 147 152 158 161 161 163 182 183 177 176 170 163 157 153 149 149 150 149 155 158 159 153 148 159 162 162 161 157 153 147 146 157 168 172 165 152 138 132 130 129 125 121 120 122 124 126 130 134 136 140 149 155 149 156 163 156 145 132 124 124 138 159 158 139 124 129 137 135 129 128 130 129 128 124 123 123 124 123 120 119 116 115 119 121 123 125 126 134 141 147 149 145 143 139 137 138 134 130 128 126 120 118 120 120 121 123 143 154 140 117 117 117 118 
0 0 0 0 0 0 0 0 0 7 9 15 26 45 69 89 95 83 56 23 3 0 14 51 70 65 56 30 4 0 0 4 15 25 33 32 27 24 22 19 5 0 6 33 37 39 39 36 30 6 0 0 2 14 30 34 26 26 27 23 26 52 72 51 3 8 24 26 27 42 58 52 29 2 0 12 25 25 46 55 22 5 18 19 17 2 0 0 10 13 11 14 16 14 26 45 34 6 0 1 0 2 17 13 9 5 21 66 10 0 6 23 26 24 24 26 24 23 20 15 11 7 13 17 14 18 17 56 30 0 0 6 25 35 40 44 46 49 63 68 53 41 42 43 39 29 17 8 4 3 8 12 14 18 22 24 26 21 21 19 19 21 16 14 12 9 26 52 70 50 15 8 18 14 72 51 0 0 0 8 13 14 27 41 34 16 17 27 32 28 23 14 13 10 9 15 27 28 25 25 29 32 34 34 32 30 28 28 29 32 32 34 33 38 47 31 15 24 16 0 2 11 7 1 1 9 4 3 5 17 27 40 52 54 57 51 56 57 42 32 34 20 0 0 0 0 0 0 6 23 26 4 0 0 7 20 20 23 20 16 14 7 4 9 10 5 3 9 12 12 16 17 18 19 25 33 37 33 15 4 2 28 58 38 6 0 3 2 2 2 28 57 38 9 9 2 0 0 9 13 9 7 3 0 0 0 0 0 0 0 0 0 0 0 0 0 0 0 0 0 0 0 0 0 0 0 0 0 0 0 0 0 0 0 0 0 26 18 0 0 0  84 83 78 72 74 84 89 89 87 91 98 108 119 128 137 142 141 132 121 111 99 106 119 120 116 115 111 111 121 123 116 113 107 104 102 99 100 100 104 122 102 92 109 110 110 107 106 100 91 90 91 95 97 97 97 94 95 94 90 94 111 129 128 107 100 98 97 101 117 131 137 129 111 97 93 98 94 110 128 108 89 85 84 85 96 112 79 84 87 86 92 92 93 100 115 116 113 109 114 102 89 96 93 93 87 100 129 115 98 97 102 109 109 111 116 120 120 116 114 107 97 95 94 93 100 104 125 120 103 83 99 114 123 127 129 127 128 132 133 127 124 125 123 120 115 112 109 102 94 94 95 92 90 89 90 94 92 91 93 94 93 93 90 91 95 110 128 137 132 120 120 114 106 132 118 93 79 79 86 86 86 94 107 102 91 92 97 102 100 94 89 90 86 87 90 94 94 91 89 88 90 95 94 93 92 89 88 91 93 97 102 103 108 112 100 95 110 103 90 91 97 104 97 96 102 99 95 95 100 106 112 123 133 139 134 132 130 128 124 119 108 96 90 85 83 86 95 106 115 114 91 96 105 105 106 105 103 98 93 97 107 110 110 106 92 78 77 77 74 75 74 76 80 85 92 99 98 93 112 119 113 116 107 89 75 71 68 64 72 98 108 94 76 77 75 66 69 76 77 78 78 81 82 81 79 76 73 67 65 68 68 73 75 72 72 72 75 77 79 80 80 77 74 75 80 83 79 71 67 65 62 59 62 64 75 95 90 64 61 63 65  137 136 135 132 130 131 132 132 133 137 141 145 153 168 181 190 190 183 175 166 153 147 155 163 167 168 170 175 182 184 175 168 161 159 157 154 153 152 156 182 177 159 155 154 156 154 152 151 148 150 151 149 149 148 146 145 143 144 145 146 159 180 181 168 153 147 147 147 157 172 179 176 168 157 139 137 134 152 176 167 140 130 129 126 146 179 151 127 127 131 134 138 139 147 165 171 173 168 168 166 158 159 154 147 136 148 178 174 158 145 145 151 155 160 162 165 167 166 162 157 151 146 142 143 151 155 175 178 165 155 148 141 145 148 153 159 167 176 184 181 181 180 178 176 171 168 164 156 143 138 136 138 137 140 140 141 140 137 136 138 138 139 138 132 131 146 169 186 186 174 173 173 164 183 175 160 150 145 136 132 132 138 152 153 141 135 139 146 150 151 151 149 143 140 140 140 139 138 140 142 142 144 143 142 141 140 139 138 141 141 143 144 152 162 155 149 152 151 144 143 144 155 161 153 145 146 146 146 147 151 156 160 172 183 182 180 178 175 166 157 151 150 148 149 148 146 148 153 156 156 147 156 160 162 161 157 155 151 149 151 156 167 171 162 145 131 130 132 131 130 132 136 139 142 145 151 151 150 153 147 154 164 158 147 138 130 127 125 131 155 159 145 133 137 135 129 125 126 129 128 128 125 123 123 123 124 122 118 117 115 116 120 124 125 125 126 129 135 140 144 144 142 141 137 137 135 130 124 118 117 116 114 117 120 138 152 141 121 119 118 118 
0 0 0 0 0 0 0 0 0 1 2 13 36 65 85 93 85 63 31 6 0 2 36 60 62 56 31 2 0 0 5 41 57 42 36 37 35 25 21 15 1 0 22 44 42 43 41 40 35 20 3 0 0 2 17 26 26 25 26 26 30 57 72 35 0 11 24 26 39 53 48 28 5 0 0 10 27 31 54 47 12 12 25 21 20 3 0 1 15 17 17 12 9 22 45 32 3 3 21 9 0 0 13 30 35 21 46 57 0 0 1 16 26 25 24 25 23 22 20 12 6 6 18 25 17 13 30 51 3 0 0 5 42 51 54 60 63 61 51 42 37 32 25 21 14 9 2 0 0 6 13 21 25 25 29 26 26 21 19 18 18 20 16 11 23 49 66 54 25 4 0 29 79 85 59 4 0 0 8 19 15 16 33 37 24 17 31 33 25 21 11 4 3 7 12 17 21 27 29 30 31 37 36 34 31 29 24 26 29 31 34 31 37 50 37 16 19 23 7 0 9 13 17 20 0 9 10 6 8 13 23 34 48 57 53 52 53 49 30 28 42 32 6 0 0 0 0 0 0 2 11 3 0 0 3 21 22 22 24 19 19 10 2 5 12 15 16 26 31 33 38 35 31 30 32 29 32 30 23 5 12 53 48 11 0 4 10 9 6 1 18 51 47 15 2 0 0 3 14 13 6 5 4 0 0 0 0 0 0 0 0 0 0 0 0 1 1 0 0 0 0 0 0 0 0 0 0 0 0 0 0 0 0 0 0 0 21 19 0 0 0  83 80 77 74 72 78 86 86 88 89 94 112 128 135 140 139 134 124 117 101 94 109 114 112 110 109 109 119 117 119 134 131 114 108 105 104 100 97 111 121 88 101 113 110 108 108 105 98 94 95 99 100 97 96 93 93 91 91 91 94 116 130 121 101 98 98 101 115 130 135 129 113 102 90 87 94 95 121 127 102 91 91 90 91 101 105 79 89 90 87 89 90 97 113 117 110 108 109 115 93 83 97 105 107 95 112 130 111 100 104 107 111 113 113 114 117 116 114 107 100 95 97 97 99 99 111 129 115 116 98 103 124 132 137 135 128 127 127 124 123 120 114 111 107 106 104 97 93 92 91 90 90 94 93 95 96 93 90 92 93 92 93 92 103 122 134 132 120 111 98 120 137 135 120 101 80 72 88 88 85 88 98 103 95 91 98 101 100 95 88 82 82 85 87 89 91 93 92 91 89 89 94 96 91 87 83 86 92 91 96 98 105 116 104 93 103 115 103 92 96 96 104 108 95 97 97 97 95 96 104 109 124 134 137 138 130 124 120 117 115 108 94 86 87 91 84 83 89 92 97 89 94 102 103 105 107 108 106 99 100 101 101 109 112 104 94 89 90 93 95 92 94 98 99 98 105 108 111 114 108 118 112 93 80 71 74 72 71 67 90 109 97 80 75 69 70 72 77 74 70 74 81 82 84 81 76 73 69 68 68 69 75 73 74 76 74 74 77 80 77 74 79 81 78 76 76 78 76 71 69 63 59 63 57 69 95 91 69 68 70 72  135 133 133 132 129 127 130 130 132 136 140 149 165 179 187 190 185 177 170 158 149 149 157 163 167 168 171 181 181 172 174 171 161 159 158 155 154 151 164 186 164 154 154 153 155 154 151 150 147 150 155 154 150 148 145 144 143 142 141 146 165 183 177 162 149 146 148 156 169 176 174 163 159 148 134 130 135 163 177 157 137 132 135 135 157 177 146 132 131 134 134 134 144 163 173 172 166 161 167 163 154 154 150 150 141 158 181 172 158 155 153 153 156 160 163 164 167 163 156 151 148 145 145 149 150 162 182 176 166 159 158 157 160 166 175 180 183 183 182 180 178 173 170 163 159 158 153 142 132 130 135 138 141 143 144 142 141 137 134 135 136 134 132 142 163 182 184 178 168 148 168 186 188 177 162 153 144 142 138 136 137 145 155 148 138 142 149 150 149 148 146 141 139 138 140 138 137 138 142 142 141 144 143 142 140 139 137 134 138 141 141 150 163 159 148 147 148 142 140 142 145 156 165 154 146 144 145 144 147 152 153 165 180 179 180 180 176 170 158 147 144 141 145 151 151 146 143 143 145 150 147 152 157 158 160 159 158 155 153 152 150 156 166 170 163 152 146 147 149 150 150 151 152 151 152 154 158 157 150 150 163 161 151 140 133 130 129 127 127 147 160 152 141 137 130 124 122 127 129 127 125 122 122 124 125 125 124 120 117 116 118 122 124 124 124 124 127 130 133 133 135 142 141 139 137 137 139 135 128 122 117 113 112 117 133 151 144 126 123 123 124 
0 0 0 0 0 0 0 0 0 0 3 23 54 77 88 88 68 36 12 4 0 19 51 58 56 36 3 0 0 2 38 65 60 42 40 41 36 29 20 5 0 3 29 39 41 44 44 41 38 32 16 8 6 1 5 17 21 23 23 28 42 63 62 17 0 17 28 37 51 46 25 4 0 1 0 8 22 36 59 36 5 18 27 28 22 1 0 7 20 17 15 16 24 42 32 1 5 35 48 15 0 7 37 50 46 34 62 38 0 1 2 5 19 22 23 23 20 18 14 6 6 8 23 31 23 20 56 35 10 30 16 14 49 55 53 54 52 43 31 25 20 9 1 1 2 2 2 3 8 17 20 22 24 24 28 32 29 24 22 19 16 16 23 46 67 55 28 9 0 0 4 62 87 40 3 0 0 3 20 20 18 26 39 35 24 26 32 22 14 10 3 3 3 7 11 13 16 23 26 32 37 39 32 33 30 27 22 20 25 30 32 35 49 42 23 25 40 32 12 8 15 17 22 56 15 4 12 7 8 14 22 37 54 52 44 43 47 46 30 37 49 41 23 11 5 0 0 0 0 0 0 0 0 0 0 22 26 21 29 30 31 36 28 16 13 19 23 23 26 25 22 13 10 9 7 3 6 18 13 4 39 56 21 0 0 8 11 11 8 4 16 44 56 15 0 2 2 11 18 12 5 4 2 0 0 0 0 0 0 0 0 0 0 1 0 1 1 0 0 0 3 1 0 0 0 0 0 0 0 0 0 0 0 0 0 0 16 25 0 0 0  85 83 77 71 71 73 81 83 87 90 100 119 130 137 138 134 127 120 111 93 100 111 108 107 108 108 111 111 111 133 144 135 115 111 109 104 99 100 120 107 88 106 110 112 113 111 106 102 98 97 101 102 97 96 97 90 89 89 91 102 121 127 112 97 95 102 117 132 136 127 113 103 94 82 85 89 104 131 121 95 90 95 98 93 106 99 84 94 91 87 88 95 113 114 109 108 112 119 116 93 94 111 115 113 108 124 126 105 98 103 105 109 114 115 113 111 109 104 97 96 95 99 108 110 107 127 124 122 122 117 109 125 128 130 128 124 122 122 121 119 108 97 98 102 104 99 90 92 91 91 90 92 95 95 97 95 93 91 91 91 95 103 120 134 132 124 116 103 92 100 133 130 107 99 90 68 78 89 89 87 90 103 101 92 97 101 97 95 86 80 83 82 83 88 88 89 90 92 95 93 89 89 92 89 88 85 83 90 94 94 98 111 106 96 98 113 116 104 94 96 95 104 121 102 94 94 92 92 95 99 118 135 136 131 127 125 124 116 114 114 107 99 105 105 100 91 88 86 85 81 84 93 97 98 105 108 109 111 109 107 106 106 109 114 114 109 101 96 92 91 88 84 85 87 87 91 102 105 100 115 121 101 85 74 74 76 73 73 70 86 106 100 81 70 66 70 75 77 74 68 67 77 81 78 79 77 71 68 64 64 68 75 75 75 76 75 73 75 78 80 77 83 83 81 78 76 75 76 76 74 72 68 63 57 64 89 96 78 78 78 79  135 133 132 134 131 129 129 130 132 133 144 161 176 184 189 186 180 171 165 152 148 154 159 164 167 170 177 176 168 167 172 171 162 158 159 157 153 152 177 177 153 152 152 153 154 154 153 150 148 149 156 158 154 150 147 142 143 143 143 150 172 182 172 156 146 147 155 165 172 170 160 155 155 145 133 129 142 173 174 147 131 130 133 138 167 171 139 134 135 135 135 143 163 174 172 166 161 166 169 162 155 154 153 154 151 174 182 167 156 159 157 155 158 159 160 163 163 158 151 149 146 149 153 155 154 175 180 175 160 169 169 167 170 174 177 179 179 178 177 176 170 161 155 151 153 151 143 135 131 129 132 137 140 144 147 146 144 139 136 132 132 140 161 181 186 181 170 153 135 146 181 183 167 161 158 145 141 138 139 137 139 150 155 150 147 149 151 149 143 141 138 137 137 136 137 136 138 137 140 141 140 141 142 141 139 137 136 135 136 138 145 159 161 151 149 152 146 136 137 140 143 154 173 158 148 144 144 143 145 147 159 180 184 180 176 174 173 161 152 141 135 142 151 156 155 150 145 145 146 145 146 152 155 157 162 164 163 162 158 157 156 157 163 169 170 164 157 153 152 150 147 144 140 138 140 142 147 148 149 162 165 155 142 134 130 128 129 128 127 140 158 157 142 131 125 123 126 129 127 124 121 120 122 126 128 126 126 122 120 120 123 123 123 122 122 122 124 127 129 130 132 138 142 141 140 137 139 139 139 136 129 123 117 117 130 149 146 130 128 129 129 
0 10 2 0 1 0 0 1 0 1 15 46 70 84 88 73 42 15 8 2 13 39 55 54 40 10 0 1 0 28 51 56 55 46 46 43 37 34 16 0 0 11 32 33 37 41 45 43 41 37 25 17 19 15 4 7 17 24 25 29 50 67 43 3 7 28 44 53 51 29 5 3 2 0 0 3 19 49 58 21 7 21 24 26 14 0 0 13 22 18 16 28 45 29 1 10 36 51 41 7 0 19 54 58 50 46 68 19 0 2 4 1 9 20 18 18 13 9 6 6 10 19 36 43 34 49 61 30 35 44 36 23 34 42 44 42 31 21 16 13 5 0 0 0 3 9 9 10 19 21 18 18 24 25 26 31 32 29 24 16 19 46 63 57 34 7 0 0 0 20 71 71 20 0 1 1 0 12 20 19 18 32 40 34 27 26 23 16 7 0 2 6 5 5 9 12 17 21 27 34 40 38 31 31 31 27 19 18 22 27 33 45 42 34 39 51 53 36 16 13 22 24 16 44 23 2 15 11 9 8 28 52 53 42 25 41 54 43 34 51 55 39 28 31 25 17 6 1 0 0 1 0 0 0 0 11 22 27 30 32 37 38 36 24 16 15 15 14 10 8 5 1 0 0 0 0 0 5 1 21 55 37 3 0 3 5 9 11 9 3 12 34 57 24 0 7 10 20 21 15 9 4 0 0 0 0 0 0 0 0 0 0 0 1 0 0 0 0 0 0 3 2 0 0 0 0 0 0 0 0 0 0 0 0 0 0 14 25 0 0 1  88 85 80 75 71 70 75 82 83 92 112 126 135 141 138 129 119 116 102 95 106 107 104 109 110 109 104 103 120 135 135 129 116 111 110 107 102 107 119 89 96 106 108 110 111 111 108 106 104 99 98 101 100 98 99 92 88 91 93 109 125 121 104 94 100 122 137 143 130 110 99 97 89 77 79 87 116 133 109 91 92 94 98 97 112 91 89 97 96 90 98 112 114 111 110 113 118 113 110 93 101 115 120 118 119 129 117 106 104 103 103 110 109 110 110 103 102 100 99 99 104 114 123 117 124 130 121 121 119 119 111 117 121 122 120 116 113 113 114 115 103 87 87 100 101 96 91 91 90 89 88 92 94 96 100 101 94 92 93 102 120 131 131 124 112 102 91 85 104 130 127 100 92 100 78 73 87 89 88 86 95 103 100 98 97 96 90 88 82 83 85 83 81 83 86 90 91 92 96 96 93 92 89 89 87 83 83 85 90 96 109 108 103 109 116 120 116 103 95 94 92 102 116 103 93 93 92 91 90 108 135 140 132 118 117 124 121 116 118 112 105 108 119 118 108 103 104 97 91 83 82 86 90 94 101 106 110 111 109 106 106 104 103 107 114 110 102 92 85 84 79 72 66 68 73 77 79 82 103 124 115 91 78 72 72 72 73 75 71 79 102 106 85 71 72 73 80 78 76 69 66 67 72 72 72 71 69 67 64 63 70 76 74 72 73 74 71 77 80 78 80 84 85 82 77 77 77 76 75 76 75 74 71 66 65 86 95 79 79 79 80  135 133 133 133 132 131 129 134 135 139 157 173 183 189 188 181 174 167 158 150 152 160 162 166 169 175 174 164 162 165 166 165 160 158 158 158 154 160 184 166 154 151 150 150 153 153 151 153 153 149 152 157 158 155 151 146 139 142 143 154 177 179 164 151 145 150 158 164 164 156 151 153 155 144 131 132 155 177 165 137 127 127 130 142 177 161 137 136 137 139 146 163 175 175 167 160 160 164 170 160 157 158 159 159 163 180 178 164 157 159 159 160 160 157 156 156 152 150 149 149 150 159 165 162 172 182 178 170 163 171 173 171 173 176 176 175 174 173 171 168 163 155 148 150 152 148 140 133 130 128 130 135 140 145 148 147 148 140 134 139 158 178 184 180 172 157 136 122 146 182 182 164 158 164 149 142 140 138 138 138 145 155 158 154 150 149 146 141 135 134 135 133 132 134 133 134 136 137 140 140 140 141 141 141 139 138 138 139 138 143 158 162 157 154 156 157 147 139 138 140 141 153 169 161 148 142 141 141 141 156 181 185 182 171 169 173 167 156 148 139 136 149 161 161 158 155 157 152 148 148 149 151 152 155 160 164 165 164 163 158 158 158 159 164 171 166 155 147 142 138 135 131 127 123 125 127 129 133 154 168 161 147 131 126 128 127 128 128 127 137 155 159 145 128 123 125 129 129 127 124 120 119 120 123 127 127 127 125 123 123 123 122 121 121 119 119 119 123 126 127 134 135 138 140 140 140 138 138 140 139 138 135 132 126 128 147 147 132 128 130 129 
1 17 7 1 0 0 0 0 0 12 41 65 81 85 77 50 23 6 5 16 38 54 54 44 20 1 1 0 17 43 44 45 43 41 43 44 42 36 9 0 1 18 30 29 31 35 37 38 39 37 30 22 37 49 28 6 9 19 25 35 54 61 21 0 14 40 55 59 43 12 6 12 3 0 0 0 20 56 47 5 10 24 21 24 9 0 1 18 20 16 30 46 24 2 18 44 47 37 19 1 0 29 59 58 52 63 57 3 26 19 0 4 3 13 14 8 5 12 20 24 34 49 50 45 44 60 40 32 36 36 32 22 19 31 31 17 4 4 4 3 8 1 0 0 0 10 12 12 20 20 19 17 24 27 26 30 33 30 32 41 58 56 32 15 2 1 1 1 46 84 50 7 0 1 1 0 5 19 19 19 26 40 39 25 20 17 11 9 4 3 4 7 6 4 8 12 17 24 27 38 38 36 36 29 30 32 30 33 38 44 52 40 24 28 42 48 44 28 11 18 26 29 6 24 24 1 18 16 10 14 49 59 45 12 34 54 49 33 38 59 53 35 32 38 36 48 35 14 5 0 0 0 0 0 0 0 3 11 16 18 25 22 22 17 3 6 17 12 9 9 12 11 4 0 0 0 1 0 16 50 48 14 0 1 5 2 4 8 5 8 16 30 54 39 7 8 17 25 20 19 14 7 1 0 0 0 0 0 0 0 0 0 0 0 0 0 0 0 0 1 1 0 0 0 0 0 0 0 0 0 0 0 0 0 0 0 5 21 3 0 0  96 90 84 82 74 75 79 83 91 105 120 132 140 140 132 121 112 108 100 102 108 107 108 110 106 99 97 108 125 127 125 121 113 109 109 107 104 117 109 82 100 106 103 104 106 108 108 105 104 97 95 104 110 107 104 101 92 90 101 114 124 113 97 94 111 129 138 136 110 93 93 95 89 81 77 90 124 126 95 85 92 92 93 102 112 84 98 100 96 104 117 115 114 114 112 114 105 100 106 91 105 120 122 121 129 125 110 121 118 102 103 106 110 107 102 101 106 111 111 112 120 128 126 123 130 123 121 121 121 119 112 112 117 111 106 107 106 103 104 108 102 86 77 90 101 95 92 93 92 87 83 86 91 92 97 98 100 107 121 133 132 122 113 103 94 82 86 120 132 110 94 89 101 92 75 85 91 90 89 95 103 103 99 96 92 85 83 82 82 84 81 80 77 79 84 85 92 95 99 102 98 95 91 89 90 90 95 99 103 114 112 102 106 114 121 123 118 103 96 95 93 97 112 104 92 92 89 85 99 131 141 133 117 114 118 125 117 118 121 109 105 117 126 129 135 126 113 111 103 90 82 83 87 91 97 103 106 107 104 102 97 92 87 91 107 113 104 95 87 81 78 72 66 65 71 76 73 84 116 120 101 80 70 71 70 69 74 73 72 79 99 109 94 76 75 76 81 80 78 70 66 63 66 65 67 67 66 67 64 65 67 71 72 67 68 71 72 77 80 77 82 85 83 79 80 80 77 74 74 75 74 73 68 68 69 79 95 78 70 73 75  138 134 132 132 133 135 133 134 142 154 171 180 188 188 181 173 168 162 151 150 157 164 166 170 172 171 161 155 163 163 161 159 156 156 157 156 153 172 178 155 151 150 148 148 150 151 150 151 153 149 146 155 165 164 157 151 142 139 144 163 178 172 157 146 146 151 158 157 151 145 146 153 153 142 130 139 167 176 154 131 127 126 128 152 181 151 137 137 137 150 166 173 175 168 162 161 159 157 167 160 159 161 163 164 172 179 171 169 165 157 162 161 163 159 155 150 149 151 153 156 164 172 171 170 182 179 177 172 170 171 174 172 173 173 170 169 168 164 161 155 152 150 145 146 149 145 137 135 133 128 130 134 138 144 147 148 146 149 162 176 184 181 173 159 142 126 128 163 184 170 163 158 164 157 145 144 137 140 142 144 153 157 153 149 144 140 135 132 130 130 133 132 130 132 133 133 135 136 138 139 139 139 141 142 143 144 148 151 154 160 163 159 155 154 158 161 152 142 139 139 140 151 169 164 149 140 139 137 150 178 185 184 168 159 166 174 161 152 145 133 137 155 166 164 165 164 159 156 152 149 149 148 149 151 155 160 162 162 163 159 152 150 148 149 162 170 158 146 137 132 129 128 125 123 124 123 122 138 164 167 154 135 124 123 125 125 124 125 129 137 153 161 151 132 124 126 131 131 128 123 119 117 117 120 125 126 127 127 126 126 123 124 123 121 120 119 117 121 126 127 132 135 133 134 137 137 136 136 137 138 141 141 137 136 136 145 148 132 124 127 129 
0 35 31 25 15 12 8 15 22 40 61 76 88 82 55 29 9 3 5 35 51 55 49 29 4 0 0 8 34 38 39 37 32 31 35 39 42 30 1 0 3 16 20 21 25 32 32 31 31 29 28 25 49 68 45 14 0 7 24 45 61 46 7 5 26 46 52 50 29 17 16 13 2 0 0 5 37 57 25 0 4 16 22 24 6 0 6 21 19 34 48 21 1 23 44 43 34 28 14 3 0 38 59 54 53 72 32 5 39 34 12 0 1 1 9 13 27 42 48 44 48 46 41 38 41 42 26 29 28 25 18 7 1 9 2 1 2 0 4 14 24 13 0 0 0 4 14 19 23 21 18 17 21 24 25 25 35 47 51 48 31 7 0 6 12 6 19 67 90 36 0 6 24 1 0 1 13 25 28 31 41 45 29 10 12 11 4 2 2 2 0 4 3 3 5 8 15 20 25 35 39 39 45 43 47 54 60 60 60 66 52 15 1 12 22 29 25 6 2 19 29 28 5 15 29 1 18 13 13 41 58 42 9 23 51 55 41 27 44 58 42 29 41 47 48 71 57 37 32 20 9 2 0 0 0 0 3 6 8 7 5 6 13 23 19 9 14 16 10 10 15 13 7 2 0 0 1 6 44 57 26 1 0 2 1 1 2 4 7 20 12 22 52 55 17 9 19 25 22 20 15 9 5 1 0 0 0 0 0 0 0 0 0 0 0 1 0 0 0 0 0 0 1 0 0 0 0 0 0 0 0 0 0 0 0 0 0 3 2 0 0  107 105 102 97 94 97 100 102 111 119 128 138 141 133 124 113 106 102 107 111 110 112 111 101 94 88 97 113 121 122 117 110 107 107 108 106 105 119 93 88 99 101 100 99 102 104 104 100 98 95 92 106 118 118 114 109 96 94 108 119 119 104 92 98 111 122 127 112 98 91 91 94 88 83 80 106 133 116 87 80 88 90 96 109 104 86 101 98 108 121 116 114 117 113 111 106 103 110 111 91 112 123 124 130 134 118 115 129 129 116 99 98 103 107 107 122 129 131 126 127 130 129 127 129 127 120 122 117 114 112 109 98 100 96 103 103 101 101 108 109 103 92 76 74 90 97 96 95 97 92 86 87 91 93 96 110 124 132 134 126 115 104 98 94 85 99 133 136 101 85 89 111 99 76 91 97 96 96 104 112 111 99 89 88 84 80 82 79 79 79 80 75 76 79 82 84 90 92 97 97 98 101 103 106 109 114 120 120 122 117 96 90 95 100 116 124 114 104 96 94 94 98 109 105 92 90 88 98 129 141 132 112 106 108 122 122 113 116 114 105 107 126 133 139 154 143 121 115 111 104 92 84 82 83 91 100 105 106 103 102 96 90 88 92 100 110 110 100 91 83 82 77 76 75 75 75 80 105 118 108 87 67 67 66 67 67 69 70 80 77 91 108 102 81 76 79 84 81 76 72 68 64 63 63 61 65 65 65 68 69 66 69 72 68 69 70 72 76 76 78 82 82 81 76 73 76 76 72 71 69 70 75 76 72 65 69 79 77 75 75 76  147 144 141 143 145 146 148 150 158 169 179 186 189 183 175 167 164 153 150 155 162 166 169 170 167 156 151 155 159 161 159 156 153 153 154 154 157 180 165 149 147 148 147 147 147 148 148 148 148 146 143 156 173 171 166 159 150 142 150 173 176 162 148 144 146 149 150 147 146 143 145 153 154 144 136 152 176 171 144 129 129 129 131 166 177 141 136 138 149 169 177 177 171 163 160 157 154 158 166 158 161 164 167 172 179 174 172 172 171 165 156 159 161 162 154 155 159 161 164 169 175 176 173 178 182 179 176 170 166 164 168 165 166 164 167 165 160 157 156 151 148 149 144 141 145 143 139 137 135 132 130 134 138 142 142 150 166 180 187 183 173 157 143 133 126 142 180 187 166 158 157 167 162 147 155 148 142 146 150 155 160 156 146 141 134 129 125 126 129 129 130 130 130 131 130 130 131 133 136 140 143 144 150 156 161 162 165 167 170 168 155 148 145 146 156 159 150 142 141 142 140 151 170 166 150 139 137 149 179 185 182 168 153 158 173 170 155 147 140 132 142 163 169 166 169 168 161 160 158 154 149 148 148 149 152 158 160 162 162 159 154 152 151 149 157 167 166 154 143 134 134 132 128 127 126 124 131 155 166 158 142 125 120 120 121 123 123 126 134 137 151 161 158 137 127 130 133 132 129 124 120 117 116 118 120 124 125 126 129 126 125 125 122 121 119 117 117 118 123 126 129 133 131 128 130 134 137 136 136 133 134 140 142 140 138 137 140 136 128 129 131 
0 59 58 59 59 54 50 53 60 68 77 85 84 64 34 8 4 9 26 51 58 52 34 5 0 0 4 29 41 35 35 33 29 29 27 25 32 12 0 1 10 17 20 18 21 28 24 24 24 26 23 27 52 67 40 10 0 0 22 56 63 27 0 12 32 39 42 32 24 26 21 15 3 0 1 21 50 47 11 0 4 8 13 12 2 0 10 22 41 52 22 2 25 37 32 26 28 35 22 1 1 41 59 55 55 64 11 19 40 37 31 5 0 0 5 35 53 58 57 52 43 35 35 33 40 29 13 14 11 14 26 6 0 0 8 11 7 13 23 26 27 24 6 0 0 0 11 24 25 24 18 15 21 19 24 50 59 45 15 1 1 5 14 16 10 35 81 68 16 0 0 7 11 0 3 33 18 29 35 39 47 44 20 3 9 8 7 8 2 1 1 0 3 5 8 12 18 26 37 48 56 62 66 63 62 56 50 46 56 56 32 10 9 18 27 30 16 0 0 15 32 29 2 10 35 3 9 14 39 55 40 4 14 40 53 54 30 22 46 43 28 37 52 57 57 72 64 50 48 44 32 16 1 0 0 0 1 4 12 20 9 0 0 0 3 4 6 16 15 12 12 7 4 4 2 1 0 22 52 36 7 0 0 1 1 0 0 4 20 16 0 9 35 53 27 12 24 25 26 21 14 9 7 4 0 0 0 0 0 0 0 0 0 0 0 1 1 1 0 0 0 1 0 1 1 0 0 0 0 0 0 0 0 0 0 0 0 0 0 0 0  116 117 118 115 116 120 122 127 133 136 138 143 137 125 113 109 102 102 109 111 113 110 98 91 92 91 104 115 116 117 112 109 103 102 105 102 114 108 80 89 97 98 95 98 100 99 98 95 94 90 92 109 121 120 116 109 96 101 116 122 113 97 93 100 103 105 103 94 91 91 93 94 88 83 89 124 133 105 84 82 84 88 96 112 90 90 98 110 122 117 117 119 112 108 105 108 113 116 110 93 114 123 128 133 127 113 123 130 126 126 110 98 100 106 122 135 138 139 140 135 129 127 127 129 122 116 110 106 107 112 106 91 90 107 109 106 110 110 110 111 106 103 89 74 77 96 99 96 96 93 90 93 93 106 135 143 138 125 113 107 96 94 94 92 110 133 128 96 81 85 92 106 80 80 118 101 103 106 111 119 112 90 81 85 82 81 81 77 81 78 74 75 77 78 82 89 93 98 106 110 116 121 124 123 119 117 112 121 120 102 88 91 94 97 111 116 106 99 94 95 95 96 110 109 93 90 101 128 139 131 107 95 99 116 124 114 113 112 104 105 119 133 134 136 147 135 115 113 111 105 99 90 83 84 88 95 102 109 108 102 96 89 81 80 87 102 114 110 98 88 85 83 80 78 77 75 91 116 109 95 71 59 70 68 65 63 65 76 79 70 89 107 106 92 77 84 85 82 76 73 68 64 65 62 59 60 62 66 69 68 70 70 72 76 76 72 77 77 74 80 83 79 78 72 64 66 69 70 69 68 66 67 66 71 73 71 68 68 75 78 80  159 158 159 161 161 163 166 172 174 179 184 188 184 178 170 165 158 149 153 162 168 170 167 164 157 146 150 156 157 158 158 155 152 148 149 151 174 178 154 146 145 143 143 143 146 146 146 146 145 142 139 157 175 174 171 165 153 151 163 179 174 154 143 143 144 146 142 143 145 144 145 151 154 145 143 166 180 162 137 129 128 129 138 175 162 131 133 150 169 176 178 173 165 161 157 153 153 161 167 159 164 166 173 178 179 172 173 172 173 173 163 158 158 158 159 160 163 165 170 175 175 175 176 181 179 177 166 157 160 166 166 159 161 168 165 158 156 159 156 154 153 151 148 142 140 142 142 139 136 134 133 137 137 141 156 177 188 182 172 160 143 133 127 128 154 185 182 161 157 149 149 166 151 150 172 156 151 150 155 161 159 147 137 134 128 126 126 125 128 129 128 129 128 128 129 133 139 145 152 158 162 165 167 169 170 167 165 171 169 157 146 142 139 140 149 149 141 138 141 142 141 152 169 168 152 139 149 177 185 181 164 146 147 165 175 164 152 142 131 134 156 170 172 168 169 167 164 163 159 157 154 151 148 145 149 156 160 164 162 158 154 151 147 147 152 161 168 163 151 141 138 136 131 129 128 128 146 165 162 149 130 119 119 118 118 119 124 133 134 133 146 159 159 147 132 134 134 129 126 123 120 119 117 116 118 123 126 128 128 127 127 125 123 122 117 116 116 116 121 125 127 132 131 128 123 124 131 135 137 135 129 127 131 138 141 139 136 137 138 136 137 
0 59 60 60 63 65 68 72 77 85 86 82 66 42 17 6 16 29 52 59 56 42 8 0 0 9 26 36 44 39 36 33 32 27 19 19 19 1 0 10 20 14 17 17 16 18 21 19 18 19 19 29 55 59 20 0 1 0 23 63 53 10 0 13 25 31 26 20 24 28 26 13 1 0 7 40 55 33 3 8 15 15 15 7 0 0 19 48 48 14 1 22 28 23 18 24 33 37 20 0 6 45 57 54 60 49 6 32 38 37 33 17 0 0 7 32 48 54 57 51 38 31 26 27 35 7 0 2 18 25 11 0 0 2 14 13 22 30 31 27 27 27 20 3 0 0 3 20 25 24 21 20 19 27 82 97 28 0 2 11 16 18 10 15 58 83 47 4 0 1 3 4 0 0 11 54 26 23 32 39 49 35 8 6 10 10 8 9 3 2 3 7 16 26 33 40 49 55 58 63 66 63 53 42 37 29 27 41 47 37 29 32 31 34 39 38 21 0 1 15 28 29 3 6 36 3 13 43 59 44 6 6 26 44 59 46 19 23 34 29 36 57 64 61 57 57 50 38 31 29 26 19 4 0 0 0 0 0 7 22 24 22 16 4 0 0 0 7 20 18 19 19 9 6 1 0 8 46 46 14 0 0 0 0 1 1 0 10 15 2 0 10 35 39 30 14 26 31 27 24 16 10 9 9 3 0 0 0 0 0 0 0 0 0 0 0 0 2 0 0 0 0 0 3 6 3 0 0 0 0 0 0 0 0 0 0 0 0 0 0 0  115 114 116 118 120 125 130 137 146 151 149 141 129 117 110 108 99 107 108 109 109 95 88 95 99 105 111 118 116 114 111 110 102 96 93 103 118 90 89 93 94 95 91 93 94 95 92 92 88 89 94 113 121 114 109 97 89 106 123 122 108 89 86 96 97 90 87 88 91 94 92 93 90 88 106 132 120 93 85 86 88 90 98 112 84 92 114 122 114 117 119 109 104 109 113 115 115 116 103 98 119 126 131 128 119 116 125 127 126 122 117 102 99 106 121 130 131 135 134 127 127 123 122 122 112 105 98 107 106 94 95 93 86 108 108 113 115 115 113 111 109 109 99 85 75 85 101 102 98 95 94 93 108 156 178 142 116 106 100 95 90 89 97 124 131 115 93 88 95 92 102 88 69 93 124 103 102 105 108 116 100 84 83 82 83 82 80 75 78 77 78 83 88 93 103 111 115 119 125 126 122 116 108 107 104 102 113 118 106 101 102 101 103 104 108 109 102 92 94 95 95 98 110 112 93 98 127 141 130 105 87 88 106 123 119 110 107 102 104 117 129 128 123 122 123 114 105 104 101 101 99 95 91 88 85 91 98 105 109 107 107 105 89 75 77 92 108 116 109 97 90 89 86 82 79 83 109 112 97 85 63 52 66 72 67 61 70 76 70 73 104 122 109 96 82 86 86 81 77 72 71 70 67 63 63 64 63 67 67 66 67 70 71 73 75 77 80 80 77 81 82 79 77 73 66 60 58 63 66 66 66 62 59 62 69 74 75 70 68 70 79  165 165 167 168 169 174 178 182 186 189 189 185 179 170 163 161 152 153 159 165 167 165 162 154 148 147 148 156 158 157 156 152 151 148 146 155 183 163 150 143 142 140 140 141 143 146 144 144 142 140 142 162 176 172 167 159 150 159 176 180 166 147 134 137 141 141 139 140 142 142 145 153 154 147 157 177 174 153 137 133 133 131 150 178 148 133 153 171 175 174 169 161 158 156 156 154 154 165 168 161 165 168 175 177 174 173 174 169 171 168 165 160 160 157 157 157 159 161 166 169 171 172 175 178 174 163 152 158 164 158 160 160 156 162 157 154 156 157 155 154 159 156 153 148 141 139 141 142 141 138 136 137 142 165 179 172 167 158 144 137 132 127 135 169 185 176 160 156 159 145 159 159 141 151 172 163 152 151 156 162 155 138 131 128 125 124 126 126 128 132 134 138 140 146 151 156 162 166 169 171 170 167 161 158 157 154 159 162 154 146 142 140 139 140 140 137 129 130 138 141 142 153 167 170 153 150 176 187 181 165 142 136 152 171 170 157 142 132 132 150 167 171 169 163 162 159 156 157 156 153 148 148 150 148 150 154 158 161 160 157 160 159 148 141 144 154 166 170 162 152 147 144 140 135 130 138 161 164 155 139 123 119 119 118 119 120 129 134 129 129 150 161 161 155 143 139 137 132 126 121 118 119 117 116 116 121 128 128 128 129 127 125 123 121 118 116 117 117 119 124 130 132 132 128 121 116 119 127 133 137 134 129 127 128 132 140 141 139 135 136 146 
5 47 45 47 50 54 65 77 86 91 85 70 49 26 9 18 31 52 64 58 44 11 0 2 12 23 28 31 39 46 42 29 31 26 20 21 11 0 1 19 22 15 11 9 10 14 17 17 16 14 18 38 66 51 6 0 0 1 36 63 35 1 2 12 17 22 16 19 28 31 28 16 1 0 21 55 52 19 9 21 22 19 17 6 0 11 51 46 9 1 24 20 15 15 20 28 29 29 11 0 12 50 50 48 64 26 11 32 29 30 25 19 8 0 8 23 40 50 49 37 27 21 18 40 14 0 6 24 20 1 8 18 1 0 11 27 29 30 29 25 29 24 20 10 0 1 0 7 27 27 21 15 18 53 84 52 11 11 20 19 16 10 31 77 75 26 0 0 1 0 3 2 0 0 10 47 42 13 23 41 44 22 4 14 12 13 16 23 28 29 34 43 50 55 52 50 49 52 45 42 40 35 26 20 24 26 40 55 44 35 39 42 41 43 41 41 33 6 0 17 27 24 2 4 37 6 38 62 46 4 6 16 27 53 56 34 14 19 26 41 52 55 50 41 36 28 26 29 29 28 24 28 20 0 0 0 0 0 0 7 17 24 32 25 10 0 0 5 27 22 5 9 12 18 22 10 26 48 27 1 0 1 0 0 0 0 11 11 0 0 0 30 39 17 19 27 21 30 30 26 15 17 15 8 6 3 0 0 0 0 0 0 0 0 0 0 1 1 0 0 0 0 2 5 7 5 1 0 0 0 0 0 0 0 0 0 0 4 2 0 0  110 109 112 115 123 131 141 151 155 154 146 136 122 110 112 104 104 112 109 107 98 89 95 105 104 105 107 112 116 114 108 106 100 95 90 113 103 82 96 96 94 91 88 89 91 94 93 90 89 91 100 118 120 105 96 89 94 114 125 117 100 88 83 90 90 86 86 88 92 94 94 95 93 97 124 131 104 91 91 92 93 91 107 101 89 116 119 114 120 121 101 96 101 109 115 116 115 119 100 105 127 128 126 125 118 118 119 119 119 116 108 107 103 106 118 128 131 134 130 124 121 117 122 108 107 100 102 97 88 99 112 101 88 107 112 115 114 112 111 109 114 113 103 95 80 79 96 105 104 100 92 94 117 138 130 105 96 93 93 91 90 108 129 127 106 87 91 102 91 99 99 73 74 94 120 117 99 96 104 105 89 84 88 83 85 86 88 93 93 99 103 107 111 111 111 114 114 112 110 105 101 95 93 99 101 114 137 118 98 103 104 104 104 104 107 110 102 86 93 97 95 99 106 114 101 126 142 131 105 86 81 90 114 123 116 105 100 103 116 120 117 109 104 103 103 101 104 110 109 107 107 101 100 96 88 94 98 103 105 105 108 117 112 95 83 87 108 125 122 101 88 90 92 94 89 96 112 100 82 75 64 52 60 68 69 74 76 69 64 85 133 127 99 95 90 85 85 85 79 72 72 72 67 63 64 65 66 68 68 66 66 67 66 69 73 78 78 79 80 84 85 84 81 75 67 63 60 59 60 63 66 62 61 66 74 76 87 89 87 80 75  163 165 167 169 173 178 185 191 193 193 189 183 175 165 161 154 152 159 162 166 163 159 156 148 145 149 148 154 159 158 153 149 148 147 145 171 177 156 146 142 141 139 137 138 140 143 144 143 142 139 149 169 175 166 155 147 149 167 180 175 159 140 130 134 137 137 138 139 141 141 145 154 153 151 170 182 166 146 139 139 139 138 166 174 145 155 172 175 166 157 150 149 151 153 155 155 157 168 167 165 170 173 173 176 175 174 168 166 165 160 157 159 159 158 159 157 159 161 164 167 168 167 175 172 166 150 155 157 155 158 167 166 155 151 150 153 154 155 155 155 158 158 154 151 146 141 141 143 141 138 134 133 150 160 151 148 146 140 133 132 131 150 178 182 170 158 151 163 152 154 162 147 147 146 164 170 153 147 156 160 147 130 127 127 128 131 136 140 148 152 155 160 160 162 164 165 165 164 162 159 154 151 148 145 144 149 156 149 143 140 140 138 137 138 137 137 129 130 137 141 142 155 163 167 159 173 186 183 166 141 132 140 163 174 165 149 137 135 148 160 164 162 160 155 153 155 153 152 153 151 147 145 151 153 150 153 157 159 158 157 159 161 157 148 142 144 160 175 171 158 150 151 153 150 143 152 164 159 144 131 123 119 119 119 120 129 136 131 125 141 162 153 151 156 153 142 138 133 127 121 118 118 117 117 118 123 125 127 128 127 125 126 122 121 119 117 117 117 121 123 128 131 132 129 124 116 112 114 122 132 135 133 132 131 132 137 148 145 146 144 142 
1 24 24 29 31 40 56 71 81 84 74 54 34 14 17 33 50 65 62 48 18 0 2 19 26 26 29 25 29 42 38 27 27 25 18 14 3 0 2 10 13 17 16 11 12 13 9 13 18 14 22 52 68 35 0 4 14 27 58 53 12 1 10 13 14 15 19 18 27 31 27 12 0 2 39 66 41 16 25 32 27 24 15 0 4 48 36 3 0 12 21 5 7 19 23 25 22 18 3 0 15 49 42 52 58 5 15 23 20 21 17 17 20 7 1 12 25 41 37 28 27 19 48 36 0 1 7 5 6 26 33 18 1 0 13 31 28 30 35 37 34 28 19 18 7 0 0 0 15 24 17 11 14 27 22 20 20 20 20 8 16 53 81 56 7 0 1 0 0 1 1 0 7 11 4 33 59 18 20 45 34 12 17 30 34 40 47 51 51 49 46 40 41 37 26 22 20 27 25 22 22 25 23 27 32 36 52 59 44 38 42 42 41 39 37 42 32 6 2 17 27 19 0 1 33 39 61 51 7 3 20 23 42 58 47 24 10 28 41 43 38 34 31 26 25 27 30 36 36 37 34 34 30 7 0 0 0 1 3 2 7 14 28 29 15 1 0 5 27 29 4 0 0 1 7 11 21 24 14 2 0 0 0 0 0 8 18 2 0 0 2 15 6 5 2 24 29 18 31 28 20 19 17 11 9 8 1 0 0 0 0 0 0 0 0 0 0 0 1 0 0 0 3 7 7 7 1 0 0 0 0 0 0 0 0 0 0 14 25 5 0  104 101 105 109 117 131 145 155 157 151 137 130 118 114 107 104 111 110 109 100 90 95 104 106 108 105 101 102 113 111 103 101 98 91 96 114 88 82 89 93 92 89 89 92 92 91 94 94 91 92 111 123 116 98 91 102 107 121 123 109 101 94 87 89 87 86 88 92 94 93 96 96 91 107 139 124 96 93 92 95 95 99 111 88 115 115 111 103 103 99 88 91 99 104 108 108 111 116 101 111 128 128 126 126 114 111 109 111 108 105 100 103 104 104 110 120 124 123 119 119 116 123 112 98 88 88 87 91 108 114 106 106 95 105 111 110 111 116 118 117 115 111 106 99 89 77 82 102 106 101 92 89 95 92 94 97 92 90 88 98 122 131 118 93 84 87 100 96 93 105 83 83 93 88 107 127 104 93 103 98 85 90 95 95 97 101 107 109 109 108 107 103 97 94 89 91 94 92 93 90 90 92 97 102 103 121 130 109 99 103 101 102 104 101 104 107 94 84 92 96 93 97 99 112 127 143 135 108 89 81 83 98 118 120 109 97 103 108 106 103 107 109 109 108 113 114 112 113 115 113 112 107 103 99 93 96 98 104 105 104 105 111 113 103 90 84 105 130 129 105 83 83 85 89 96 95 92 92 80 75 66 45 54 66 74 81 72 62 66 100 133 93 77 87 94 92 84 86 81 74 73 72 71 67 68 66 64 65 68 67 65 66 65 68 71 73 78 81 81 83 84 84 83 76 72 72 67 62 59 63 65 66 67 70 74 76 88 103 96 87 89  156 159 161 163 169 176 186 192 193 191 185 177 169 163 159 152 160 165 166 162 157 153 148 147 147 149 149 150 157 155 148 144 146 144 155 180 161 145 141 142 142 140 137 138 140 143 144 143 141 142 159 175 174 160 144 145 153 173 179 168 155 140 132 134 136 137 136 139 140 143 149 155 152 158 178 179 158 146 143 142 140 150 176 158 163 170 175 162 146 137 137 141 145 150 153 155 157 168 165 169 173 174 173 177 175 169 161 160 157 154 150 150 156 157 160 157 155 158 162 164 161 174 173 165 149 146 148 154 164 166 157 164 160 148 144 148 153 156 158 159 159 159 156 150 146 144 141 142 139 138 133 130 136 135 137 141 141 140 130 136 166 181 178 162 150 144 157 159 154 165 150 148 158 141 153 175 160 149 155 154 142 136 139 141 144 150 153 157 160 161 161 159 155 153 152 149 147 145 143 142 141 141 140 141 141 149 150 141 139 138 137 134 133 134 139 144 138 135 138 138 140 156 160 168 176 185 185 168 144 132 135 150 168 170 160 148 145 149 154 159 161 161 160 157 158 157 156 154 154 151 148 144 149 155 150 148 152 158 160 159 160 160 158 152 144 141 155 174 174 159 147 147 150 153 155 154 152 151 143 130 124 118 118 120 127 135 131 123 126 154 159 131 131 146 156 152 139 136 131 124 121 119 119 118 122 122 124 129 128 126 124 125 123 121 120 119 117 117 120 121 126 133 132 133 128 122 116 112 114 123 130 135 136 136 136 136 148 152 151 146 145 
0 8 10 10 13 26 42 61 78 78 62 36 16 15 34 47 68 70 54 26 0 4 18 35 36 34 31 22 22 32 28 24 24 22 13 5 0 0 1 1 5 12 14 11 14 14 12 12 16 11 31 63 62 19 0 21 46 61 68 33 0 4 20 19 15 13 16 13 20 28 24 6 0 9 56 64 29 23 38 39 33 27 9 0 20 25 0 0 2 11 9 4 11 18 19 22 21 13 1 0 18 41 42 66 39 0 16 14 11 11 15 17 19 14 1 3 3 14 30 31 30 43 61 6 0 0 2 26 44 36 18 15 3 0 9 26 29 37 48 55 51 45 41 36 30 16 1 0 2 20 21 13 7 12 16 19 19 20 16 36 84 78 20 0 1 4 1 0 1 4 1 0 32 34 4 28 60 41 24 42 20 11 32 39 41 38 37 32 23 18 15 12 9 4 4 7 13 19 26 29 31 33 37 35 37 35 41 48 43 40 41 41 40 38 36 39 25 1 3 17 23 16 0 0 44 70 55 8 4 30 38 42 51 51 33 19 21 36 40 41 39 39 39 35 34 39 38 41 42 41 38 37 33 7 0 0 2 11 16 17 8 7 18 21 14 2 0 0 16 23 7 0 0 0 0 0 0 3 10 16 20 13 3 0 2 14 4 0 0 0 0 0 0 6 5 2 26 24 23 31 26 24 21 17 14 11 6 1 0 0 0 0 0 0 0 0 0 0 0 0 1 0 6 12 15 12 6 1 4 1 0 0 0 0 0 0 0 6 13 0 0  95 94 95 101 110 123 138 150 153 145 130 120 112 113 106 115 120 112 101 92 92 103 109 109 109 104 98 96 103 101 97 98 95 89 112 99 75 82 85 85 89 89 89 93 93 91 92 94 89 98 117 124 114 96 99 117 122 126 115 96 98 102 93 91 88 88 87 91 94 94 99 96 93 124 141 114 96 96 93 94 94 109 99 100 115 107 103 91 90 87 85 88 94 97 99 104 108 107 96 117 129 126 127 123 112 106 103 102 99 96 96 96 98 101 103 104 106 113 118 114 120 123 103 85 75 87 105 117 110 103 106 109 96 99 105 103 112 128 131 123 120 116 112 109 104 88 75 90 106 101 96 89 87 90 91 96 91 88 106 134 127 99 85 87 95 97 100 95 104 91 74 109 99 86 96 124 115 101 104 86 85 97 99 99 99 98 96 94 91 87 84 80 77 77 79 84 86 90 94 92 92 95 98 101 100 104 109 103 103 103 101 100 103 102 104 99 86 85 93 92 91 95 101 129 144 135 110 95 90 90 98 110 118 115 105 99 105 109 116 123 128 129 125 121 123 119 118 118 117 117 114 108 100 98 94 93 97 105 109 105 103 106 107 103 90 82 92 117 123 106 89 82 78 76 81 84 87 90 91 91 86 67 52 67 77 74 61 58 76 105 98 69 70 74 86 96 89 83 85 80 76 75 74 74 72 71 68 66 70 71 63 61 65 69 68 70 76 80 82 80 80 87 87 80 82 80 75 72 71 72 73 73 72 69 69 68 76 92 87 78 80  147 149 150 153 160 169 182 190 193 187 178 171 166 163 154 161 168 168 162 155 151 148 150 152 151 151 150 148 153 149 146 143 144 144 173 174 148 140 139 139 138 139 137 139 140 145 145 143 140 146 166 175 171 154 145 155 168 178 172 159 153 150 141 139 136 135 137 137 140 142 153 156 153 167 183 171 148 145 145 144 144 166 166 160 174 170 157 142 139 138 138 139 142 145 149 151 155 164 165 170 174 173 176 177 172 162 157 153 149 146 147 146 148 155 157 156 154 155 160 157 166 174 167 154 141 147 159 167 164 157 150 159 162 150 144 144 149 155 158 164 166 164 159 155 153 150 142 141 142 141 135 129 131 134 136 139 138 137 152 181 183 168 157 146 140 148 162 154 162 156 143 165 161 144 148 173 170 156 156 148 140 144 148 150 151 152 152 151 151 147 142 140 138 135 136 135 135 137 136 138 138 138 139 140 140 140 141 139 137 134 133 131 130 131 142 147 141 136 135 136 141 156 161 179 187 184 166 150 143 145 149 160 167 166 160 154 153 158 163 168 169 167 166 164 162 159 158 156 155 152 150 146 147 155 152 145 148 157 162 159 160 160 157 151 142 138 143 163 171 157 145 141 140 142 143 149 151 152 153 151 144 132 119 124 133 131 123 116 135 157 145 123 124 131 146 156 147 137 133 130 127 123 122 123 122 123 126 127 127 127 125 124 124 121 120 120 117 116 120 124 128 137 138 138 133 130 126 124 124 125 132 136 138 136 132 129 140 147 142 141 140 
0 14 6 0 6 22 40 58 72 73 49 18 9 30 48 73 78 62 35 9 8 25 35 42 44 44 32 21 18 21 24 26 23 17 12 1 0 0 3 3 2 4 11 16 20 20 20 20 14 17 47 71 50 8 6 34 57 72 55 9 0 0 6 22 25 15 14 20 22 27 21 6 0 23 64 49 21 30 42 40 37 20 0 1 3 0 6 11 14 19 20 24 23 21 22 25 26 11 1 7 22 36 48 63 12 4 13 12 10 8 14 15 13 15 9 0 0 0 19 28 36 68 26 0 0 10 47 52 28 15 19 24 9 0 6 23 26 33 41 49 48 46 44 44 48 46 15 0 0 29 47 41 35 34 33 33 30 35 65 92 60 6 0 15 23 13 0 1 5 1 0 10 47 41 20 45 49 59 22 22 3 0 11 17 15 13 10 2 0 0 0 0 1 5 9 15 22 24 33 35 35 36 35 33 35 32 33 40 40 41 38 38 36 34 34 40 19 0 8 20 24 13 0 24 72 57 9 11 35 40 36 32 44 47 26 9 31 56 64 64 59 52 44 42 41 40 39 40 42 42 40 37 32 7 0 0 6 22 26 26 17 5 5 7 4 1 0 0 4 15 7 0 4 9 19 17 2 0 0 0 6 13 16 8 18 10 0 0 0 0 0 1 1 3 8 2 4 33 23 21 27 25 21 15 11 7 4 3 1 0 0 0 0 0 0 0 0 0 1 2 3 0 5 15 18 15 16 16 13 6 2 0 0 0 0 0 0 0 0 0 0  94 92 90 94 104 118 130 142 149 138 122 116 116 113 122 124 118 106 92 94 103 106 113 115 110 101 95 92 95 94 94 94 90 101 117 78 76 83 84 80 86 89 93 98 95 97 98 96 97 111 122 122 109 96 107 123 129 124 102 78 77 96 101 93 89 91 92 90 93 97 100 92 103 137 129 101 95 94 92 93 101 108 88 106 105 97 93 95 96 98 98 94 95 99 103 110 107 109 106 117 128 125 126 117 110 104 97 96 93 93 93 91 89 94 98 95 94 105 109 115 128 104 91 79 93 117 119 108 104 107 106 109 99 96 104 101 108 121 125 117 114 113 116 117 114 103 84 83 108 114 109 107 102 100 96 96 104 121 132 111 88 82 94 105 99 99 101 103 98 76 92 118 107 96 103 112 123 99 90 71 73 85 86 88 89 85 79 76 73 74 72 74 76 76 78 83 88 93 93 93 94 96 97 99 98 98 102 101 103 101 100 98 98 102 104 95 84 87 94 94 93 102 124 144 137 112 96 94 94 94 99 112 120 112 101 109 126 138 142 142 138 133 128 122 120 120 118 118 120 119 114 105 99 99 93 93 100 106 112 111 102 101 101 100 89 79 80 99 112 103 89 88 87 95 98 85 79 80 87 87 93 96 84 84 78 63 54 61 91 102 74 59 62 65 74 88 97 83 79 81 78 79 75 72 71 72 71 71 74 72 68 66 67 67 68 68 71 79 81 82 83 87 90 87 91 86 84 84 79 80 79 79 76 70 67 61 72 82 78 70 61  145 143 145 148 153 164 176 185 189 182 173 167 167 163 168 174 172 162 153 149 151 151 155 156 153 152 149 145 146 147 146 144 139 154 180 157 142 140 140 139 138 140 141 143 145 144 147 146 145 157 173 175 164 150 150 164 177 178 163 149 142 149 151 145 138 134 137 137 141 145 154 155 156 176 181 158 144 144 145 144 154 172 160 171 165 153 141 139 142 146 147 146 147 149 153 156 156 165 168 168 172 172 177 175 167 157 153 148 145 143 143 142 137 143 153 155 156 152 151 156 174 167 162 147 150 161 166 161 154 148 145 154 163 150 140 140 140 143 151 160 163 163 162 159 159 156 149 143 150 154 150 144 146 148 145 144 149 169 182 174 158 150 147 142 145 155 161 161 160 145 150 169 167 153 156 165 173 160 151 138 131 135 136 136 135 134 134 135 134 133 129 129 127 126 129 130 133 135 135 138 139 138 138 138 138 137 135 136 135 130 127 127 125 128 143 147 140 135 135 136 142 161 176 186 183 169 152 149 149 150 153 163 169 165 157 159 168 174 176 176 174 170 167 164 158 157 158 159 157 154 151 146 147 156 152 144 148 156 163 161 159 157 155 150 143 133 132 149 165 159 144 138 139 152 154 148 144 144 150 152 156 157 148 142 137 125 113 118 146 153 130 117 120 122 131 147 155 143 133 132 132 126 123 127 125 125 125 124 125 126 124 125 126 124 122 121 120 124 128 131 135 142 143 140 139 137 135 135 134 129 131 137 139 137 132 130 138 142 138 134 127 
0 10 8 5 13 30 47 63 73 72 43 16 22 49 69 79 65 43 23 14 24 37 41 48 52 46 33 17 10 10 14 17 16 17 6 0 1 2 4 4 5 3 10 26 34 35 29 23 20 29 59 71 37 3 18 47 67 69 30 0 0 0 0 8 25 20 14 20 22 27 24 6 0 39 61 30 16 32 34 41 44 7 0 0 2 15 24 25 25 28 29 36 35 28 29 34 34 11 0 4 20 31 58 44 1 10 11 15 14 14 14 13 14 17 14 6 0 0 4 39 69 41 0 1 27 53 50 24 11 16 22 26 16 0 4 24 25 24 32 37 32 30 31 32 39 40 19 0 0 21 53 57 56 56 52 51 71 90 74 26 0 10 38 50 46 15 0 4 3 0 8 31 52 47 9 29 21 52 28 3 0 1 5 8 7 7 8 6 2 0 0 0 3 11 11 13 24 32 36 37 36 36 33 33 30 29 31 31 31 34 31 31 32 27 26 37 14 0 17 30 35 17 22 65 59 9 7 29 25 20 15 29 55 48 16 13 56 78 78 73 64 56 44 41 42 41 41 45 45 44 41 40 37 14 0 0 5 26 29 27 23 9 1 0 0 0 0 0 0 13 15 2 4 25 53 46 7 0 0 0 0 0 0 3 10 14 18 13 4 1 0 0 0 2 5 9 0 14 28 12 19 20 21 17 9 4 5 7 6 3 0 0 0 0 0 0 0 0 1 1 1 0 3 11 13 13 20 21 15 9 4 0 0 0 0 0 0 0 0 0 0  91 91 90 96 107 120 131 138 143 134 121 120 123 126 129 119 106 96 94 102 107 109 115 119 113 105 97 90 91 94 92 92 93 116 98 75 78 80 86 83 81 88 100 105 104 104 102 101 106 121 126 119 105 100 117 126 127 117 102 82 72 79 94 97 92 89 95 95 98 104 100 91 117 139 114 93 92 90 96 108 109 95 97 103 96 94 95 101 103 103 110 107 104 108 113 116 112 103 99 114 119 124 125 114 105 99 97 96 95 92 89 88 89 94 98 94 95 101 114 128 111 97 89 105 118 111 102 101 105 107 104 104 99 93 100 99 101 109 114 111 105 105 107 109 108 102 87 79 98 114 113 114 115 113 111 122 130 120 99 82 91 103 107 109 102 97 102 101 82 89 106 112 106 87 92 91 123 107 80 73 75 78 81 83 83 84 84 77 74 72 72 74 76 76 80 85 90 94 92 93 94 97 96 95 95 96 98 97 95 94 97 95 91 96 102 89 79 87 93 94 101 126 141 135 113 95 89 85 83 85 98 118 121 107 105 127 141 146 146 139 132 128 126 119 119 121 119 120 122 120 112 103 99 100 94 93 102 108 112 113 103 98 95 93 88 81 74 83 105 108 93 85 92 118 116 95 85 82 82 78 81 87 90 91 90 87 76 78 107 91 56 54 57 60 67 75 89 93 79 76 75 80 75 71 71 70 71 75 76 72 71 68 67 69 70 68 74 80 83 84 86 87 89 87 89 90 91 90 85 84 77 75 72 70 67 65 67 70 72 58 55  146 143 145 149 155 164 175 184 186 179 171 170 170 174 181 175 164 154 150 151 152 155 157 159 156 152 148 143 141 142 141 141 142 172 171 144 139 138 138 141 138 140 144 147 150 151 150 149 152 165 176 173 160 150 156 171 180 174 159 144 137 141 151 152 142 135 137 138 141 150 156 154 167 181 171 147 141 141 145 153 166 164 165 161 147 143 145 147 149 150 152 154 154 154 161 166 164 164 163 169 171 175 178 171 159 155 154 150 146 142 140 137 136 137 146 156 158 153 159 175 168 165 153 154 164 165 158 150 145 144 142 150 164 149 137 138 136 141 149 153 156 155 155 157 157 153 148 147 150 156 158 158 158 156 158 170 180 175 164 153 152 153 153 153 154 159 162 163 151 151 158 167 167 152 148 151 170 165 143 125 119 121 119 118 122 123 126 130 130 130 128 128 126 127 128 131 135 136 138 139 140 140 137 136 137 135 133 132 129 127 125 123 123 132 146 149 139 136 138 140 152 177 187 184 173 155 144 143 141 142 154 170 171 160 155 168 178 180 179 176 171 167 164 161 160 158 158 159 158 154 149 144 145 155 153 144 148 156 161 161 158 155 154 152 146 137 130 138 158 162 147 135 147 165 164 153 142 139 142 141 146 152 154 151 153 149 135 136 155 143 115 112 115 118 122 133 152 154 139 132 131 130 128 125 124 123 123 125 127 126 124 125 127 128 128 129 128 130 133 135 139 141 140 140 140 142 143 140 134 129 126 126 130 133 133 133 135 136 135 123 119 
0 7 7 6 17 34 52 68 76 69 44 27 40 59 74 64 48 32 22 29 36 37 40 49 53 48 38 20 3 6 8 7 8 16 1 0 4 8 10 8 4 2 9 26 36 44 40 31 24 41 69 62 21 4 30 58 69 51 14 8 12 0 0 0 7 17 9 15 23 23 19 2 11 51 45 16 16 25 38 60 25 0 1 10 25 32 31 31 31 33 36 39 39 38 38 45 36 8 0 2 21 41 64 17 4 15 19 26 23 20 19 15 12 14 16 18 4 0 0 60 66 0 5 42 62 40 19 10 17 23 24 26 13 0 3 22 25 25 30 27 22 16 16 19 23 25 16 0 0 1 19 38 39 36 51 80 87 45 3 0 19 37 37 34 25 5 0 1 0 0 14 15 54 52 0 2 7 40 45 3 5 12 15 18 17 16 16 14 9 1 1 1 4 10 13 15 22 31 36 37 38 35 32 31 28 26 25 21 22 28 29 30 32 31 35 34 7 1 16 25 37 45 66 66 17 0 7 14 8 4 7 37 61 40 12 34 71 77 75 71 59 50 40 38 40 41 43 45 46 49 43 38 35 20 0 0 4 27 29 27 24 14 2 0 0 0 0 0 0 6 18 5 4 39 54 23 0 4 8 5 0 0 1 0 0 0 5 12 17 23 15 6 0 0 2 8 5 0 26 29 11 19 20 19 13 6 7 8 12 15 7 0 0 0 0 0 0 0 0 0 0 0 2 6 11 18 25 20 15 9 1 0 0 0 0 0 0 0 0 1 1  89 91 90 96 107 121 133 140 138 130 122 124 127 128 119 109 98 97 106 114 111 111 117 121 117 110 99 90 90 93 90 85 109 112 80 83 85 85 86 87 84 89 99 106 114 114 109 108 115 126 126 116 106 109 126 128 121 114 110 107 85 71 80 94 96 88 95 96 102 106 98 100 130 130 98 87 88 95 114 117 100 91 97 93 93 96 100 105 106 106 114 115 114 114 121 123 114 97 96 115 120 129 121 107 98 97 101 101 97 92 90 90 93 93 101 101 96 98 123 120 97 97 110 117 109 96 94 100 104 103 102 100 100 92 98 98 102 108 110 108 103 101 105 105 103 98 92 83 81 92 100 102 103 112 126 126 105 84 82 95 99 97 95 99 102 98 107 89 78 91 90 117 108 81 77 85 114 117 86 84 87 87 88 87 89 90 88 80 76 75 72 73 77 76 79 84 89 94 96 95 93 96 94 93 94 94 92 89 89 92 93 94 93 97 101 87 78 82 87 102 127 144 139 117 99 84 78 77 77 84 108 124 119 102 112 136 141 143 143 134 126 124 122 120 119 122 123 124 121 118 110 104 101 98 94 94 105 113 117 111 102 99 97 90 87 82 75 79 100 110 98 88 107 120 99 87 93 93 89 78 70 81 81 80 85 91 92 92 102 92 66 56 54 58 64 69 74 94 95 75 74 77 75 75 68 68 73 80 81 76 71 71 67 72 72 73 75 74 77 82 82 81 85 87 87 91 92 89 86 81 77 71 62 64 69 70 66 67 74 58 52  146 143 145 147 150 160 173 181 185 179 172 174 177 180 176 166 157 153 154 156 157 157 157 159 159 156 150 144 142 141 140 136 160 178 153 140 140 139 140 140 139 140 144 150 155 159 156 152 157 170 178 171 158 154 166 177 178 169 159 153 145 140 145 150 146 138 138 141 144 155 156 160 177 179 158 140 136 144 160 161 161 157 155 144 143 146 150 151 152 155 156 156 157 159 166 168 166 165 164 170 170 178 176 163 151 150 151 151 148 145 139 137 140 139 140 150 157 156 174 175 164 157 157 164 161 154 145 142 143 143 140 148 165 150 134 135 135 144 149 152 154 150 148 149 153 149 142 146 146 143 144 144 144 159 176 178 166 156 149 148 149 150 151 154 159 159 166 155 145 149 146 167 166 142 133 140 163 172 145 123 120 120 118 118 121 123 128 128 129 131 132 130 129 130 129 129 134 139 138 139 139 140 139 136 134 132 130 127 125 124 124 127 132 141 151 147 137 133 140 152 173 186 184 175 163 145 135 135 133 137 158 172 169 156 159 172 178 179 177 173 169 165 162 161 160 160 160 160 159 152 148 143 145 154 154 147 147 155 159 161 156 155 155 152 149 144 136 133 152 165 153 139 157 165 156 147 142 143 137 133 135 143 145 146 152 154 156 155 156 146 124 112 109 113 118 122 138 154 151 135 131 132 130 125 122 122 123 126 129 127 126 126 124 129 132 130 129 130 130 133 135 136 137 138 140 144 143 138 131 123 117 112 110 118 135 137 133 133 137 121 114 
0 10 8 6 16 37 57 73 73 65 47 35 43 55 56 47 36 24 24 34 39 38 41 49 53 54 45 23 6 10 16 9 14 9 0 2 8 13 15 9 8 6 12 26 36 45 48 46 34 52 75 51 12 14 47 69 65 30 9 21 32 16 0 0 0 2 8 18 24 20 12 6 33 52 26 5 17 45 55 34 1 2 20 35 34 35 33 34 34 34 36 41 44 43 43 44 30 4 0 11 39 65 41 0 17 19 24 27 29 29 24 21 20 17 11 22 37 6 0 15 10 9 49 53 30 11 10 18 22 25 27 25 12 0 1 14 18 23 29 24 24 19 18 23 22 15 14 5 0 1 0 6 20 58 86 60 12 0 3 15 20 16 18 14 2 0 5 1 0 1 2 0 58 65 0 9 28 37 51 18 10 17 20 21 21 20 21 17 11 9 5 6 10 12 13 15 21 29 36 38 38 34 33 30 25 24 25 28 30 37 36 41 44 42 46 31 2 0 17 40 59 73 69 20 9 18 2 14 9 8 15 47 54 29 11 44 74 74 74 66 54 45 40 41 40 43 47 48 47 45 40 36 33 21 0 0 2 26 31 27 24 17 9 4 0 0 0 0 0 1 20 12 15 46 31 3 0 5 11 8 6 14 9 0 1 0 0 0 1 8 18 22 22 23 6 1 2 1 2 30 20 13 19 18 15 9 7 7 14 18 15 3 0 0 0 0 0 0 0 0 0 0 2 4 1 14 24 17 12 5 0 0 0 0 0 0 0 0 0 1 0  91 91 91 97 108 119 132 134 132 128 123 123 122 118 108 103 100 107 119 121 119 117 120 120 120 115 103 93 97 98 94 99 120 94 80 86 89 87 82 84 85 90 99 107 117 122 120 111 119 126 124 113 107 117 125 127 118 113 115 116 104 87 77 81 92 92 95 99 103 105 101 117 135 116 90 88 103 113 115 109 94 94 91 94 95 98 104 106 109 111 113 116 120 124 127 122 109 96 104 121 130 130 113 98 95 99 102 105 100 97 95 96 94 91 102 119 99 88 98 99 102 111 113 98 92 92 96 101 101 102 101 97 102 90 91 94 101 110 108 106 102 101 107 108 105 103 96 90 79 80 89 99 121 130 111 88 76 81 87 85 83 87 88 92 99 111 98 78 89 88 84 120 115 83 82 95 106 122 102 88 88 89 89 93 94 94 91 87 82 80 78 77 81 81 80 82 86 92 99 96 94 95 94 91 93 97 95 97 98 98 97 103 104 106 99 80 74 89 112 133 146 141 113 107 99 85 82 80 78 92 114 123 114 101 117 135 138 142 139 130 125 122 121 122 121 123 125 127 118 112 107 104 103 101 96 93 106 115 116 111 104 104 101 93 87 80 76 80 94 111 102 99 118 109 91 85 90 93 94 89 85 77 66 59 66 79 84 87 91 95 97 89 82 67 64 66 67 77 97 85 73 77 75 75 72 72 75 79 84 86 75 75 71 69 71 72 66 65 67 71 72 75 81 80 85 89 89 86 81 75 72 69 60 60 74 78 70 66 72 67 55  144 141 141 141 145 158 171 180 183 177 173 175 175 171 166 158 154 155 159 159 159 159 158 159 160 158 152 146 145 145 142 147 177 165 141 137 137 140 140 138 139 140 145 150 156 163 164 157 163 176 177 168 158 159 174 180 172 163 158 157 154 146 141 145 148 144 141 144 150 159 158 169 181 169 143 135 148 166 159 151 153 148 142 144 147 149 152 152 155 158 158 161 162 165 169 169 166 162 164 169 173 178 170 156 150 148 148 149 149 147 142 141 141 136 139 159 161 154 159 165 162 159 163 157 147 143 142 140 142 141 139 144 166 150 131 131 138 147 150 151 149 146 147 146 147 146 141 142 145 137 130 136 164 181 172 158 146 140 140 138 136 139 143 153 160 165 161 148 142 137 136 167 167 138 132 147 159 174 155 127 121 122 119 119 124 127 129 130 131 132 131 131 128 127 128 130 135 139 139 140 139 140 138 136 134 132 136 137 137 139 140 142 145 151 155 144 135 143 163 178 185 184 170 166 162 143 134 134 131 143 162 171 165 154 160 170 175 176 173 171 166 162 163 162 161 162 163 161 158 151 145 144 146 154 156 149 148 155 158 158 155 156 156 153 149 144 139 135 149 165 157 151 164 160 148 140 140 141 140 139 141 136 130 128 132 143 150 152 154 157 158 148 138 122 115 115 123 141 155 144 133 133 131 129 128 125 127 128 131 132 134 132 127 128 131 130 126 124 123 127 130 130 131 131 136 140 136 130 122 114 112 107 100 118 141 139 136 133 137 128 113 
0 15 13 8 20 44 63 75 75 66 47 35 42 47 42 38 21 21 33 37 34 34 39 46 48 48 47 27 13 17 15 16 14 0 0 1 7 9 13 13 10 8 18 27 34 43 49 53 48 61 70 31 6 30 59 72 51 14 18 36 37 31 12 0 0 0 3 18 23 19 13 25 51 41 10 20 54 48 9 20 13 19 36 39 37 36 35 35 39 39 40 44 44 42 43 41 26 0 4 34 64 63 12 18 31 22 23 31 31 31 31 31 26 21 40 69 50 2 0 0 3 47 49 19 3 11 22 22 22 23 24 19 10 0 0 7 18 24 25 24 20 21 24 23 22 17 15 14 1 0 0 34 84 79 31 0 2 11 16 18 12 8 11 6 0 9 11 0 3 10 9 1 49 68 0 24 38 26 46 35 6 20 24 18 19 22 21 16 9 13 11 10 11 15 15 16 24 33 42 51 50 45 42 37 33 38 42 41 39 37 35 33 27 26 40 28 8 27 44 55 72 68 23 0 17 27 4 22 14 12 25 46 45 20 16 50 69 73 70 60 53 45 40 42 47 49 50 51 48 43 40 34 35 26 2 0 0 24 32 26 24 20 16 14 5 0 0 0 0 0 18 19 31 38 6 0 2 8 8 8 22 20 2 0 0 0 0 0 0 0 0 0 6 28 33 24 11 3 0 9 36 17 12 16 10 5 5 3 9 14 13 7 0 0 0 0 0 0 0 0 0 0 1 2 2 15 21 14 8 1 0 0 0 0 0 0 0 0 0 0 0  92 89 91 98 109 119 131 131 130 126 120 119 114 109 107 102 109 122 127 127 126 120 117 115 116 116 106 99 105 106 102 118 102 84 82 83 86 90 87 82 83 88 98 107 117 121 124 120 122 126 119 112 110 121 126 121 112 111 117 116 111 103 85 75 81 91 99 103 110 104 110 133 126 99 97 115 116 102 122 104 90 94 96 98 100 98 103 107 110 114 116 119 121 126 126 122 107 100 114 132 136 124 111 99 98 99 100 101 98 100 99 97 97 113 126 115 99 90 89 95 113 110 92 86 90 92 96 98 98 99 98 97 101 85 86 94 105 109 106 99 98 101 102 104 105 104 97 94 84 83 113 132 126 100 83 83 89 88 88 85 84 90 92 96 109 108 82 88 96 91 88 117 113 84 95 101 93 119 114 89 91 92 91 94 94 95 92 89 87 85 81 80 81 79 80 83 92 108 115 112 108 108 105 103 111 115 111 106 106 103 100 98 96 103 97 92 107 118 131 144 139 121 86 98 105 87 85 83 84 102 115 120 108 102 119 134 136 136 133 129 125 123 125 125 125 127 126 126 119 111 106 103 103 103 98 94 108 116 114 111 106 105 103 98 90 78 75 75 89 110 108 115 114 94 82 81 88 93 89 92 87 68 57 46 45 51 78 88 83 88 90 92 101 98 91 78 68 66 79 96 83 75 79 81 78 76 81 80 85 87 82 78 75 70 70 70 64 59 58 62 67 71 73 73 82 86 82 80 74 73 72 69 65 72 79 78 71 72 71 72 59  139 136 135 138 147 161 171 177 181 177 172 171 169 167 160 153 153 158 160 160 161 163 160 158 159 159 153 147 147 146 145 168 171 145 133 135 135 136 139 139 138 142 147 150 155 161 165 162 170 179 173 162 156 165 177 176 166 159 159 157 156 153 144 142 146 147 144 146 155 158 163 178 177 154 143 156 167 169 164 146 143 142 145 146 147 150 153 155 157 159 161 166 169 170 173 172 166 162 166 173 176 172 162 151 148 145 143 144 146 146 148 143 142 156 171 172 164 155 155 160 164 163 154 144 139 140 141 141 140 141 139 141 164 149 130 132 142 149 150 146 141 141 144 146 146 145 141 140 143 141 156 179 178 164 152 138 129 128 132 132 131 134 141 153 168 167 150 144 138 135 136 167 169 141 141 154 152 167 165 135 123 123 121 122 126 129 130 132 132 133 132 130 127 127 127 130 134 140 147 152 151 149 147 146 146 146 148 152 153 153 151 149 147 154 155 153 161 172 179 186 182 173 155 161 166 144 135 134 133 150 165 170 159 153 159 168 173 173 172 169 163 162 163 163 164 164 163 160 156 150 145 142 143 154 154 148 150 156 156 152 151 154 154 151 146 140 135 135 147 162 163 164 165 151 139 135 138 139 139 142 140 129 121 115 110 115 141 148 147 152 155 158 162 157 144 131 121 125 145 154 142 135 132 131 133 132 133 135 138 138 139 136 131 129 129 130 126 122 119 121 124 123 119 121 132 136 130 123 116 109 108 106 111 136 141 138 135 136 135 130 119 
0 19 15 13 27 51 70 79 78 64 49 44 42 45 38 22 13 27 36 34 32 30 35 40 39 41 42 28 15 19 22 24 2 0 2 1 1 5 10 15 12 8 15 24 31 38 44 50 55 70 60 15 9 46 65 60 23 4 25 33 35 35 25 5 0 0 0 5 15 15 20 41 50 28 32 53 34 3 0 9 16 20 26 32 33 33 35 35 38 40 44 46 43 39 41 42 20 0 22 66 78 33 22 47 33 28 25 32 32 34 34 28 41 67 65 28 0 25 8 0 4 30 15 4 11 22 25 26 23 24 22 19 9 0 0 8 23 24 23 23 14 19 23 19 16 17 20 18 6 15 58 84 49 6 0 12 26 24 19 21 18 15 10 0 5 12 1 2 16 17 12 8 50 60 3 35 32 13 32 50 11 17 24 22 22 22 20 14 11 12 13 11 12 16 12 16 27 34 45 55 57 51 45 41 38 39 42 37 30 25 17 11 6 12 38 45 39 33 41 65 63 19 2 0 14 29 3 21 16 10 31 44 37 15 19 51 63 69 66 61 54 47 43 45 52 54 54 55 50 45 42 34 33 30 6 0 0 21 31 26 24 21 18 19 17 4 0 0 0 0 9 23 42 23 0 2 10 13 7 16 25 5 0 0 0 0 0 10 8 0 1 0 0 0 3 16 28 24 18 6 21 31 6 10 6 1 0 1 5 10 11 11 6 0 0 0 0 0 0 0 0 0 1 3 9 15 13 11 4 0 0 0 0 0 0 0 0 0 0 0 0  95 89 90 98 110 125 132 131 128 123 118 117 111 108 104 105 117 128 132 131 130 124 118 112 114 114 105 105 110 108 121 117 89 92 86 82 85 87 89 86 84 90 98 105 112 117 121 122 127 127 115 110 116 127 125 116 104 108 113 112 110 106 93 79 76 83 90 105 108 107 123 132 111 104 114 110 99 93 93 88 92 95 96 97 98 99 103 107 109 114 118 120 121 125 126 121 105 109 133 141 129 124 116 100 94 97 100 100 102 102 102 110 124 118 101 92 111 99 89 95 103 93 88 91 93 94 96 97 96 97 97 93 100 87 86 98 106 105 100 91 91 96 98 101 103 104 101 98 105 124 126 104 84 81 88 96 93 89 91 87 84 90 95 112 112 85 87 101 95 90 90 118 107 84 104 101 87 106 118 94 91 94 95 95 97 96 92 91 87 86 81 80 82 77 81 87 103 124 134 131 125 122 114 114 124 124 120 113 110 101 94 87 86 106 112 113 116 127 139 132 114 112 84 93 108 89 89 86 91 107 115 117 105 103 121 132 135 133 132 129 126 124 126 130 131 131 130 124 120 112 102 102 105 102 94 93 108 117 113 109 103 104 106 101 94 83 72 70 83 103 114 123 106 85 79 82 90 91 86 86 74 61 57 53 45 49 99 110 66 59 73 80 88 91 99 100 92 83 78 91 94 78 81 81 77 76 80 84 82 86 87 85 78 70 67 66 65 64 60 59 61 67 71 73 80 82 81 80 72 72 77 75 76 77 74 63 61 76 80 73 63  135 130 127 136 148 164 175 179 179 175 169 169 168 162 153 150 154 160 160 160 160 161 160 156 155 158 155 150 150 148 162 177 158 142 137 134 134 135 138 138 139 142 146 149 155 159 162 166 175 177 169 159 159 170 176 169 160 154 153 153 152 155 150 142 141 144 146 151 157 162 174 181 169 159 164 169 165 155 146 140 144 145 146 146 146 148 150 153 157 159 162 167 171 172 175 175 168 165 173 178 174 169 161 150 146 143 140 141 145 144 145 152 168 174 169 161 169 160 153 156 159 151 139 135 137 137 138 141 140 139 136 139 161 149 131 139 147 148 145 136 132 138 142 144 145 144 139 138 153 175 181 168 153 140 131 128 127 127 131 133 130 133 146 165 171 155 143 141 138 135 138 168 164 144 153 154 136 152 172 148 126 123 124 123 126 129 132 134 134 134 134 130 128 129 128 129 134 143 154 161 160 158 156 155 154 154 153 153 152 151 148 143 144 158 166 168 167 176 183 180 165 162 150 156 166 147 135 136 140 156 166 167 157 154 161 168 173 172 171 167 164 165 166 166 167 166 164 159 154 149 144 142 145 154 155 151 151 156 153 149 151 154 153 149 147 140 132 133 145 160 167 169 158 142 133 133 137 137 141 141 131 123 120 118 114 118 149 148 123 120 134 146 151 154 159 159 151 141 137 151 153 137 132 132 134 132 134 139 141 142 140 137 134 129 126 126 125 123 121 118 118 118 117 124 130 130 127 121 114 112 109 113 133 140 139 129 118 137 138 132 126 
0 17 15 20 38 65 80 83 77 67 57 51 45 43 22 14 23 33 34 34 32 29 31 37 37 38 43 31 19 23 37 14 0 8 13 8 8 7 7 9 11 8 12 20 31 35 41 46 61 70 44 11 27 61 68 39 4 9 26 30 31 32 28 16 2 0 0 0 2 16 37 56 56 45 36 8 0 0 1 2 8 13 16 19 22 24 29 31 36 41 43 41 39 37 37 33 8 1 50 89 60 20 62 64 44 32 26 29 30 27 40 62 67 36 3 0 40 57 1 0 0 0 3 16 22 24 25 26 25 23 19 17 8 0 0 11 21 21 24 21 12 16 22 20 16 15 13 25 60 85 61 13 0 3 18 32 28 23 20 17 15 10 4 12 16 0 14 36 22 20 17 15 54 59 10 40 22 12 22 54 26 11 25 24 25 23 21 17 15 16 13 12 8 13 16 20 27 34 41 47 50 46 39 36 31 33 32 24 16 13 7 2 7 31 45 27 12 35 63 55 11 4 17 0 10 30 2 19 16 16 34 42 28 10 23 54 63 64 65 62 51 50 50 53 56 58 58 55 51 43 40 34 35 31 7 0 0 19 34 28 26 24 24 24 22 15 5 0 0 0 4 16 28 11 0 8 14 10 17 24 8 0 0 0 0 0 0 19 9 0 0 0 0 1 0 0 0 5 18 28 22 33 21 0 0 0 1 1 1 7 12 18 18 6 0 0 0 0 0 0 0 0 1 8 17 17 11 9 6 3 1 0 0 0 0 0 0 0 0 1 0  90 88 92 107 123 136 137 132 129 124 116 113 111 101 100 113 125 133 135 133 132 126 117 111 111 112 109 109 111 122 127 99 99 102 92 87 85 81 83 89 86 86 94 104 109 116 119 123 126 122 113 113 122 127 119 108 101 109 109 108 109 105 99 90 80 76 79 96 109 119 134 128 117 114 105 93 87 84 85 89 92 95 95 96 98 102 102 104 110 113 116 118 119 121 123 113 103 127 150 137 123 131 120 107 94 93 98 99 99 108 123 122 100 85 91 110 113 97 88 87 90 90 94 94 95 96 94 98 96 94 93 92 102 88 92 103 101 101 93 86 87 91 95 96 98 97 107 122 128 113 85 75 83 94 97 96 92 91 89 85 83 89 114 120 89 108 129 107 100 97 94 118 111 91 107 94 87 96 122 104 91 96 96 95 98 96 96 93 88 88 85 80 81 83 83 85 100 119 127 125 120 114 114 111 113 114 111 109 104 93 87 91 107 118 108 108 123 137 129 106 94 97 87 90 107 87 92 92 98 111 118 112 102 106 121 129 132 133 132 126 125 127 129 133 135 131 125 122 116 111 101 100 102 103 96 94 107 114 109 107 104 106 109 106 101 95 86 80 87 102 113 118 106 83 80 84 87 87 87 76 68 70 67 63 49 66 111 102 54 43 50 58 67 76 81 86 90 91 93 92 95 88 75 74 71 75 79 85 85 86 87 86 81 74 66 61 58 62 64 56 60 60 66 76 77 75 76 77 74 73 73 72 78 80 67 59 57 70 87 77 69  132 127 130 141 158 175 182 181 177 173 170 167 165 153 148 149 156 160 163 162 160 159 160 158 156 157 156 152 152 160 178 163 148 144 141 138 135 133 134 136 139 138 143 148 153 156 161 169 178 176 165 159 167 174 172 164 154 150 149 150 150 150 150 147 143 143 144 152 160 169 180 179 172 172 170 160 144 135 133 136 141 144 145 148 149 148 150 152 155 160 162 166 169 172 175 171 166 173 179 171 168 172 164 154 145 140 141 143 142 150 167 172 166 157 150 158 169 163 155 153 152 137 131 134 137 135 135 138 135 134 133 135 161 150 135 145 149 146 138 128 126 133 139 142 142 142 147 167 176 174 159 146 133 122 125 127 128 128 129 133 129 134 162 172 158 147 147 149 149 145 146 170 166 149 155 145 129 139 171 159 133 126 126 126 129 132 131 133 135 136 133 130 130 128 127 130 134 143 152 158 156 156 153 151 151 149 145 143 141 141 139 146 161 169 165 162 173 183 179 162 148 144 148 154 165 148 135 139 148 160 168 166 154 154 162 167 169 170 170 167 167 167 168 169 169 168 164 158 153 147 142 142 144 153 157 152 150 155 151 153 155 155 154 152 153 150 144 140 146 159 167 166 152 134 128 129 132 137 140 135 128 125 123 121 117 135 158 142 108 99 103 111 124 138 148 151 154 154 153 151 153 148 134 129 130 134 138 138 138 139 138 136 134 128 124 120 121 123 121 118 118 118 120 128 131 129 126 119 116 113 112 131 142 140 132 116 110 131 144 137 131 
0 14 20 36 63 83 87 83 77 69 57 50 42 27 13 27 36 34 34 35 32 27 26 32 38 38 41 33 21 37 25 0 12 18 16 14 10 9 5 4 6 2 5 12 28 37 42 52 67 66 30 17 49 67 58 19 4 19 25 26 28 28 27 24 14 0 0 1 0 18 59 78 57 18 0 0 2 1 0 1 3 7 13 15 16 17 19 28 30 33 37 36 36 37 34 23 0 16 82 91 36 58 88 75 60 36 30 23 26 57 72 44 9 0 15 50 75 14 0 1 0 0 10 23 25 26 28 27 26 22 19 18 7 0 0 15 22 17 18 14 13 16 23 20 13 19 49 80 64 22 0 0 2 18 27 29 25 25 22 18 16 8 13 24 4 0 30 28 1 3 4 4 48 62 3 18 9 8 10 41 42 9 24 27 24 25 23 18 18 15 15 13 8 14 18 22 31 35 40 46 44 38 30 26 23 22 19 16 12 8 10 29 43 30 4 6 47 67 53 9 7 26 28 3 5 27 2 16 16 28 39 35 19 9 26 52 59 62 64 61 56 54 56 56 59 61 59 54 50 47 39 32 32 26 4 0 0 6 15 12 17 18 16 16 13 7 1 0 0 0 8 17 10 0 1 11 8 14 24 8 0 1 1 0 0 0 5 15 0 0 0 0 0 0 0 0 0 0 0 2 14 21 33 15 2 0 0 0 1 9 17 18 19 11 2 0 0 0 0 0 0 0 1 10 17 15 8 7 5 4 1 1 2 0 0 0 0 0 0 11 3  88 94 105 125 138 138 137 133 127 122 115 112 105 97 108 122 130 137 140 137 131 127 121 115 112 112 113 111 120 124 103 106 109 105 98 94 89 82 81 84 82 81 90 98 108 117 123 123 126 121 112 117 123 122 112 101 103 107 106 106 106 104 100 95 90 79 74 85 107 131 139 122 105 104 97 83 82 85 86 87 89 92 95 97 99 101 102 103 107 111 114 116 118 119 119 105 108 149 161 132 139 144 131 116 98 92 92 100 120 126 107 92 92 99 111 120 96 98 92 84 91 94 97 96 93 95 94 97 97 92 92 91 101 90 98 103 100 96 89 88 86 90 92 92 102 118 127 116 93 78 77 83 93 92 91 92 93 91 89 89 86 104 121 95 83 117 120 96 91 90 94 116 109 85 89 80 83 83 111 117 93 94 95 95 99 99 98 93 88 88 86 80 81 85 83 87 97 103 109 108 107 102 100 97 96 96 95 94 90 92 106 117 111 103 107 129 138 128 105 96 93 89 87 90 107 89 90 96 106 115 116 107 101 106 119 128 131 133 131 128 129 132 134 137 139 131 127 122 115 109 100 95 95 97 97 93 96 99 98 103 105 107 108 106 103 93 87 83 91 109 112 110 93 78 79 80 83 86 77 74 77 80 76 68 57 87 112 76 49 47 49 53 55 59 64 77 82 84 85 88 92 95 86 72 69 74 75 79 81 84 85 83 80 75 65 59 55 56 59 59 61 60 68 75 74 72 73 75 77 71 71 76 78 73 64 65 63 64 88 84 75  128 127 140 160 178 185 183 181 176 172 168 165 159 148 151 151 155 161 164 162 162 160 159 159 156 155 156 152 157 170 161 151 150 146 142 139 139 136 135 132 133 134 137 145 151 155 164 174 179 173 162 163 172 174 167 158 150 147 148 150 150 148 150 149 147 142 141 148 161 177 182 176 170 170 158 141 134 135 136 137 138 141 144 147 149 151 153 155 156 160 163 165 168 170 171 168 167 180 178 162 173 177 167 155 144 140 138 144 163 175 169 161 155 147 154 170 164 164 155 152 154 139 133 135 135 133 135 136 135 133 132 133 160 153 141 148 148 140 128 125 125 129 135 136 143 162 176 173 160 151 148 136 125 119 124 128 127 128 129 129 127 153 172 159 143 139 142 144 148 150 151 169 165 146 148 144 137 136 161 169 144 132 130 130 131 133 133 136 137 136 134 132 130 128 131 133 134 141 147 148 147 146 142 142 141 138 135 131 129 139 156 169 167 158 161 174 182 178 163 147 140 136 143 153 163 148 136 142 155 164 169 162 153 154 160 163 164 167 167 167 167 169 170 173 172 167 164 159 154 149 145 145 147 153 153 152 152 152 151 152 153 155 154 153 153 152 149 145 150 160 166 159 144 132 126 128 133 137 133 130 127 129 127 125 125 150 159 128 102 101 101 102 105 113 122 132 143 146 149 152 153 157 148 134 132 133 135 135 135 135 134 131 128 124 120 117 118 123 124 122 123 124 127 130 130 127 122 118 116 112 125 143 141 135 121 113 112 123 146 140 135 
0 15 38 66 83 83 79 82 77 63 51 43 25 6 19 37 38 36 37 37 33 28 27 29 37 40 38 31 30 41 0 14 26 21 17 17 12 11 8 7 3 0 0 6 26 39 49 60 70 51 15 30 65 64 34 4 16 23 20 22 25 24 17 15 18 10 0 1 0 12 59 46 4 0 4 13 7 3 1 2 4 7 14 15 13 15 21 25 23 26 27 30 36 36 35 17 0 39 110 87 61 98 95 81 64 38 24 44 72 63 18 0 9 28 50 78 23 0 14 8 0 0 3 23 29 26 28 30 30 25 20 19 8 0 0 17 17 15 10 9 11 14 13 16 38 81 79 29 0 0 1 1 0 14 25 27 26 27 22 17 10 11 20 2 0 7 14 9 2 0 1 0 45 65 0 0 0 0 0 10 50 16 3 15 19 22 21 15 22 21 18 15 14 16 18 24 33 38 39 41 39 34 27 22 19 16 11 9 13 29 36 27 7 0 8 44 67 50 9 14 36 32 30 12 5 27 1 12 19 39 41 30 10 8 29 51 57 62 63 61 60 59 59 61 64 61 55 49 41 35 30 19 10 6 0 0 0 0 0 0 0 4 7 7 10 5 0 0 0 0 19 19 2 0 0 5 13 24 12 0 0 4 5 4 1 0 13 8 0 0 0 0 0 0 0 2 2 1 0 0 0 0 3 10 21 12 4 0 0 13 20 15 15 15 9 2 0 0 0 0 0 0 0 2 9 5 3 3 4 2 0 0 0 0 0 0 0 0 0 23 20  93 109 127 137 136 133 133 128 123 117 113 106 99 104 115 125 130 138 141 137 134 128 121 115 112 112 114 119 139 108 109 120 112 108 104 97 92 88 83 78 77 81 86 96 109 120 125 124 126 115 113 124 123 116 106 103 105 103 103 107 104 98 98 95 95 91 78 76 99 121 116 98 97 98 93 87 87 88 89 91 93 94 95 97 100 105 103 103 107 110 113 117 119 119 119 105 122 172 164 148 162 152 137 118 97 91 109 126 118 99 88 96 102 112 122 97 95 96 95 90 88 94 96 98 96 93 92 95 92 92 91 91 101 92 99 99 96 85 84 86 82 81 93 111 133 126 98 81 81 89 91 85 89 89 92 92 92 89 87 82 94 114 94 82 93 97 93 90 87 87 91 116 112 77 81 81 76 68 87 120 94 75 82 87 94 94 93 92 90 89 87 83 83 85 85 90 96 97 98 96 97 95 90 90 90 86 84 91 104 113 111 102 96 107 124 134 131 109 99 97 92 88 85 92 106 90 88 101 115 118 113 104 102 107 119 124 128 129 129 131 131 134 141 142 135 130 123 112 105 101 97 90 89 92 95 90 85 83 84 96 103 104 103 102 101 88 77 74 87 118 114 102 82 71 76 78 81 77 71 78 83 84 82 80 76 104 109 62 48 46 52 52 55 62 61 70 71 71 75 76 82 87 90 91 86 80 75 71 76 80 76 74 73 71 67 58 54 57 59 60 64 65 69 76 76 69 65 67 72 69 75 81 76 63 67 71 69 62 85 91 76  127 144 167 180 182 180 181 179 174 169 165 158 152 148 151 152 156 161 163 163 162 162 161 159 157 155 156 153 155 155 151 153 153 151 145 141 140 136 135 132 130 132 135 142 150 158 166 174 178 168 162 167 173 169 161 154 148 145 145 147 147 148 147 147 147 148 141 143 153 170 173 168 163 154 146 141 139 139 140 142 144 144 147 149 152 155 157 159 158 160 163 167 169 169 171 167 172 187 172 171 186 180 170 156 144 141 155 172 172 165 156 152 145 151 171 162 163 156 145 148 153 151 138 134 135 134 135 136 136 134 130 131 160 156 145 147 144 134 125 123 124 124 133 152 177 178 163 149 139 138 147 139 127 122 125 129 129 129 128 126 137 165 157 142 133 133 133 135 135 138 142 166 165 144 142 141 141 139 151 173 156 137 136 136 138 138 138 139 140 138 136 132 128 127 130 134 135 139 141 140 138 137 135 132 132 130 126 131 149 165 166 159 154 160 174 180 177 161 147 142 137 133 136 151 164 149 138 146 162 168 166 158 153 153 158 160 162 163 166 168 169 172 174 175 171 166 161 155 151 150 150 149 149 152 156 154 149 146 147 147 148 150 148 146 144 144 136 132 143 165 165 155 142 133 130 131 135 133 129 129 131 131 130 129 138 158 152 115 101 101 102 103 106 112 117 119 125 132 137 142 148 151 151 153 145 137 128 127 130 129 126 124 124 122 120 118 117 123 126 127 128 129 129 131 128 123 116 118 115 121 140 142 137 124 118 116 113 117 144 143 136 
0 53 76 79 73 72 81 85 73 53 39 20 1 2 25 36 36 36 36 34 31 28 28 31 36 41 37 28 63 59 15 27 25 27 24 21 16 16 13 9 4 0 0 6 18 33 54 66 65 35 18 52 68 45 16 11 25 25 20 21 20 19 11 13 15 14 6 3 0 1 5 1 0 4 10 14 6 4 4 4 4 6 10 13 16 20 20 22 24 27 27 29 35 38 31 5 2 69 113 99 107 110 99 80 63 55 70 69 27 0 4 24 33 44 77 34 0 11 34 38 8 0 0 18 30 26 27 27 29 25 23 20 8 0 1 10 9 8 5 8 11 11 30 68 81 45 5 0 12 23 7 0 0 4 16 22 27 30 23 17 7 26 7 0 2 8 9 11 12 7 12 17 50 65 0 6 9 8 5 4 47 34 0 0 0 1 2 4 7 10 14 15 20 20 20 24 35 39 40 44 42 39 34 25 22 18 13 26 43 36 8 0 9 33 50 59 36 9 24 49 44 34 29 21 8 30 1 8 26 42 42 25 9 10 35 49 53 57 59 61 61 59 57 54 47 38 30 20 10 7 4 0 0 0 0 0 0 0 1 2 7 14 17 15 22 22 11 0 0 2 23 19 3 0 0 0 6 7 0 0 4 7 5 5 3 9 17 1 0 0 0 0 0 1 5 8 8 5 0 0 0 0 0 0 2 7 15 19 9 10 12 13 16 15 8 2 0 0 0 0 0 0 0 0 0 0 1 1 1 2 1 0 0 0 0 0 0 1 0 16 36  117 130 134 130 127 131 130 125 117 111 104 95 96 108 116 125 130 134 136 136 131 129 124 118 114 112 110 142 149 115 118 118 116 114 106 99 94 91 86 82 79 81 85 93 104 120 122 125 122 113 120 124 116 111 107 105 105 101 100 102 101 94 93 94 99 101 95 80 82 93 96 94 99 98 96 94 94 95 94 96 100 95 99 102 104 106 106 109 112 114 113 115 118 118 112 104 140 173 168 170 171 158 141 122 112 121 121 102 93 93 99 97 109 124 100 90 101 107 112 99 86 91 102 101 99 95 95 96 92 93 88 93 105 95 101 95 86 79 83 83 84 100 124 128 106 84 83 91 93 90 90 85 85 87 88 90 91 86 82 85 129 109 80 87 94 94 95 94 92 90 100 117 113 85 97 98 93 87 85 115 108 72 70 74 74 71 71 76 80 86 86 92 91 86 86 88 92 97 98 96 97 96 94 94 91 90 102 117 115 102 93 100 116 129 132 119 110 108 109 100 89 87 84 96 107 91 91 108 120 119 113 105 103 108 114 117 121 125 129 133 129 127 124 119 110 105 98 92 90 88 86 82 80 89 98 92 88 87 91 101 107 106 104 106 106 96 82 74 84 116 115 104 86 71 70 76 76 69 74 82 84 84 82 80 88 107 87 57 54 51 53 55 60 67 72 71 70 73 71 68 69 76 80 79 88 93 90 77 72 72 75 74 71 69 68 61 58 59 63 61 61 60 64 72 71 64 57 60 66 74 78 78 65 73 88 83 78 67 78 92 78  159 176 181 179 175 177 180 175 170 166 160 153 149 147 149 150 155 159 161 162 161 162 162 160 158 157 156 163 160 151 153 153 155 153 149 144 142 140 138 136 133 132 136 140 145 159 168 176 175 164 165 173 172 163 157 150 146 145 144 145 146 146 146 147 152 158 154 142 144 154 162 159 152 148 147 144 142 140 139 143 145 147 149 150 155 157 157 160 163 164 163 165 168 168 169 166 181 188 181 191 190 183 172 160 158 170 174 163 156 149 145 143 150 170 165 161 155 151 146 145 150 156 147 135 134 132 132 134 132 132 129 130 160 157 146 147 137 125 122 121 121 141 168 178 166 152 141 131 125 128 141 146 133 126 126 130 129 128 127 128 145 148 146 133 131 133 134 135 132 133 141 166 166 143 134 133 135 136 140 165 164 141 134 136 137 137 140 141 143 143 144 143 138 135 134 135 136 140 141 141 138 136 133 131 131 131 147 164 166 161 152 152 166 178 180 171 161 150 147 143 137 135 132 150 166 151 142 155 166 167 163 156 149 150 154 155 159 162 165 168 168 167 166 162 157 156 151 149 149 151 149 145 144 149 156 153 148 145 144 141 142 143 141 139 137 136 130 124 133 158 162 155 142 133 132 135 134 130 127 131 133 132 132 132 146 159 140 112 108 107 106 108 113 118 122 125 126 127 127 129 134 141 145 147 149 151 147 135 129 122 125 127 129 125 123 123 121 124 126 127 127 126 125 127 125 121 115 113 119 137 143 140 126 120 122 121 117 114 138 143 135 
4 76 66 53 59 78 87 79 61 41 19 2 0 5 28 36 36 32 32 32 31 30 33 38 40 39 39 37 40 34 29 24 25 27 29 24 20 22 16 10 5 3 1 7 18 31 55 66 58 30 32 61 56 26 12 23 26 25 20 17 17 14 9 13 18 33 48 21 0 0 0 0 4 8 7 5 1 3 2 2 4 9 11 16 19 19 16 21 21 23 27 29 30 39 23 0 16 84 107 115 116 108 97 83 81 85 46 4 0 7 23 31 42 77 43 0 11 38 54 61 38 1 0 12 33 29 27 26 29 26 22 18 10 0 1 6 2 1 4 6 14 50 85 56 12 0 4 18 24 22 13 0 0 1 15 19 24 26 26 15 25 57 3 0 7 8 9 10 10 7 17 29 54 57 0 19 19 22 19 19 38 46 3 1 1 0 0 0 0 0 0 0 4 6 7 8 13 21 33 40 39 33 29 25 19 23 33 38 14 0 5 22 48 62 58 35 12 32 57 58 51 43 31 24 17 30 0 11 35 44 37 19 11 17 37 45 51 49 45 46 40 36 30 19 9 3 0 0 0 0 0 1 3 5 3 0 0 4 16 20 27 31 27 26 28 27 22 9 4 5 19 23 10 0 0 0 0 0 0 0 4 7 7 4 6 14 7 0 0 0 1 1 1 2 3 5 6 2 0 0 0 0 0 0 0 0 1 6 14 16 11 9 9 7 6 2 0 0 0 0 0 0 0 0 0 0 0 0 0 6 2 0 0 0 0 0 0 0 0 10 50  133 128 120 119 129 132 128 120 109 103 94 92 97 107 115 123 126 129 134 134 131 129 125 120 114 115 112 120 118 120 115 116 119 117 112 107 100 94 90 88 84 83 86 92 101 118 122 126 117 113 121 119 112 107 105 102 103 101 99 102 99 92 93 99 110 119 106 85 77 81 83 93 97 96 95 94 91 91 90 92 95 95 100 103 103 105 105 108 110 112 114 113 117 117 108 110 147 167 175 174 172 159 143 135 128 105 85 88 93 95 96 106 125 102 92 101 112 119 127 116 92 87 103 106 99 99 99 99 97 94 89 95 105 96 99 89 78 82 83 91 118 131 113 89 79 86 94 93 91 89 90 89 85 89 85 86 86 85 83 107 146 101 85 91 94 95 95 96 90 94 107 116 105 87 99 99 98 101 97 109 119 92 82 79 80 77 70 66 71 73 75 85 86 82 81 82 83 90 97 96 97 95 93 91 97 108 113 100 94 98 102 121 132 129 117 105 111 117 114 107 94 87 85 96 104 89 100 116 121 117 110 106 100 104 110 112 112 111 114 111 104 101 97 94 91 88 85 83 87 83 82 84 90 98 99 94 100 108 107 110 113 108 105 108 105 99 88 75 84 110 116 107 89 74 70 68 68 66 74 80 82 85 83 85 97 102 68 55 63 62 63 63 65 71 72 74 72 72 68 65 64 64 75 80 79 83 86 90 87 80 76 74 71 70 71 66 63 59 65 65 61 63 59 64 64 57 57 60 76 79 80 68 69 91 91 87 84 71 75 99 85  179 176 170 169 175 178 177 171 167 161 154 149 145 145 149 151 153 160 160 161 162 163 162 160 159 156 155 157 155 156 153 152 154 152 150 147 147 145 141 138 134 133 135 141 146 157 168 176 170 164 169 173 165 156 151 147 144 143 145 144 145 146 145 150 160 170 166 149 141 146 148 148 148 147 144 141 139 135 135 138 141 146 148 151 153 155 157 159 162 165 165 164 165 166 166 169 183 189 194 195 190 185 176 175 176 166 155 147 142 141 139 149 170 162 159 152 149 152 154 151 149 153 155 142 134 130 127 130 131 132 131 137 159 155 145 141 127 121 121 130 160 180 171 155 143 133 127 124 124 122 130 146 139 129 126 129 128 126 125 143 163 147 140 130 133 135 135 134 133 138 150 165 161 138 129 128 130 132 133 152 167 145 130 131 132 134 137 138 138 140 144 145 144 144 141 137 138 143 144 144 142 139 136 134 142 158 167 161 153 147 144 165 181 180 173 158 151 150 147 145 140 138 133 146 163 152 147 160 167 165 159 154 148 151 153 155 157 156 157 157 155 153 153 150 150 150 149 147 148 147 145 142 140 147 155 152 149 150 145 142 141 142 140 139 137 135 129 125 131 150 156 152 141 134 133 133 132 126 127 130 132 134 135 138 152 157 132 116 116 115 115 117 121 122 125 128 130 129 124 126 126 130 143 147 144 146 152 152 148 138 130 130 128 126 125 126 124 126 128 127 125 122 121 122 120 117 114 115 136 143 140 131 120 126 122 119 120 115 138 150 136 
