P2
341 256
255
10 61 64 63 63 64 65 68 67 65 67 67 70 70 70 70 70 74 76 79 81 82 84 87 91 91 91 92 92 93 95 95 93 93 93 95 97 96 97 98 100 102 108 113 117 128 155 184 210 225 236 243 249 253 255 255 255 255 255 255 255 255 255 255 255 255 255 255 255 255 255 255 255 255 255 255 255 255 255 255 255 255 255 255 255 255 255 255 255 255 255 255 255 255 255 255 255 255 255 254 252 252 251 251 251 252 253 255 255 255 255 254 253 251 250 249 249 248 247 244 237 231 223 214 206 199 198 210 219 224 226 227 227 227 227 229 232 235 237 239 241 239 234 229 224 218 212 208 207 210 213 211 209 205 200 193 185 176 166 154 147 141 140 141 141 142 143 143 143 145 144 144 143 143 143 139 137 135 134 137 139 143 145 148 148 147 145 142 139 136 134 133 132 131 130 131 133 133 134 134 133 132 132 131 130 129 127 125 121 119 117 117 116 117 120 124 125 125 124 123 119 119 120 125 130 135 138 142 142 140 136 130 126 122 119 116 113 111 110 108 105 105 110 113 114 115 114 113 112 113 121 130 137 143 147 150 152 152 152 147 138 129 120 112 108 106 105 104 101 99 97 96 97 96 94 93 94 98 104 111 116 119 122 123 125 125 123 122 124 123 123 120 121 122 123 124 125 126 124 123 122 122 122 124 125 126 128 133 138 143 145 146 146 146 146 146 145 145 143 141 139 138 135 130 128 127 125 122 118 117 115 114 111 105 103 99 98 96 91 86 84 
83 69 70 71 69 70 71 74 73 71 72 70 73 74 74 74 72 75 79 82 83 85 87 90 94 95 95 95 95 96 98 98 96 96 96 99 100 100 100 102 102 104 111 115 119 128 153 181 207 223 234 242 247 252 254 255 255 255 255 255 255 255 255 255 255 255 255 255 255 255 255 255 255 255 255 255 255 255 255 255 255 255 255 255 255 255 255 255 255 255 255 255 255 255 255 255 255 255 254 253 252 251 250 250 252 254 255 255 255 255 255 255 254 253 252 251 250 249 248 244 239 233 227 219 212 206 205 211 221 224 226 226 223 224 227 228 232 235 237 240 241 239 237 230 226 219 211 207 208 210 214 214 213 210 207 201 192 182 170 159 151 145 143 145 144 144 145 144 144 145 144 144 143 142 141 140 137 136 136 138 142 147 148 150 151 148 144 140 137 134 133 133 132 132 132 133 134 136 136 137 137 134 134 132 132 132 131 128 125 123 120 119 118 117 119 124 126 126 126 125 123 122 123 125 130 135 140 142 142 142 136 131 127 123 120 118 115 113 111 109 107 106 108 113 116 115 114 114 112 113 119 130 141 146 149 152 152 152 153 148 141 132 123 115 110 107 105 104 102 100 98 96 96 96 94 94 95 98 101 108 114 119 122 125 127 126 125 124 125 126 125 124 123 124 125 127 127 127 125 123 124 124 124 124 125 128 131 135 139 142 144 146 145 144 145 144 145 144 140 137 137 137 135 129 126 127 125 123 120 120 116 112 107 103 104 103 102 100 95 88 86 
84 75 76 76 76 75 76 78 76 74 75 74 75 77 76 76 75 77 82 85 87 88 91 94 96 97 99 97 97 98 100 101 98 98 98 102 104 104 104 105 106 107 113 117 120 126 149 177 203 221 233 240 246 250 253 255 255 255 255 255 255 255 255 255 255 255 255 255 255 255 255 255 255 255 255 255 255 255 255 255 255 255 255 255 255 255 255 255 255 255 255 255 255 255 255 255 255 255 253 251 250 250 251 253 254 255 255 255 255 255 255 255 255 254 253 252 250 249 249 247 242 237 232 224 219 213 213 218 222 225 227 227 223 223 225 228 230 234 239 240 239 238 236 230 226 220 212 209 210 211 214 215 217 217 214 208 200 189 176 165 157 151 148 151 149 146 145 144 145 145 144 143 142 140 139 140 139 138 138 142 147 152 153 154 153 148 144 139 134 134 134 134 134 134 134 134 135 137 137 139 138 138 137 136 135 133 134 132 130 127 124 122 122 121 121 125 128 129 129 128 126 125 123 125 130 135 141 143 143 141 137 133 130 126 121 119 116 114 112 110 108 107 109 114 116 115 114 114 112 112 118 128 138 146 152 154 152 150 152 146 140 133 125 116 110 108 107 104 102 100 99 96 96 97 97 97 98 98 101 107 112 118 122 125 126 127 126 126 126 127 128 127 127 129 128 127 126 126 125 124 125 126 125 124 127 130 132 134 139 141 143 145 144 143 143 144 143 141 139 137 135 136 134 129 127 126 125 124 121 119 115 111 107 105 103 103 104 103 99 93 89 
87 79 79 80 80 78 80 81 81 76 77 76 77 79 78 77 77 80 85 88 89 90 92 95 98 100 101 99 99 100 103 102 101 100 102 104 107 108 108 109 108 110 114 118 120 126 147 174 199 218 230 238 244 249 253 255 255 255 255 255 255 255 255 255 255 255 255 255 255 255 255 255 255 255 255 255 255 255 255 255 255 255 255 255 255 255 255 255 255 255 255 255 255 255 255 255 255 254 252 251 250 250 253 255 255 255 255 255 255 255 255 254 254 254 254 253 252 251 252 250 246 240 233 227 222 219 219 223 226 226 228 226 223 222 223 225 230 235 237 238 236 234 233 231 225 218 213 213 213 211 212 215 218 222 220 215 207 197 184 172 163 157 154 155 155 150 148 145 145 145 145 143 141 140 140 140 141 139 139 143 150 154 156 156 154 150 144 137 135 134 134 135 136 136 136 136 137 138 138 139 140 140 140 139 137 135 135 135 134 132 128 125 124 124 124 129 132 133 132 130 128 126 124 125 130 136 140 142 142 141 137 134 130 126 122 120 116 115 114 110 108 108 108 114 116 116 115 113 111 112 115 126 134 143 150 151 149 146 147 146 137 130 124 117 108 107 107 104 101 98 97 97 98 99 99 99 98 100 101 106 110 116 121 122 126 129 128 128 127 127 129 130 131 133 132 129 126 125 126 125 126 127 127 126 129 131 134 136 138 141 142 144 143 141 140 141 140 138 137 136 135 137 132 129 129 127 126 124 121 118 114 110 108 105 102 103 103 102 100 97 91 
86 82 85 84 83 81 83 84 84 80 80 78 79 80 80 79 80 82 86 90 91 93 94 96 101 103 102 102 102 103 105 106 104 103 104 105 110 112 111 110 111 112 115 120 121 126 144 170 196 216 228 236 243 247 252 254 254 254 255 255 255 255 255 255 255 255 255 255 255 255 255 255 255 255 255 255 255 255 255 255 255 255 255 255 255 255 255 255 255 255 255 255 255 255 255 255 255 254 253 252 251 251 253 255 255 255 255 255 255 255 255 254 253 253 254 254 254 254 255 252 247 241 236 229 223 221 224 227 229 228 229 228 224 223 224 225 229 234 235 234 233 231 231 229 224 219 217 217 216 215 215 216 220 223 223 219 214 205 192 180 169 164 161 160 159 157 150 147 146 146 145 144 142 141 141 141 140 140 141 145 152 156 157 157 155 149 144 138 136 134 135 137 138 137 136 137 138 138 139 139 140 142 142 141 139 138 138 136 136 134 131 128 127 126 127 132 136 138 137 135 132 128 125 125 130 134 138 141 141 142 138 135 130 126 123 121 118 116 114 110 107 108 110 113 116 116 116 113 112 112 114 123 131 140 145 147 145 143 142 141 136 129 122 114 108 105 104 102 101 100 100 99 100 102 102 101 101 101 103 105 109 115 119 121 125 129 131 131 132 131 132 133 135 134 132 129 127 125 125 126 127 129 128 129 131 133 135 136 137 140 141 143 141 140 139 138 137 135 135 136 135 136 132 130 129 127 126 125 124 120 115 111 108 104 102 104 103 100 97 98 94 
88 86 89 87 87 86 87 88 87 84 82 80 81 82 81 82 81 83 87 90 94 94 95 99 102 104 105 104 104 105 107 109 107 106 107 109 112 114 114 114 113 113 116 120 121 125 141 167 192 213 226 235 241 246 251 253 254 254 254 255 255 255 255 255 255 255 255 255 255 255 255 255 255 255 255 255 255 255 255 255 255 255 255 255 255 255 255 255 255 255 255 255 255 255 255 255 255 255 255 254 253 253 254 255 255 255 255 255 255 255 255 255 254 253 253 253 254 254 255 253 249 243 237 230 225 222 225 230 231 229 231 231 229 227 227 228 229 230 232 230 229 228 227 224 223 220 221 220 219 220 221 220 221 222 223 222 217 209 198 187 177 170 166 166 165 160 155 149 147 147 146 145 143 140 140 140 142 142 143 148 153 159 159 158 156 149 144 139 136 137 138 138 139 138 137 137 137 137 137 139 140 141 142 142 141 140 139 138 137 135 132 131 130 130 131 135 140 143 143 141 138 132 127 126 129 134 139 142 142 141 139 134 131 127 124 121 119 116 113 110 109 108 109 113 117 117 115 114 113 111 113 121 130 139 143 142 141 139 139 138 135 129 121 113 107 104 103 102 101 101 103 102 102 102 102 102 104 103 103 106 110 114 119 123 126 130 135 137 138 137 135 136 135 134 131 128 126 126 126 127 130 131 132 133 133 135 134 135 136 137 140 142 139 138 137 137 135 133 133 134 135 134 130 130 130 128 127 127 126 122 116 111 106 102 101 101 101 99 96 95 93 
88 90 93 93 91 89 89 90 90 88 86 83 82 84 84 83 82 84 88 92 94 95 97 99 104 106 106 107 106 106 110 111 111 109 110 113 115 117 116 116 115 115 118 121 122 124 138 164 189 210 224 233 240 245 250 253 253 254 254 254 255 255 255 255 255 255 255 255 255 255 255 255 255 255 255 255 255 255 255 255 255 255 255 255 255 255 255 255 255 255 255 255 255 255 255 255 255 255 255 255 254 255 255 255 255 255 255 255 255 255 255 255 255 253 253 252 252 253 254 253 250 246 239 231 227 223 225 230 232 232 233 234 234 232 232 232 231 229 226 226 226 224 223 222 222 222 223 221 221 223 223 223 221 220 220 221 216 209 203 193 184 178 171 171 171 164 158 153 149 148 146 146 143 142 141 141 143 143 145 150 154 160 161 159 155 149 143 138 136 138 139 140 140 140 139 138 138 138 137 137 138 140 141 142 141 140 139 140 138 136 135 134 134 134 135 139 145 147 148 145 142 136 130 127 129 133 137 142 143 142 139 135 131 128 124 122 119 116 113 110 108 109 109 113 117 117 116 114 114 111 111 117 126 136 140 141 139 138 135 138 135 127 122 115 109 104 102 102 102 102 102 104 106 105 103 103 106 105 104 107 111 114 120 125 130 133 139 143 145 145 142 137 136 133 129 126 126 126 126 128 130 133 135 135 135 134 134 135 135 137 139 140 138 138 137 136 134 132 131 131 132 129 129 129 129 131 130 129 127 122 117 111 104 99 97 97 96 94 92 89 87 
85 93 96 97 95 93 92 93 93 91 88 86 84 86 86 85 84 85 89 92 95 97 99 101 105 108 108 107 109 109 112 115 114 113 113 116 119 119 118 117 116 116 118 122 123 124 137 161 186 208 222 232 239 244 249 252 253 254 254 254 255 255 255 255 255 255 255 255 255 255 255 255 255 255 255 255 255 255 255 255 255 255 255 255 255 255 255 255 255 255 255 255 255 255 255 255 255 255 255 255 255 255 255 255 255 255 255 255 255 255 255 255 255 254 253 252 252 253 254 251 248 246 241 234 228 224 225 229 232 233 235 236 236 236 237 237 232 227 224 222 222 219 219 220 223 227 229 226 223 224 224 223 220 217 216 215 211 204 201 196 188 183 176 174 175 169 162 156 151 149 147 147 144 142 142 143 143 144 146 152 156 159 161 158 154 148 140 136 136 138 140 141 141 138 138 138 137 136 136 135 136 138 139 140 142 141 141 140 140 139 137 136 135 137 139 142 148 152 153 151 147 141 134 128 127 133 136 140 142 142 139 136 132 128 125 123 120 117 113 112 109 109 110 114 117 117 116 115 114 113 111 114 122 129 135 138 137 136 135 135 132 125 122 118 112 108 104 104 105 103 104 106 107 108 108 107 106 109 110 110 112 115 119 126 135 138 142 148 153 153 150 143 137 133 130 128 127 126 127 129 131 134 136 136 135 133 135 135 136 137 139 139 139 138 137 135 132 131 130 131 129 127 129 131 133 134 133 132 129 122 116 111 104 96 94 94 92 89 86 82 83 
84 97 100 101 99 96 94 96 95 93 89 87 86 88 88 87 86 86 91 94 96 99 100 103 106 108 109 110 111 111 114 116 117 115 115 118 120 121 121 119 117 116 120 123 122 123 135 159 183 206 221 232 238 244 248 252 253 254 254 254 254 255 255 255 255 255 255 255 255 255 255 255 255 255 255 255 255 255 255 255 255 255 255 255 255 255 255 255 255 255 255 255 255 255 255 255 255 255 255 255 255 255 255 255 255 255 255 255 255 255 255 255 255 254 253 253 253 254 254 251 248 245 240 234 228 225 224 227 230 233 237 238 239 240 241 239 234 227 223 219 214 215 217 221 226 231 233 231 230 228 225 222 218 216 214 209 202 197 195 195 190 184 179 177 176 170 164 158 152 150 149 147 145 143 143 143 144 145 148 154 157 159 160 156 151 145 138 135 137 138 140 142 141 140 138 137 136 135 133 134 134 136 138 138 139 141 141 140 141 139 138 137 135 137 139 145 154 158 158 156 150 145 138 129 127 132 136 140 142 142 140 137 133 128 127 124 120 118 115 113 112 111 111 115 118 119 118 116 116 115 112 112 118 126 131 132 133 134 131 129 129 125 122 117 114 111 109 107 106 107 108 110 110 111 110 109 109 111 112 113 116 115 120 128 139 144 147 152 157 161 157 149 141 136 132 128 127 127 129 131 133 135 136 137 136 133 134 134 136 137 136 138 139 136 134 132 131 131 131 132 127 126 130 133 135 135 134 133 128 122 114 110 102 96 93 91 87 86 82 80 78 
82 100 105 104 103 99 97 98 97 95 91 88 88 89 89 88 87 89 92 96 98 100 101 104 108 111 112 112 112 113 116 120 118 117 117 118 122 122 121 120 117 116 119 122 122 122 133 156 180 204 220 230 237 243 248 252 253 253 254 254 254 255 255 255 255 255 255 255 255 255 255 255 255 255 255 255 255 255 255 255 255 255 255 255 255 255 255 255 255 255 255 255 255 255 255 255 255 255 255 255 255 255 255 255 255 255 255 255 255 255 255 255 255 255 254 254 254 255 255 253 249 245 239 234 226 222 222 225 229 234 238 240 243 244 243 240 235 229 224 216 212 213 218 224 229 234 236 237 236 231 227 224 218 214 209 203 195 189 191 191 189 182 179 178 176 171 166 160 154 152 150 148 145 144 144 143 143 145 150 155 158 157 157 155 151 144 137 136 137 138 139 140 140 139 139 137 135 134 132 133 132 135 136 137 139 141 142 141 140 139 138 138 137 137 140 147 157 162 162 161 157 152 143 132 127 131 136 140 142 142 141 138 133 132 130 127 125 120 116 115 114 113 113 116 119 121 120 119 118 116 114 113 117 123 128 131 131 131 128 125 127 126 122 119 116 114 113 113 112 111 112 114 115 114 112 112 112 112 113 116 119 120 122 129 141 149 153 155 159 161 159 153 146 137 133 129 126 127 131 134 135 137 137 136 137 134 133 133 134 134 135 136 137 135 133 130 129 130 131 130 127 126 130 133 136 134 133 133 128 122 113 105 100 93 89 90 85 81 78 77 77 
77 103 108 108 105 101 100 100 100 97 93 91 89 91 91 90 89 89 93 97 99 100 102 105 109 113 113 112 113 113 117 119 118 117 117 119 121 121 120 118 117 115 117 119 121 121 131 153 178 201 218 228 236 242 247 251 253 253 253 253 254 254 254 255 255 255 255 255 255 255 255 255 255 255 255 255 255 255 255 255 255 255 255 255 255 255 255 255 255 255 255 255 255 255 255 255 255 255 255 255 255 255 255 255 255 255 255 255 255 255 255 255 255 255 255 255 255 255 255 254 250 245 239 233 225 218 218 223 228 235 238 241 243 245 244 242 235 229 224 217 215 216 220 227 232 236 239 240 239 237 232 225 220 214 207 199 190 183 184 187 184 179 179 178 175 171 167 160 155 153 150 149 145 144 143 143 143 145 152 156 157 158 158 155 150 143 140 140 138 137 140 141 140 139 137 136 134 133 132 132 132 134 134 136 139 141 141 142 140 139 137 138 137 137 141 149 158 164 166 164 161 155 146 134 129 131 135 139 141 142 142 138 136 136 132 131 129 126 122 118 116 114 114 116 121 122 122 121 121 118 115 114 117 122 125 128 130 128 128 125 127 127 123 120 118 117 114 114 115 115 115 117 119 116 113 113 114 115 116 119 122 126 128 129 140 149 154 156 159 160 159 155 148 141 135 130 126 129 133 136 137 136 137 137 136 134 134 133 133 131 131 132 134 133 132 128 126 128 130 129 127 126 129 133 135 133 133 133 127 118 112 104 98 94 89 90 85 79 75 77 78 
77 105 111 110 108 104 101 102 103 99 96 93 93 93 93 91 90 90 94 96 100 101 103 105 108 112 113 112 113 113 115 116 117 115 115 116 118 119 117 115 114 113 115 117 118 120 128 150 175 199 216 227 235 241 246 250 252 253 253 253 254 254 254 254 255 255 255 255 255 255 255 255 255 255 255 255 255 255 255 255 255 255 255 255 255 255 255 255 255 255 255 255 255 255 255 255 255 255 255 255 255 255 255 255 255 255 255 255 255 254 253 254 254 255 255 255 255 255 255 255 251 245 240 233 225 218 216 223 228 233 236 240 241 243 244 242 237 231 225 222 222 223 224 229 235 238 241 242 241 239 236 230 223 215 206 197 188 181 178 181 179 178 177 176 174 169 165 161 157 153 151 149 147 145 144 144 142 147 152 156 158 157 156 153 147 142 140 140 140 140 142 142 142 141 140 136 134 134 132 133 133 134 134 136 138 140 140 140 140 139 137 138 138 138 141 149 159 167 169 168 164 158 148 136 129 130 135 138 140 142 143 139 139 137 135 134 133 131 127 123 119 116 113 117 122 124 124 124 123 119 115 116 118 121 124 128 129 129 129 127 128 128 124 123 121 120 117 117 118 118 117 119 120 118 115 114 116 117 118 120 126 132 135 134 138 145 152 156 157 158 155 153 147 141 135 131 129 133 135 136 137 136 137 137 137 134 132 131 132 131 130 131 131 131 130 127 125 127 126 124 124 125 130 133 134 133 132 130 125 117 109 104 97 91 90 88 83 79 75 76 77 
79 107 113 113 111 106 103 105 105 101 99 96 94 93 94 93 92 91 93 97 101 101 102 104 107 110 111 111 111 111 113 114 113 112 112 113 115 116 114 112 113 113 113 116 117 118 126 148 173 196 213 226 234 240 245 249 251 252 252 253 253 254 254 254 255 255 255 255 255 255 255 255 255 255 255 255 255 255 255 255 255 255 255 255 255 255 255 255 255 255 255 255 255 255 255 255 255 255 255 255 255 255 255 255 255 255 255 254 254 253 252 252 253 254 255 255 255 255 255 255 252 246 240 232 225 220 219 223 230 233 235 238 239 240 241 239 236 232 228 228 229 230 232 233 236 240 241 241 240 240 237 233 227 219 210 201 191 184 179 178 177 177 177 175 173 168 164 160 157 154 151 149 149 148 147 145 144 150 154 156 157 156 155 151 144 140 139 141 141 141 142 143 144 142 140 138 137 135 134 135 135 135 134 135 135 137 138 137 138 139 139 138 138 136 139 149 160 167 170 170 166 159 149 137 127 129 132 136 139 143 143 142 140 137 137 136 134 133 132 128 124 119 117 119 123 127 127 125 124 119 114 115 117 120 125 128 129 129 129 128 127 129 128 125 123 122 121 119 120 120 119 119 119 119 117 115 117 119 121 124 129 134 140 138 135 138 146 151 153 154 151 148 145 141 137 133 135 136 135 136 136 136 137 137 137 136 132 131 131 132 130 129 130 130 128 127 126 126 123 120 120 124 130 132 133 134 131 126 122 115 105 99 98 90 88 87 83 80 77 77 77 
78 109 114 114 112 108 105 105 105 103 99 95 93 93 93 92 91 90 93 96 100 100 99 102 104 108 108 107 108 108 109 111 109 109 109 111 112 113 114 112 112 111 113 115 117 118 125 146 169 192 211 224 232 238 243 247 251 251 251 252 252 253 253 254 254 255 255 255 255 255 255 255 255 255 255 255 255 255 255 255 255 255 255 255 255 255 255 255 255 255 255 255 255 255 255 255 255 255 255 255 255 255 255 255 255 255 254 253 253 252 251 251 252 254 255 255 255 255 255 255 251 246 239 231 225 223 221 223 227 233 235 236 236 236 236 234 233 232 231 232 232 234 237 238 239 241 243 242 241 240 238 235 230 223 216 209 201 191 183 180 180 179 176 175 174 168 166 161 157 153 153 152 150 149 150 149 149 155 157 158 157 157 153 150 144 141 141 142 142 142 142 143 143 141 141 140 138 137 137 136 136 137 136 134 134 136 137 138 138 139 138 136 136 136 139 147 159 166 168 168 165 159 149 136 127 127 130 134 140 142 142 142 140 138 138 137 136 136 135 131 128 123 120 121 126 129 129 127 125 120 115 116 118 121 125 127 130 131 130 129 128 129 130 128 126 125 124 122 122 122 122 123 121 121 121 117 119 120 122 126 130 134 138 138 135 132 138 144 147 149 147 144 143 140 137 135 136 136 136 135 136 137 136 136 136 135 132 131 131 131 131 130 130 131 128 127 126 123 120 116 118 122 128 131 133 132 130 125 118 111 102 94 93 94 90 88 86 83 82 81 80 
77 109 113 114 110 107 104 103 104 102 97 94 90 91 90 91 89 88 90 93 96 96 97 100 102 105 105 105 105 105 107 108 108 107 108 109 111 113 113 111 112 111 112 114 116 118 125 143 165 189 209 222 230 237 242 246 249 250 250 251 251 252 253 253 254 254 255 255 255 255 255 255 255 255 255 255 255 255 255 255 255 255 255 255 255 255 255 255 255 255 255 255 255 255 255 255 255 255 255 255 255 255 255 255 255 255 255 254 253 252 252 252 252 252 253 254 255 255 255 255 252 245 238 231 226 224 224 225 228 232 234 233 232 231 230 230 231 234 234 232 231 234 237 238 239 241 243 244 243 241 239 237 232 227 222 216 210 201 194 188 186 184 178 175 176 172 168 165 160 156 154 152 152 152 151 152 155 159 162 160 157 156 153 149 144 143 143 143 142 142 142 142 141 141 141 140 140 140 140 138 136 138 137 135 135 137 139 138 138 137 136 134 135 136 140 147 157 164 167 167 163 156 148 137 128 126 128 134 139 141 143 143 141 139 139 139 139 137 136 134 131 127 122 125 130 130 131 129 126 120 115 116 119 122 126 128 130 131 131 130 130 129 130 130 128 126 126 125 124 124 125 126 125 125 125 123 122 123 124 128 130 132 134 136 135 132 131 135 139 141 141 140 140 140 136 135 137 136 136 137 136 136 137 137 136 135 133 131 132 131 132 131 129 129 127 126 128 122 117 117 118 121 127 130 132 130 128 122 116 107 99 93 88 90 94 90 88 87 85 81 82 
82 106 110 110 108 104 101 100 100 98 94 91 87 88 89 88 86 85 86 90 93 95 96 99 101 103 103 103 102 102 105 107 108 107 106 108 111 113 112 112 112 112 111 114 116 118 124 141 162 186 207 220 229 236 241 245 248 249 250 251 251 251 253 253 253 254 254 255 255 255 255 255 255 255 255 255 255 255 255 255 255 255 255 255 255 255 255 255 255 255 255 255 255 255 255 255 255 255 255 255 255 255 255 255 255 255 255 255 254 252 251 251 251 251 251 252 253 254 254 254 250 244 238 231 227 225 224 227 230 230 228 229 229 226 226 228 232 234 234 233 233 236 236 237 238 239 240 243 243 240 239 237 234 231 225 220 215 209 203 196 194 192 183 178 179 178 172 170 166 160 159 155 153 153 154 157 161 165 167 164 161 158 155 148 144 144 144 143 142 142 142 141 140 141 141 141 141 141 141 139 138 139 138 136 137 138 137 137 137 136 135 134 134 135 139 146 155 162 166 167 165 159 148 137 130 127 129 133 137 140 141 142 140 141 141 140 140 140 138 137 133 128 125 129 133 133 133 132 129 120 116 117 120 123 126 130 132 131 131 130 129 130 130 129 128 128 129 127 127 127 128 126 127 128 129 129 125 127 127 127 130 130 129 131 133 134 130 129 129 131 136 136 138 138 136 135 136 135 135 136 135 135 136 138 137 137 136 133 132 133 133 131 130 129 127 125 126 122 116 116 117 121 125 130 129 127 124 119 112 104 96 90 86 86 90 94 91 88 87 83 84 
83 102 105 106 104 101 98 97 96 94 90 89 87 86 87 87 84 84 86 89 92 94 96 97 99 102 103 101 102 103 104 107 108 106 107 107 110 112 113 113 113 112 112 115 117 120 124 138 159 183 204 218 227 234 239 244 247 248 249 250 250 251 252 253 253 253 254 254 254 254 254 255 255 255 255 255 255 255 255 255 255 255 255 255 255 255 255 255 255 255 255 255 255 255 255 255 255 255 255 255 255 255 255 255 255 255 255 255 255 254 252 250 250 250 250 251 251 251 251 249 246 241 237 231 227 227 227 228 232 231 226 225 226 226 227 229 230 233 235 236 237 237 236 237 237 237 238 239 239 238 236 234 232 230 225 220 215 210 206 199 196 199 190 183 185 184 180 177 173 168 166 162 157 155 156 161 166 168 169 167 164 159 154 146 142 142 142 141 141 140 140 140 141 141 141 141 141 142 142 140 139 138 138 137 137 136 136 135 135 135 135 134 134 134 139 144 152 163 168 168 167 162 153 141 131 130 132 135 137 139 140 140 140 142 142 141 142 142 140 139 135 129 127 131 135 137 134 132 129 122 118 118 120 124 128 130 132 134 131 129 130 129 130 129 128 128 128 129 128 129 128 127 129 130 131 133 130 128 129 129 128 126 127 129 131 133 132 127 126 127 130 133 133 135 136 136 136 135 134 135 136 135 135 137 137 136 136 134 132 135 134 132 134 131 127 125 123 121 119 119 119 121 124 127 128 125 120 114 110 103 96 91 88 87 86 90 94 93 89 85 85 
84 98 100 101 100 99 96 95 96 93 90 88 86 87 87 86 83 83 85 88 92 95 95 97 99 101 103 102 102 104 105 107 108 108 107 109 111 114 116 116 115 114 113 116 120 121 124 136 157 179 200 216 225 232 238 242 246 247 248 249 250 251 251 252 253 253 253 254 254 254 254 254 254 254 254 254 255 255 255 255 255 255 255 255 255 255 255 255 255 255 255 255 255 255 255 255 255 255 255 255 255 255 255 255 255 255 255 255 255 255 253 251 250 249 250 250 249 248 246 245 241 238 234 232 228 227 230 233 234 233 227 225 224 226 228 229 231 234 238 241 241 239 237 236 236 236 236 236 236 235 233 231 229 228 223 218 214 209 205 200 194 197 192 186 190 190 184 181 177 171 170 167 162 159 160 164 167 169 170 168 162 159 152 144 140 141 141 139 139 139 139 140 140 141 141 143 144 143 143 142 139 137 138 137 136 135 135 135 135 135 135 134 134 135 138 144 152 162 168 171 170 166 156 145 136 131 133 137 139 139 140 140 140 142 143 143 143 143 142 138 134 131 129 132 136 138 137 134 129 123 120 118 120 124 127 130 132 134 132 130 130 129 129 128 127 126 128 128 129 129 129 128 130 133 135 135 134 131 129 128 125 124 126 128 129 131 133 129 127 126 127 130 131 133 135 136 137 136 135 134 135 135 136 137 135 135 135 133 132 134 135 135 134 132 130 126 122 119 117 118 120 122 124 127 127 123 119 115 112 106 99 92 87 87 86 86 89 96 95 90 88 
86 95 99 101 101 97 95 94 94 92 90 89 86 87 87 87 84 83 84 89 92 94 95 97 99 101 103 103 104 104 105 109 111 110 111 112 113 117 119 118 117 116 116 118 121 121 123 134 154 176 197 213 224 231 237 242 245 247 248 248 249 251 251 252 252 253 253 253 253 253 253 253 253 253 254 254 254 254 254 254 254 254 254 254 254 254 254 254 254 255 255 254 255 255 255 255 255 255 255 255 255 255 255 255 255 255 255 255 255 255 254 252 250 249 248 246 245 244 242 241 237 233 229 229 231 231 230 232 236 235 230 227 226 225 229 231 234 236 240 242 243 241 238 236 234 234 235 235 234 232 231 229 228 227 223 220 217 214 210 204 196 194 188 186 189 188 183 181 177 172 171 169 166 163 161 164 167 170 169 166 162 157 151 145 140 140 139 137 136 138 140 140 142 143 143 143 145 143 143 142 140 138 137 137 137 135 135 136 135 136 137 135 135 137 139 143 155 164 170 173 173 170 162 151 139 133 132 136 138 140 141 141 140 139 140 142 143 143 142 139 134 131 132 135 138 140 139 134 131 124 121 121 120 123 127 130 132 133 133 131 130 129 128 128 128 127 128 129 130 128 129 131 131 135 137 136 136 134 129 125 122 122 125 128 128 130 134 134 130 129 127 128 129 130 133 136 136 136 136 135 135 136 136 134 133 134 134 132 132 135 135 134 135 134 132 129 121 119 118 117 118 121 123 128 127 123 120 116 111 105 98 91 87 85 85 87 87 92 96 98 96 
92 95 99 101 99 96 94 95 95 94 92 90 88 88 87 88 85 85 87 90 94 95 97 98 100 103 105 106 106 107 108 112 115 114 115 116 117 121 123 123 121 120 119 121 123 122 123 132 152 174 195 212 223 231 236 241 245 246 247 248 249 250 250 251 252 252 253 253 253 252 252 252 252 252 252 253 253 253 253 253 253 253 253 253 253 253 254 254 254 254 254 254 254 254 255 255 255 255 255 255 255 255 255 255 255 255 255 254 254 254 254 253 252 250 246 244 242 241 240 239 235 229 224 226 231 233 230 230 234 236 233 230 229 229 231 235 239 239 241 244 244 242 239 236 233 232 232 234 232 231 231 231 230 230 227 225 223 221 216 210 203 195 186 184 186 186 182 182 180 177 176 175 171 167 163 165 169 170 169 165 161 156 148 144 141 140 138 137 136 138 141 142 143 145 143 143 143 142 143 142 139 137 138 139 137 135 137 136 136 136 137 136 135 136 139 144 154 166 174 177 177 174 167 157 144 134 132 134 138 139 141 142 141 140 139 141 142 141 140 138 134 132 134 137 139 140 139 135 131 124 121 122 121 123 127 131 132 131 132 130 129 128 127 126 127 127 128 129 130 130 130 132 134 137 138 136 136 136 129 123 122 122 122 127 128 131 136 138 136 132 130 127 129 130 132 133 137 137 137 136 134 134 134 132 130 132 132 132 133 136 136 133 134 134 130 128 123 120 119 118 117 119 125 128 128 125 121 114 109 104 98 92 88 86 86 88 90 91 92 98 98 
96 97 100 102 99 98 97 95 96 96 94 92 91 89 89 91 90 88 89 91 95 98 98 100 102 106 110 109 109 110 112 117 120 119 120 121 123 127 127 127 126 123 122 122 125 124 123 131 150 172 194 212 223 230 236 241 244 246 247 248 249 250 251 251 252 252 252 253 253 252 252 252 251 252 251 251 251 252 252 252 252 252 252 253 252 253 253 253 253 253 254 254 254 254 254 254 255 255 255 255 255 255 255 255 254 254 254 254 254 253 253 253 251 249 246 243 241 240 239 237 234 227 224 227 228 230 230 228 231 235 234 231 230 231 234 237 239 242 245 246 246 244 241 237 235 232 230 231 229 229 231 232 233 232 232 231 228 226 221 215 209 199 188 182 185 186 186 188 185 184 185 181 175 171 167 166 170 170 168 163 158 153 146 141 139 135 136 135 137 139 140 142 143 144 143 142 140 141 143 141 140 138 139 138 135 136 136 136 135 136 136 136 136 137 140 145 156 166 176 181 182 177 172 160 148 135 131 133 136 139 141 142 142 141 140 140 139 140 138 136 133 132 136 139 140 141 139 136 131 124 122 122 122 123 128 132 132 132 131 129 126 125 125 124 125 127 128 130 131 131 133 136 137 137 137 138 137 135 131 127 123 122 122 126 131 133 136 138 139 135 131 128 128 130 131 131 135 138 137 137 135 132 131 130 130 129 130 132 133 135 137 136 134 133 131 126 122 122 118 118 117 118 121 128 129 125 119 114 108 104 98 93 92 90 91 93 94 94 92 92 96 
100 98 102 104 104 101 99 97 98 98 97 96 92 90 92 92 92 91 92 95 99 100 101 103 108 113 118 118 116 115 117 123 125 125 125 126 128 131 133 131 129 127 123 124 123 123 122 130 148 170 192 211 223 230 236 241 245 247 248 249 249 250 251 252 252 252 252 252 252 252 252 252 252 251 251 251 251 251 251 251 251 252 252 251 252 252 252 252 252 253 253 253 253 253 253 254 254 254 254 254 254 254 254 254 254 254 253 252 252 253 252 251 249 248 246 245 243 241 238 237 234 229 225 225 225 224 226 227 229 231 232 231 230 231 234 236 238 240 244 244 244 244 243 240 236 233 231 228 227 229 232 234 235 235 235 234 233 229 224 218 212 202 192 185 187 193 193 195 191 189 189 185 178 173 169 166 167 167 164 160 153 148 143 139 137 133 134 136 137 139 140 141 142 143 142 139 138 139 141 141 140 139 139 137 136 135 134 136 136 136 136 135 136 136 139 144 155 167 177 183 184 181 174 161 148 136 131 131 135 137 140 142 142 141 140 140 139 139 140 138 136 134 137 140 142 141 139 137 132 126 123 122 123 125 128 131 133 132 131 128 125 124 122 122 124 125 127 130 132 134 135 136 137 137 136 137 136 134 135 132 126 125 127 128 132 134 136 137 138 137 133 130 128 130 132 131 133 135 137 137 134 132 127 127 127 126 130 133 132 135 137 136 134 133 130 126 121 120 119 118 119 119 121 125 126 124 119 113 110 106 100 96 93 93 95 99 99 97 93 91 93 
96 100 103 108 107 104 101 99 102 102 100 99 96 93 95 97 97 95 96 98 102 105 108 115 124 131 135 132 128 125 123 127 130 130 130 131 132 133 135 133 130 126 123 122 124 122 120 129 148 169 192 211 222 230 236 242 246 248 249 250 250 251 251 252 252 253 252 252 252 252 252 252 252 251 251 251 251 251 251 251 251 251 251 251 251 251 251 252 252 252 252 252 252 253 253 253 253 253 253 253 253 253 253 253 253 252 251 251 251 250 250 249 247 246 246 246 245 243 240 238 237 232 223 220 220 220 220 222 226 228 227 227 226 227 229 233 235 238 238 239 240 241 239 237 235 233 231 227 227 230 233 235 237 237 238 238 236 232 226 220 213 205 197 189 188 196 197 196 195 192 189 187 179 174 169 165 165 163 160 157 151 145 140 136 134 133 132 136 138 139 141 142 142 143 142 139 138 140 141 141 140 140 138 137 136 136 136 135 136 136 135 133 135 136 137 144 154 165 176 182 183 182 175 163 148 135 128 128 133 137 140 142 143 142 141 140 140 140 140 140 139 139 141 143 144 144 140 139 134 129 126 123 123 126 129 133 132 131 130 128 125 123 123 124 124 126 126 130 134 135 136 136 137 135 134 137 135 135 135 134 130 127 130 132 136 136 136 137 139 137 135 130 129 129 131 132 133 134 135 136 134 129 126 125 124 124 127 131 132 135 137 137 136 132 129 126 122 119 119 119 119 120 121 124 124 123 119 116 112 110 105 100 96 96 97 100 101 99 95 93 93 
91 104 108 113 113 109 106 104 108 109 107 104 101 99 101 103 102 101 99 103 106 110 119 129 137 146 150 147 140 135 130 130 134 134 133 133 134 135 136 133 130 127 123 122 122 121 120 127 147 169 192 211 223 231 237 242 247 249 250 251 251 252 252 252 253 253 253 253 252 252 252 252 252 251 251 251 251 251 251 251 251 251 251 251 251 251 251 251 252 252 252 252 252 252 252 252 252 253 253 253 253 253 253 252 251 250 250 249 248 246 246 246 246 245 245 245 246 244 242 240 237 230 221 215 214 215 213 214 221 224 225 222 220 221 224 227 230 233 234 235 236 236 235 234 233 231 230 230 230 231 233 234 235 236 238 238 236 232 226 220 214 206 198 190 189 194 195 196 193 190 187 184 178 174 169 165 163 161 158 156 150 144 138 135 132 132 133 135 138 139 140 140 140 141 140 139 137 138 141 141 141 139 137 137 138 137 137 135 135 134 133 134 134 135 137 142 153 164 176 182 184 183 176 166 151 137 128 127 130 135 139 142 143 143 141 140 141 140 140 141 141 142 146 147 148 148 145 142 137 133 129 125 124 126 129 132 133 132 130 128 126 123 123 125 127 130 130 130 133 135 136 136 136 131 131 136 136 135 136 138 136 129 131 135 138 138 136 137 140 139 137 134 131 130 130 134 133 134 135 134 132 129 127 125 123 125 125 128 132 134 137 137 135 130 126 126 123 119 118 120 123 120 119 122 123 121 121 119 117 113 110 105 101 98 98 98 96 93 91 90 93 
92 110 115 120 120 116 112 111 114 115 112 109 107 105 107 108 106 103 104 106 111 117 128 139 149 155 159 157 149 140 134 133 135 136 135 135 134 136 136 133 129 126 122 120 120 119 118 126 146 169 192 212 223 231 237 242 247 250 251 251 252 252 252 252 252 252 253 252 252 252 253 252 252 252 252 252 252 251 252 251 251 251 251 251 251 251 251 251 252 251 251 251 252 252 252 252 252 252 252 252 253 253 252 250 249 248 247 245 244 243 242 244 245 244 244 243 243 244 243 240 236 227 218 210 207 210 208 208 213 219 222 220 217 215 217 221 224 226 228 231 231 232 232 231 231 228 229 230 229 229 230 233 232 232 234 234 231 227 223 219 214 207 196 188 187 192 194 195 191 189 185 181 177 172 169 165 163 161 157 152 147 143 138 134 133 133 133 133 136 138 138 138 138 138 140 139 136 136 138 139 139 138 137 138 139 139 138 136 136 136 134 134 134 134 136 141 151 163 174 181 185 183 178 167 154 140 130 127 129 134 137 141 142 142 141 140 140 139 138 139 140 144 147 149 149 150 149 145 138 135 132 125 124 125 129 131 132 132 131 129 126 123 124 127 127 130 132 131 133 134 133 133 131 128 128 132 134 135 139 140 139 136 134 137 138 138 137 138 140 141 139 137 134 132 131 134 136 135 133 131 131 129 126 124 124 124 124 126 130 134 137 136 132 128 126 126 124 121 118 120 123 121 118 120 124 124 124 123 121 118 114 109 103 101 100 97 95 91 86 83 86 
89 116 121 127 127 123 119 117 119 119 116 113 111 109 110 111 110 108 107 108 114 124 136 147 155 160 164 161 153 142 136 136 137 137 136 136 135 136 136 133 130 124 121 118 118 117 116 125 145 169 191 210 222 230 236 242 246 250 251 251 252 252 252 252 252 252 252 252 251 251 252 252 252 252 252 252 252 252 252 252 251 251 251 252 252 252 252 252 252 252 252 252 252 252 252 252 252 252 251 252 252 252 251 249 247 245 243 241 240 239 240 242 244 243 243 244 245 242 239 237 232 225 215 205 203 203 200 199 205 212 216 217 216 213 209 213 214 217 220 222 224 227 228 227 226 227 227 226 224 224 227 227 228 228 228 227 225 220 215 213 208 200 193 185 185 190 194 195 191 188 184 180 177 171 168 165 162 158 154 147 142 139 135 133 132 134 134 134 134 136 136 136 135 136 137 137 135 135 136 137 138 137 138 138 140 141 140 139 138 138 137 136 134 133 133 138 148 159 173 180 184 184 180 170 157 144 132 130 130 134 137 139 139 139 139 138 138 137 137 136 137 142 147 148 150 151 150 147 140 137 134 128 126 126 130 132 131 131 130 129 126 123 123 127 130 131 131 131 132 133 131 129 129 127 126 129 133 136 139 142 143 141 138 138 138 137 138 138 141 141 141 140 138 135 134 135 137 137 134 131 129 127 127 125 125 123 124 125 128 133 137 136 133 129 127 125 125 123 120 122 122 120 120 121 124 125 127 126 123 120 116 111 107 102 100 97 93 88 83 80 81 
84 121 125 132 131 127 123 121 122 122 120 116 115 112 112 114 112 111 110 112 120 132 143 153 158 164 169 165 156 143 137 137 138 139 137 137 137 136 135 133 129 124 119 117 117 116 115 123 144 168 189 207 220 228 235 240 245 249 250 251 251 251 250 250 250 250 250 250 250 250 251 252 252 253 253 252 252 252 252 252 252 252 252 252 252 252 252 252 252 252 252 252 252 252 252 252 251 251 251 251 251 251 250 247 243 242 239 236 235 235 237 241 243 243 245 245 243 240 235 231 227 221 210 199 193 193 191 190 197 201 203 205 210 209 203 199 200 204 206 209 214 217 219 222 222 220 218 217 216 217 217 218 220 221 219 219 218 213 209 205 198 192 186 182 181 188 191 189 186 186 180 176 174 170 167 164 160 154 149 144 141 137 134 132 132 132 135 136 134 135 137 135 134 134 134 135 135 133 134 135 135 135 136 138 140 139 141 141 141 140 139 138 135 134 132 137 145 157 169 178 183 184 181 172 160 148 136 132 131 134 137 139 139 139 136 133 133 135 135 136 136 139 144 149 151 150 150 148 142 139 136 132 129 128 130 133 134 132 131 130 127 126 127 128 129 131 130 131 131 129 128 126 126 124 125 128 133 137 141 144 144 144 140 139 137 137 137 139 141 142 143 142 141 140 137 138 138 137 135 132 130 127 127 127 125 124 125 126 127 131 135 135 134 132 129 126 125 123 123 123 121 120 122 124 124 127 126 125 125 122 119 113 107 105 103 100 94 87 84 83 82 
84 125 129 133 134 129 126 123 123 124 122 119 116 113 114 118 120 121 123 128 135 142 151 160 165 169 170 165 155 141 138 138 139 140 139 138 138 137 136 133 128 124 117 115 116 114 114 121 141 165 184 202 216 225 232 238 243 247 248 249 250 250 249 248 247 247 248 248 249 249 250 251 252 253 253 253 253 253 252 253 252 252 252 252 253 253 253 253 253 253 252 252 252 252 252 252 251 251 251 251 251 250 248 244 240 236 233 232 230 231 235 237 241 244 244 241 239 235 231 225 220 212 200 186 178 174 175 179 186 190 190 189 192 197 196 190 184 185 189 194 199 206 211 215 214 210 206 203 204 205 204 207 208 207 206 207 204 202 198 192 184 180 180 178 179 182 183 181 180 179 175 173 171 168 167 163 157 151 144 140 138 136 135 135 133 134 135 135 135 135 136 134 133 134 134 135 135 132 131 132 134 134 134 137 139 139 140 142 143 142 141 139 138 136 135 136 143 154 165 176 180 182 181 174 164 152 139 133 132 134 136 138 139 138 136 133 131 130 129 131 134 137 141 146 150 150 151 148 144 140 138 135 133 132 131 133 134 132 130 127 128 129 130 132 132 131 130 131 131 128 126 125 124 123 123 127 132 137 141 144 145 144 142 137 137 138 137 139 140 142 144 144 143 143 141 140 139 138 135 133 131 127 125 125 125 127 125 126 127 128 133 135 134 133 130 126 125 123 123 124 122 121 123 127 128 127 126 125 124 123 122 115 108 106 106 101 95 88 83 83 83 
86 128 130 135 135 132 127 123 125 127 125 120 119 116 122 131 136 140 143 146 147 151 156 162 166 168 165 160 151 142 142 140 141 141 140 138 138 137 135 133 127 122 116 113 113 112 115 121 137 158 177 196 212 222 229 236 240 243 245 246 247 247 246 245 244 244 244 246 246 246 248 249 251 252 253 253 253 253 253 253 253 253 253 253 253 253 253 253 253 253 252 252 252 252 252 251 251 251 251 250 251 249 246 242 236 231 227 225 225 227 233 236 239 240 239 236 233 228 223 217 208 198 185 172 165 159 158 163 168 174 176 178 178 179 180 178 172 169 174 180 185 191 198 200 198 194 194 193 187 184 184 188 187 186 187 188 187 186 182 176 171 171 172 173 175 175 176 176 177 175 173 172 170 167 165 159 154 148 142 138 138 137 137 136 135 137 137 137 136 136 136 136 134 133 133 133 133 130 130 130 131 131 133 136 138 140 143 143 143 143 143 140 139 138 137 137 143 152 163 172 178 180 178 172 164 154 142 134 133 134 136 138 138 137 136 133 131 128 127 126 127 130 136 143 149 151 151 148 145 140 138 136 135 134 133 134 133 132 129 129 130 131 133 134 133 132 130 129 129 127 125 124 123 123 125 129 133 137 142 145 144 144 142 138 138 138 140 139 140 143 146 146 145 143 143 142 139 138 136 134 131 129 124 123 126 127 128 128 127 125 131 133 134 134 131 127 126 126 126 125 124 123 123 126 128 128 127 124 123 122 121 115 108 106 105 101 97 91 85 82 83 
91 128 131 135 136 133 130 126 126 128 125 123 123 128 138 148 155 159 160 159 158 158 161 162 160 161 158 155 148 143 143 142 141 143 142 140 139 136 135 131 126 121 115 112 113 111 114 119 132 151 170 187 204 217 225 231 236 239 241 242 243 244 243 241 239 239 240 242 243 244 246 248 250 251 253 253 253 253 253 253 253 253 253 253 253 253 253 253 253 253 252 252 252 252 251 251 251 250 251 250 249 247 243 238 231 225 220 218 219 223 230 237 238 236 232 229 225 221 216 207 195 182 170 159 155 151 150 153 154 156 157 162 165 166 165 165 164 163 166 172 176 179 182 184 183 181 181 181 174 169 169 171 169 169 171 172 172 172 167 165 164 164 166 169 170 172 173 173 172 170 170 168 167 165 162 156 151 145 141 140 138 137 138 137 137 138 140 140 138 137 137 137 136 134 133 133 133 130 127 128 128 130 134 136 139 143 144 144 144 144 143 142 139 138 137 138 142 151 162 172 178 180 179 172 163 154 144 137 134 134 136 138 138 140 136 133 132 130 127 125 126 128 130 135 142 149 150 148 145 141 139 136 134 134 132 133 132 131 132 132 132 133 134 134 133 133 131 129 128 126 125 124 123 123 126 131 136 140 143 145 144 143 142 138 137 139 140 140 141 144 147 147 146 146 145 145 141 138 136 134 131 128 125 123 124 126 127 126 125 125 131 133 135 135 133 131 128 128 127 126 126 125 122 124 128 129 128 124 124 122 118 113 106 103 105 102 99 94 87 84 88 
96 129 132 137 138 135 131 128 127 128 128 127 135 144 154 165 172 175 174 170 166 165 166 164 160 153 151 150 146 143 145 144 143 144 142 141 139 136 135 132 126 120 115 111 111 112 114 118 126 143 161 176 194 210 219 226 231 234 236 238 239 240 238 237 235 233 235 238 239 241 243 245 248 250 252 253 253 253 253 253 253 253 253 253 253 253 253 253 253 252 252 252 252 252 251 250 250 250 250 249 247 244 239 233 225 219 214 211 213 219 226 232 235 234 230 226 221 214 207 198 186 175 163 151 148 145 144 146 146 147 148 150 156 161 162 160 161 161 160 161 164 164 163 162 162 163 163 160 158 157 157 157 159 162 164 165 165 162 162 160 159 161 164 167 168 168 168 166 166 166 165 165 164 162 158 152 147 143 140 141 138 137 138 138 138 140 140 141 141 138 138 137 137 136 133 132 132 131 127 128 129 129 132 136 139 143 145 145 145 145 143 141 139 139 138 139 143 151 161 171 179 182 180 176 167 156 145 139 137 137 137 137 138 139 138 135 133 130 128 127 125 125 125 130 137 145 149 149 147 143 139 137 135 135 133 132 132 133 133 133 133 134 134 133 132 131 129 129 127 125 125 125 124 125 127 133 137 140 143 143 142 140 140 137 136 137 137 139 141 145 147 147 147 146 145 145 143 141 137 136 133 129 128 126 125 124 124 125 125 126 132 135 135 136 135 133 132 131 129 128 127 126 123 124 127 127 128 126 123 121 116 109 102 97 101 101 97 93 88 85 92 
101 130 133 137 139 136 133 130 128 131 131 136 147 158 169 179 185 187 183 177 174 172 169 162 158 154 150 148 144 145 144 143 143 143 143 142 139 136 135 131 126 120 115 110 110 111 115 117 122 136 151 165 182 198 210 219 223 227 229 231 233 234 232 230 227 225 228 231 234 236 239 242 245 249 250 251 252 252 252 252 253 252 253 253 253 253 253 253 252 252 252 251 251 251 251 250 250 250 249 247 244 241 235 227 217 211 208 204 204 212 220 225 228 228 224 220 215 210 201 191 179 167 155 146 143 139 138 139 140 142 143 145 151 157 161 161 160 162 162 158 155 154 153 153 151 150 149 149 150 153 155 154 155 157 162 164 164 164 161 158 158 158 162 162 162 163 162 161 162 162 161 162 161 158 154 149 144 141 141 141 139 139 139 139 139 140 141 143 142 139 138 137 137 137 135 135 132 131 128 127 128 129 133 136 140 143 146 147 146 145 143 140 139 139 138 139 144 151 159 170 179 182 182 179 171 160 149 141 139 138 139 139 141 141 139 136 133 130 128 127 123 121 122 127 135 142 147 149 148 145 141 139 140 139 138 135 135 136 135 134 135 134 133 131 129 128 127 126 126 125 124 126 126 126 128 132 138 139 141 142 142 141 138 137 136 137 137 138 142 145 148 147 148 146 146 146 144 143 140 136 133 130 128 127 126 123 122 123 123 126 132 136 138 138 137 136 136 135 131 130 129 127 125 125 125 127 128 126 123 119 114 107 100 94 96 97 95 90 85 84 95 
105 130 133 137 140 138 134 131 129 132 138 148 160 172 182 191 196 195 190 181 176 172 164 157 158 155 150 145 142 143 142 142 141 144 143 141 138 135 135 131 126 120 113 109 109 112 117 117 119 127 140 151 166 183 198 209 214 217 220 223 226 226 224 222 218 216 219 223 227 230 234 238 242 245 247 248 249 250 250 251 251 252 252 252 252 252 252 252 251 251 251 250 250 249 249 249 248 247 246 244 240 235 229 221 208 197 194 196 199 204 211 217 220 221 217 210 203 197 188 180 168 157 146 142 139 134 135 135 137 139 139 140 146 152 156 158 158 161 162 159 156 156 157 154 149 148 149 148 151 155 160 162 161 159 160 161 161 161 157 156 158 159 158 157 157 157 157 157 159 158 158 159 157 154 151 147 143 141 141 140 139 139 140 139 139 141 142 142 142 140 137 137 138 138 135 135 134 132 129 128 127 129 132 136 140 142 146 148 148 147 145 143 142 140 138 139 146 154 164 172 179 183 184 182 174 164 153 142 138 139 139 141 143 142 141 138 136 133 131 127 124 120 122 126 135 142 146 148 148 146 143 141 142 143 142 141 139 137 137 136 136 134 131 128 127 125 124 123 123 124 125 126 127 128 130 133 136 138 139 141 142 140 137 137 136 139 139 139 141 144 148 149 148 146 146 147 145 143 143 139 134 130 127 127 126 124 123 123 125 128 133 138 139 140 139 139 139 137 135 133 131 128 126 127 126 125 127 125 122 117 111 103 97 92 93 95 92 90 86 84 97 
108 130 133 138 141 140 135 131 131 135 146 159 173 184 194 201 202 196 185 176 167 161 155 152 157 153 146 141 141 139 138 137 139 142 141 138 136 133 132 130 124 117 110 106 107 112 117 117 117 122 130 137 148 166 182 194 201 205 209 212 216 216 214 212 206 202 208 214 219 223 228 233 237 240 242 244 245 246 247 248 249 250 250 250 250 250 250 250 250 249 247 247 247 246 245 246 245 244 241 239 235 229 221 211 194 177 176 183 195 201 203 206 211 213 207 198 188 181 173 163 153 145 140 138 134 130 130 131 132 134 135 137 140 145 150 151 152 154 157 157 156 154 152 149 147 146 150 150 151 157 160 164 164 162 159 155 153 153 157 156 158 159 156 155 154 153 154 156 156 156 156 155 154 152 149 144 143 142 141 141 140 140 139 139 139 141 142 142 141 140 136 135 137 137 136 135 133 134 133 131 129 131 134 136 140 142 144 146 147 147 147 145 145 143 142 141 146 154 164 176 183 186 186 183 177 167 155 144 137 137 138 141 144 143 142 140 138 136 134 132 128 125 126 128 137 145 148 150 151 151 147 144 145 145 144 144 143 140 137 136 135 131 129 125 125 122 121 121 121 123 125 126 127 128 130 133 136 137 139 140 141 139 137 135 135 137 139 140 141 143 146 149 148 147 146 146 145 143 143 141 136 134 131 130 128 126 124 124 126 130 134 137 139 141 141 141 140 138 136 134 133 130 127 126 127 126 126 123 121 115 109 102 96 92 94 96 93 89 87 84 98 
111 131 133 137 141 139 135 132 133 143 157 171 184 195 203 206 199 187 173 164 155 148 147 151 154 150 140 135 134 133 133 132 134 137 136 133 131 128 127 125 119 114 109 103 104 111 116 116 117 120 124 127 133 145 161 174 183 191 196 200 203 203 201 198 191 187 191 201 209 216 223 228 232 235 237 239 241 242 243 244 245 246 247 248 248 247 247 246 246 245 244 243 243 243 242 241 240 239 236 232 227 221 211 198 176 158 160 171 183 194 197 195 198 199 192 181 170 163 157 149 142 138 137 137 133 129 127 129 131 132 135 135 138 142 145 147 148 151 152 151 149 146 146 147 148 149 151 151 152 153 156 158 158 156 155 150 148 150 153 155 156 156 154 153 151 151 153 155 154 154 154 154 152 151 146 144 144 143 142 141 140 140 141 141 141 141 143 143 140 138 136 134 135 135 135 134 134 136 136 133 132 133 134 137 139 142 143 145 145 146 143 144 145 145 143 144 147 154 164 175 185 189 189 186 179 170 157 146 137 135 137 139 143 145 144 143 142 140 138 135 130 129 129 130 137 146 150 151 153 154 151 145 145 145 145 145 144 141 137 133 131 128 126 123 122 120 119 119 121 123 125 126 127 128 129 133 136 138 138 139 140 139 138 135 135 137 139 140 141 143 145 149 149 149 147 145 143 142 141 143 138 137 138 131 130 129 127 128 128 132 137 139 141 142 141 141 140 139 136 137 135 133 129 127 127 128 126 124 121 116 108 101 96 93 97 95 95 92 89 88 102 
113 131 133 137 141 139 135 132 136 150 167 181 193 202 207 202 189 176 161 149 143 143 146 152 149 144 135 129 127 126 126 127 129 131 130 127 125 124 122 119 115 111 107 103 104 110 113 114 116 118 121 123 125 130 143 157 166 173 180 185 187 187 185 183 178 175 179 191 201 210 218 224 228 231 233 236 237 238 238 239 240 241 242 243 244 244 243 242 241 240 240 239 238 238 237 236 235 233 230 226 220 211 199 182 161 148 152 160 170 180 188 189 187 181 173 161 153 148 142 138 137 134 134 133 132 129 127 126 129 133 136 139 140 141 143 147 147 150 150 148 146 145 146 149 151 153 155 156 157 156 155 156 155 153 151 149 149 152 153 154 156 155 153 150 150 150 153 155 154 153 153 153 150 148 145 143 144 144 142 142 141 139 139 139 140 140 141 142 141 137 134 132 131 133 135 134 134 137 138 136 135 134 135 138 137 139 140 141 143 144 144 143 145 144 143 143 146 153 162 173 182 188 189 188 179 169 157 146 137 135 135 137 141 145 148 146 144 143 141 139 136 134 132 133 137 144 149 152 154 156 155 149 147 147 146 144 143 141 136 132 129 125 124 121 120 119 119 120 121 124 127 126 125 127 128 132 136 138 139 141 143 142 141 139 135 137 141 140 141 142 145 147 148 149 145 144 142 140 140 141 139 137 133 126 131 133 131 133 133 135 139 141 142 143 141 140 141 140 138 139 137 134 131 130 128 128 127 125 121 117 110 104 99 95 97 98 98 95 93 94 107 
114 130 131 134 139 137 133 132 141 158 175 190 201 206 202 191 177 162 146 132 128 136 143 146 145 142 134 124 120 119 119 120 123 125 124 123 119 118 117 115 112 108 105 103 105 109 112 113 116 118 120 120 121 123 130 142 151 160 166 170 171 173 172 170 167 166 172 182 194 204 212 219 223 227 229 232 234 234 234 235 236 236 238 239 239 239 238 237 236 235 234 233 232 231 230 229 227 225 222 217 210 200 185 168 154 147 147 154 162 170 176 177 174 168 158 147 141 138 136 135 133 134 132 129 130 130 128 129 131 134 137 141 142 143 144 146 148 149 151 150 149 151 152 152 154 158 160 162 163 163 158 157 157 154 152 149 152 153 155 154 154 153 153 150 149 150 152 154 152 152 152 150 149 145 143 144 144 144 141 141 139 139 138 138 138 139 139 139 139 136 133 130 129 131 134 133 135 138 139 138 138 137 138 137 138 140 140 140 141 143 144 143 142 142 141 142 145 150 159 170 178 184 184 184 179 168 156 144 134 131 132 136 139 144 148 148 148 145 144 143 141 137 133 135 138 142 146 149 153 156 157 153 151 148 146 144 142 139 136 132 128 126 123 122 121 120 121 122 123 125 127 125 126 125 127 130 135 138 139 142 145 144 144 143 139 138 141 141 142 143 144 146 149 148 145 144 142 139 139 141 141 138 130 123 128 134 134 136 136 140 142 142 143 143 140 140 141 141 139 141 139 135 132 132 129 127 127 126 122 117 112 106 101 98 99 102 98 96 95 97 111 
118 127 127 130 133 134 131 134 148 166 184 197 205 204 195 181 166 148 128 113 115 127 134 137 137 139 133 120 116 113 114 115 117 120 119 118 114 113 113 113 110 106 104 103 106 110 112 113 115 118 120 119 119 120 124 133 140 147 152 156 159 160 160 161 159 160 166 174 187 198 208 214 218 221 224 227 228 229 230 230 230 231 232 233 234 233 232 231 229 227 226 225 224 222 221 219 218 216 212 207 199 188 174 161 156 151 149 153 157 160 164 163 162 158 151 144 141 140 140 139 136 133 131 128 131 130 130 131 133 136 139 142 143 144 146 147 148 150 152 154 155 156 157 157 158 158 159 164 164 164 163 159 158 155 151 151 152 151 152 152 150 151 152 149 148 151 153 152 152 151 149 147 145 142 142 144 144 142 140 138 137 137 137 138 138 137 137 137 136 135 132 130 130 130 132 133 135 139 143 141 139 141 140 138 138 139 139 138 140 142 143 143 142 141 140 139 142 148 155 165 174 179 180 178 174 166 155 143 133 130 131 131 135 141 145 147 147 146 146 145 144 140 135 134 137 140 145 148 151 155 157 156 152 147 145 143 141 137 135 132 129 127 124 123 122 122 123 123 124 126 126 125 126 126 126 129 134 137 140 142 144 145 145 145 145 141 140 142 141 143 145 146 146 144 145 144 142 140 138 139 140 138 133 124 125 133 136 136 136 143 144 144 143 143 141 140 140 141 140 141 139 136 132 132 130 128 128 127 123 118 112 107 104 102 103 104 101 98 97 100 112 
117 122 122 124 127 127 127 138 154 174 192 203 205 199 186 171 152 129 110 101 108 119 125 128 129 132 129 117 111 109 109 110 113 114 115 113 110 109 111 110 107 105 104 103 106 109 111 113 115 117 119 118 117 117 119 127 132 138 142 146 148 151 151 151 153 155 162 170 182 193 203 209 212 215 218 220 221 222 222 223 224 224 225 226 227 226 224 223 221 219 217 216 214 212 210 208 206 205 201 195 188 179 166 158 157 154 151 151 152 152 151 152 154 153 149 144 143 143 143 143 139 136 132 131 132 134 134 135 137 139 142 143 145 148 148 149 150 151 154 158 158 158 159 159 159 159 161 162 163 164 165 162 159 155 153 152 151 151 151 148 148 149 148 147 149 151 151 151 150 148 146 145 141 140 141 141 141 141 139 136 135 133 134 134 135 135 135 135 135 133 132 131 130 130 130 133 136 140 143 143 142 141 140 140 139 138 137 138 138 138 139 138 138 137 138 138 141 146 152 161 170 175 176 174 169 160 152 142 135 132 130 131 133 139 145 146 147 147 146 145 146 142 136 133 133 134 139 147 150 152 156 157 152 149 144 140 139 137 134 133 129 129 128 125 124 125 125 125 126 125 126 126 126 126 126 128 133 138 140 141 143 145 145 145 146 145 140 140 142 142 145 144 143 142 142 142 140 139 136 134 136 136 136 129 123 128 134 135 135 143 145 145 144 143 141 141 140 142 141 141 139 136 132 130 130 129 129 127 124 121 114 107 103 103 103 106 103 101 102 107 114 
115 116 116 117 120 121 126 142 160 180 196 204 202 189 174 156 132 108 95 94 100 111 116 121 123 124 121 111 107 104 103 106 108 110 110 108 106 107 106 107 106 104 103 104 106 108 111 113 114 117 118 118 117 117 118 122 129 134 138 141 144 145 145 148 151 153 160 168 177 187 195 202 205 207 209 211 213 213 214 215 215 216 217 218 218 218 216 214 211 209 206 203 201 198 194 192 191 191 188 184 178 170 163 158 157 155 152 148 146 146 145 145 149 150 148 148 147 147 146 145 144 141 139 137 137 139 142 142 141 143 146 146 147 150 151 152 154 155 157 158 159 160 160 160 162 162 161 162 162 163 163 162 159 158 154 152 148 149 149 146 146 147 147 149 152 152 151 151 148 146 145 141 138 137 139 140 140 140 137 136 133 131 131 131 132 133 133 134 133 133 132 130 130 131 131 132 136 141 143 145 144 142 141 140 138 137 137 136 136 137 137 136 134 134 134 136 139 144 150 158 165 170 173 172 168 160 150 140 133 131 129 131 133 139 147 149 149 149 149 149 145 142 135 131 130 130 135 141 147 149 153 155 154 149 143 139 137 135 134 134 132 133 131 128 127 127 127 127 127 126 125 126 126 126 126 127 131 137 139 141 143 144 144 145 147 147 144 143 143 144 145 143 143 142 139 138 137 137 134 131 131 133 136 134 124 124 131 136 136 141 144 145 144 142 141 140 140 140 140 141 140 135 132 131 130 127 127 127 124 121 114 108 105 103 104 107 107 105 108 113 117 
116 112 113 113 116 118 128 145 164 181 194 199 192 175 158 135 109 93 88 86 93 102 107 112 115 115 110 106 104 99 98 100 103 105 105 104 103 104 104 105 105 101 104 104 105 109 112 113 114 116 118 118 118 118 119 122 125 131 135 138 139 141 144 148 151 154 160 167 174 182 189 195 199 198 197 198 200 201 203 205 206 207 208 209 208 206 204 201 198 194 191 189 187 183 181 178 176 178 178 176 171 167 163 160 158 155 151 146 143 143 143 143 148 150 150 150 150 151 150 149 150 148 148 147 144 143 147 150 148 150 151 151 152 154 155 158 158 159 160 160 160 160 160 159 161 161 162 163 163 163 163 161 160 159 154 150 147 146 146 146 145 146 150 152 152 153 152 150 147 144 141 137 136 136 137 138 138 136 135 134 132 130 128 129 131 131 131 132 131 131 131 131 130 131 131 132 134 139 142 145 143 143 143 140 139 139 139 137 136 137 136 135 133 132 133 136 138 144 149 155 160 167 171 171 168 162 153 143 135 131 130 131 133 138 147 151 152 151 153 151 147 144 137 132 131 133 134 138 145 149 150 150 150 148 145 140 137 136 134 136 136 135 133 131 130 130 129 129 127 127 127 127 127 126 126 127 128 134 139 141 143 144 144 146 148 148 147 144 145 147 145 143 145 146 144 138 136 136 134 132 131 131 133 135 131 124 128 135 139 142 143 144 144 144 141 140 140 142 141 142 140 135 132 130 131 128 126 126 123 120 115 109 107 103 106 108 109 111 112 118 118 
116 108 108 110 113 116 128 145 162 175 185 189 177 160 138 111 91 85 83 79 82 90 98 104 106 105 101 101 100 94 93 95 98 98 100 101 100 101 102 103 104 103 102 104 105 109 113 113 114 115 117 117 119 121 122 123 125 130 133 135 138 142 146 151 154 158 163 169 174 180 186 191 193 192 189 188 189 191 192 194 195 196 197 197 196 193 190 187 183 179 176 175 174 172 170 168 168 169 170 169 168 167 166 164 162 158 152 146 144 144 144 144 148 154 154 155 155 155 155 155 157 155 154 153 152 150 149 153 155 155 155 159 158 158 159 161 161 161 162 161 160 160 160 159 159 161 161 161 162 162 162 160 159 158 154 149 148 145 145 146 146 149 152 152 152 154 153 151 149 142 136 134 133 135 136 135 135 136 134 132 131 128 126 127 128 128 129 130 130 131 129 130 131 132 132 132 135 137 142 144 143 143 142 139 138 139 140 139 137 137 135 134 133 132 134 136 138 144 153 157 159 166 170 172 170 165 157 148 140 134 131 130 132 137 144 151 152 153 154 152 151 145 140 137 136 136 138 136 141 147 148 148 148 147 146 144 142 139 139 139 139 138 135 134 133 131 129 129 129 127 128 128 126 126 126 126 127 130 136 139 141 143 145 146 148 148 148 146 146 146 145 142 146 147 146 142 137 135 135 133 130 129 131 133 135 128 123 130 139 142 142 143 144 144 141 140 141 142 141 141 139 135 131 131 129 127 127 126 123 119 118 112 108 106 107 110 110 112 117 122 119 
119 105 106 106 108 114 126 142 156 167 176 173 158 140 114 91 81 79 76 74 71 73 84 90 93 94 95 98 96 91 89 92 93 95 97 98 98 99 100 104 104 103 104 106 106 110 113 113 113 114 116 117 120 123 125 128 131 136 138 141 143 147 150 155 158 161 166 172 177 182 187 192 193 191 189 186 185 185 185 187 186 185 185 185 183 182 180 177 173 170 169 167 167 169 170 168 168 169 171 173 173 171 171 171 166 159 152 149 146 144 145 147 150 154 156 158 160 162 161 161 164 163 161 160 158 156 155 156 157 160 160 162 165 163 164 164 163 163 163 162 160 158 156 155 155 157 158 159 160 161 160 158 158 157 153 149 146 145 144 146 148 150 152 154 154 154 152 150 146 139 134 133 131 133 135 134 133 132 131 131 129 128 126 126 127 127 128 129 130 131 131 130 130 131 132 133 134 135 139 141 142 139 139 138 139 139 139 139 138 138 136 136 134 133 134 135 137 143 152 158 163 169 173 174 174 168 162 155 145 136 131 129 131 136 142 147 150 153 152 151 151 147 144 141 140 139 138 138 139 141 145 146 146 147 147 149 148 145 142 141 142 142 138 135 133 131 131 130 130 128 127 128 126 125 126 127 127 128 131 137 141 143 143 145 148 148 147 148 146 145 144 141 140 149 149 145 140 136 135 133 130 127 130 131 133 132 123 125 138 141 142 143 144 143 141 141 140 140 141 141 138 134 130 130 128 125 125 125 122 121 118 114 110 109 111 110 112 115 120 125 121 
118 103 104 104 104 110 122 135 147 155 161 155 137 115 91 79 76 75 71 71 68 67 75 85 91 94 96 97 97 92 88 90 93 95 97 98 98 99 103 106 107 105 106 108 108 111 112 113 112 113 117 119 122 126 130 133 137 142 145 148 151 152 155 160 163 166 171 175 180 186 191 195 196 194 192 188 186 183 182 182 179 179 179 178 177 177 176 174 172 170 169 169 170 170 172 172 172 174 175 176 178 178 177 174 169 160 155 153 149 147 147 150 154 155 160 164 165 169 168 167 170 171 168 166 165 163 160 160 161 163 164 165 167 166 165 165 165 165 164 163 160 155 151 149 150 154 155 158 160 159 159 157 157 155 151 147 146 144 142 145 148 151 153 153 154 153 152 149 144 139 133 132 132 131 131 131 131 130 130 129 128 126 126 127 127 126 128 130 134 132 132 132 131 131 132 134 134 137 136 138 138 138 137 137 137 138 138 139 140 139 137 137 136 135 134 134 136 142 149 154 161 169 176 178 177 174 167 161 151 139 132 130 130 134 139 144 148 149 150 150 150 149 146 144 143 140 138 138 138 136 141 145 146 146 149 152 154 151 147 146 145 143 138 136 132 131 130 131 131 129 129 130 127 125 126 128 129 129 131 135 139 141 141 143 145 147 147 147 145 145 144 140 137 142 149 146 146 140 137 134 130 127 129 130 133 136 128 123 133 141 143 142 141 140 141 140 140 140 139 141 139 133 129 129 128 124 124 123 122 121 119 115 112 111 113 113 113 115 122 124 123 
119 102 103 101 101 108 116 126 135 141 142 130 113 94 81 75 74 72 71 69 69 73 82 93 102 107 106 103 100 95 91 91 93 95 98 99 100 101 104 108 107 106 109 109 107 109 112 112 111 112 117 122 125 130 135 138 143 148 153 157 158 161 162 164 168 172 176 180 184 186 192 194 195 194 192 190 187 184 182 179 178 179 178 177 175 176 176 174 173 171 171 171 171 171 173 174 175 177 178 180 181 180 178 175 172 163 158 155 152 149 152 154 158 163 164 168 171 174 176 174 174 178 175 173 169 166 166 165 165 166 167 166 169 169 166 165 165 165 163 162 158 153 148 147 148 152 154 157 160 159 157 157 156 153 151 147 145 144 144 147 150 153 154 153 153 152 150 147 143 139 134 132 131 129 129 129 130 130 130 129 129 127 127 127 127 126 126 130 134 136 135 132 132 132 133 134 136 138 136 136 137 136 135 135 136 137 139 139 139 138 137 137 136 136 135 133 135 141 147 152 160 168 176 182 183 179 173 166 155 143 134 130 130 133 136 141 146 146 147 150 150 149 147 145 144 142 139 138 136 135 136 141 144 146 151 156 159 159 157 152 147 144 139 135 133 132 132 132 133 130 130 129 127 126 126 128 133 133 133 134 137 138 139 140 141 144 146 145 143 142 142 141 139 136 144 150 147 146 140 135 132 127 128 131 134 136 132 123 128 138 142 141 139 138 139 140 141 139 139 142 138 132 127 126 126 124 124 122 121 120 119 117 114 114 117 114 114 116 124 126 125 
121 102 101 98 101 106 111 116 120 122 116 107 97 89 81 76 74 73 73 70 74 83 93 102 109 113 113 111 106 100 93 91 94 96 98 98 100 101 104 106 107 107 109 108 107 108 111 111 111 111 117 123 126 133 140 144 150 156 162 166 166 167 168 171 174 179 180 183 185 187 187 189 188 187 188 187 183 181 179 178 178 177 176 175 174 174 174 174 173 173 173 173 175 175 177 178 180 182 184 184 185 183 179 176 172 166 162 159 157 154 156 160 163 167 167 170 175 175 179 179 179 181 180 177 172 168 169 168 167 167 167 166 167 168 166 164 163 163 162 159 152 150 149 149 151 153 154 156 158 158 158 157 155 152 150 148 146 146 146 149 152 153 154 153 150 150 148 145 145 140 136 132 131 130 130 130 131 131 131 129 128 127 126 127 127 128 129 131 133 136 137 135 132 132 134 133 135 137 136 136 135 133 133 134 134 137 139 139 138 139 138 138 138 138 135 135 136 140 145 150 159 167 176 183 184 180 176 167 155 146 136 130 129 131 136 140 145 146 148 149 149 147 146 145 142 139 137 136 133 132 130 134 141 146 151 161 166 166 164 158 149 144 139 135 134 132 132 132 132 131 130 130 128 127 127 129 134 136 134 134 136 136 136 138 140 142 143 143 142 140 141 141 138 136 138 147 150 150 147 139 134 128 126 129 132 134 136 127 124 134 141 141 138 136 137 139 139 138 139 140 138 132 126 125 124 124 122 120 121 120 120 117 116 116 118 116 112 116 125 128 126 
123 103 103 101 103 107 108 108 107 103 101 99 95 89 83 78 75 73 73 75 84 94 102 111 117 118 116 114 112 104 94 90 91 93 95 97 97 98 101 105 105 107 108 106 105 106 108 108 108 110 117 124 129 137 146 151 156 163 169 173 174 173 175 176 179 181 182 183 184 185 184 182 181 180 179 179 178 177 176 176 176 175 175 173 174 174 174 174 175 176 176 177 179 180 181 182 184 185 186 186 188 186 182 178 174 168 166 163 161 160 161 164 167 171 171 171 175 175 178 181 179 182 183 180 175 171 170 169 168 168 167 165 166 166 164 162 160 159 157 155 149 148 148 151 153 154 155 156 157 159 157 155 154 151 147 148 149 150 149 151 152 153 153 153 149 148 145 145 144 141 136 133 133 132 131 132 133 132 131 129 127 127 127 127 127 127 129 131 132 135 137 135 133 132 132 133 134 135 134 133 133 131 131 131 133 136 137 138 139 140 140 139 140 139 137 136 136 139 143 149 158 166 177 183 184 182 178 170 155 146 137 132 130 131 136 142 148 150 149 148 146 144 143 141 139 137 135 133 130 129 129 131 137 147 154 161 166 168 166 161 153 144 139 136 134 134 132 131 131 131 129 130 128 128 128 130 134 137 137 135 135 135 134 137 139 140 140 140 141 140 139 140 137 137 139 142 149 151 152 145 136 130 125 125 130 134 139 135 125 127 137 139 135 134 135 137 139 138 138 139 137 131 126 123 122 123 122 120 120 121 122 119 118 118 118 117 113 117 126 131 128 
124 108 107 106 106 109 108 107 101 97 98 98 95 92 85 77 76 74 72 83 94 104 111 118 123 125 119 113 110 103 94 88 87 88 91 92 93 94 96 101 103 105 104 103 103 103 105 106 107 109 116 124 132 140 150 157 162 168 175 179 180 181 181 182 182 183 183 183 184 183 180 177 175 173 173 174 174 174 174 174 174 174 172 172 172 173 173 174 175 175 177 179 181 183 185 185 186 187 188 189 190 188 185 181 177 173 171 169 165 166 165 166 168 171 174 171 173 175 176 178 178 181 183 180 177 172 170 167 166 166 165 164 164 162 159 157 156 154 153 150 147 146 149 152 155 157 157 157 159 158 155 152 151 149 148 148 151 154 155 154 153 155 154 152 149 145 143 145 145 140 138 135 133 133 132 132 133 133 132 129 129 128 129 128 128 129 129 131 132 135 136 135 133 132 133 132 133 134 131 132 131 131 131 131 133 136 138 139 140 142 142 141 141 140 138 137 137 139 143 149 158 167 177 184 185 184 180 170 158 146 137 134 132 135 141 146 151 152 151 148 144 142 140 137 135 133 133 130 131 130 130 134 137 144 154 161 165 166 166 162 155 145 138 134 133 133 133 133 132 131 129 129 129 129 130 133 135 137 138 137 135 134 134 135 137 138 139 139 140 139 139 138 136 137 140 140 144 152 153 149 141 132 127 125 128 132 139 142 130 123 129 135 133 133 134 135 138 138 138 138 136 131 126 123 121 123 123 120 119 120 123 122 119 119 119 116 114 118 126 131 130 
126 111 109 107 106 107 107 102 97 95 95 95 94 90 85 79 76 73 78 89 102 112 120 125 129 128 119 111 107 101 94 88 83 85 86 88 88 89 93 97 100 101 101 101 99 100 102 104 105 108 114 124 134 143 152 160 167 173 179 183 184 185 185 186 186 185 184 182 180 178 175 174 171 169 169 171 172 172 172 172 172 171 170 170 169 169 169 170 172 174 176 178 181 183 184 186 187 188 189 189 189 188 185 183 179 176 174 172 170 169 170 168 169 172 173 171 171 173 174 175 177 180 182 182 179 174 168 165 163 162 161 160 158 156 155 153 152 150 150 147 145 146 150 153 155 157 156 159 160 159 153 150 148 147 150 150 152 155 157 156 156 155 153 151 148 144 143 144 143 140 139 137 135 134 133 133 133 133 132 130 131 132 131 129 130 131 130 131 132 133 134 134 133 133 133 132 133 133 132 130 130 131 131 132 135 137 138 139 141 143 144 142 141 140 138 137 137 139 142 150 159 168 178 185 188 187 183 174 163 147 137 134 136 141 147 152 155 155 153 150 146 141 137 135 132 130 130 129 129 129 131 135 137 142 151 160 164 165 166 162 157 149 140 135 133 133 134 134 133 131 129 128 129 131 133 135 136 138 138 138 137 134 134 133 135 138 137 137 137 137 138 136 136 137 138 140 142 146 153 152 145 136 127 125 126 131 139 143 137 123 120 129 132 132 133 135 136 137 139 139 136 130 125 124 123 123 125 122 119 120 122 122 119 120 121 117 116 121 127 132 132 
126 112 110 105 103 103 101 94 92 91 91 92 92 88 83 78 74 73 82 94 108 119 128 133 135 127 117 109 103 97 94 89 81 80 81 84 83 85 89 93 95 97 96 97 96 95 99 101 102 106 113 124 135 145 154 162 169 174 180 184 185 186 186 186 186 185 183 182 179 175 173 170 167 165 165 167 170 171 169 168 168 166 166 165 165 164 164 165 167 169 172 175 177 181 183 186 187 188 188 189 188 188 185 182 180 178 176 175 174 172 171 170 170 172 172 170 168 172 174 176 176 179 182 181 179 175 168 163 159 158 157 155 153 152 152 151 151 149 146 145 146 147 148 152 154 156 157 160 159 156 152 147 145 147 150 152 153 156 159 158 158 155 152 149 146 143 142 141 141 140 140 138 138 136 134 134 134 133 133 131 131 134 134 132 131 131 130 131 131 133 134 133 133 134 133 133 134 132 132 131 130 130 130 133 135 137 137 138 140 143 144 143 142 141 139 136 137 139 143 151 160 170 179 186 190 190 185 177 166 152 140 135 138 146 152 157 161 162 157 151 146 139 134 132 130 127 127 127 128 129 131 133 137 142 147 154 161 162 162 161 157 150 146 139 134 134 133 131 132 131 129 128 130 133 135 137 138 139 138 138 137 134 134 134 134 135 136 135 136 137 136 135 134 136 138 139 141 142 149 152 147 142 130 124 126 132 139 142 140 130 119 123 131 131 132 133 135 135 139 139 135 131 126 125 124 124 124 123 121 121 121 123 121 121 122 117 118 124 128 133 132 
126 109 106 101 98 96 92 88 86 86 87 88 88 84 82 76 73 76 86 100 115 126 132 138 133 122 114 105 97 95 93 88 81 76 77 79 80 81 85 87 90 90 91 91 91 91 94 96 98 103 113 123 134 144 154 162 167 173 178 183 185 185 186 186 185 184 182 179 176 173 169 165 162 160 160 162 166 167 166 164 164 162 162 160 159 157 157 158 161 163 165 170 174 178 182 184 186 187 188 189 188 187 186 184 182 180 178 178 176 174 174 172 171 171 171 171 169 170 172 175 175 179 182 180 177 174 168 161 156 154 154 152 153 151 151 151 151 149 146 147 148 149 149 152 153 156 157 159 157 154 149 145 146 148 150 151 155 157 159 158 158 155 151 149 146 142 141 140 140 139 140 140 140 137 136 135 135 133 133 132 132 134 135 134 132 130 130 130 131 132 133 134 134 134 135 135 135 132 130 130 131 131 132 135 136 135 137 139 141 143 144 144 142 141 138 137 137 139 145 152 161 171 180 187 189 190 186 180 170 157 145 139 141 148 155 160 164 165 162 154 147 140 134 129 129 126 123 125 126 127 129 133 135 139 143 148 154 159 157 156 155 153 149 144 138 136 133 132 132 130 129 130 130 134 135 138 139 139 138 137 137 135 134 134 134 134 135 135 136 137 136 134 134 136 139 139 142 142 141 146 148 146 136 126 126 133 137 139 139 136 123 118 128 130 130 131 131 135 137 137 134 130 128 126 124 123 124 125 122 122 122 123 123 121 121 119 122 127 128 132 131 
125 105 102 98 92 88 84 81 81 82 82 83 83 80 78 73 72 79 91 106 123 133 141 139 127 120 111 102 92 91 91 89 82 75 73 75 76 78 80 83 85 86 86 85 86 87 89 93 97 100 110 121 132 143 152 159 165 170 175 180 182 182 183 183 182 179 176 175 171 167 163 159 154 152 153 156 161 163 162 161 158 155 156 155 154 153 153 153 153 156 159 164 168 173 176 180 184 185 186 187 187 187 185 184 182 180 179 177 176 175 175 174 174 171 172 172 171 170 171 176 176 179 181 181 177 173 168 161 155 151 151 151 152 152 152 152 149 149 150 149 148 149 151 151 152 154 155 155 155 153 149 147 149 150 151 152 154 156 158 158 157 155 152 148 147 143 142 141 139 138 139 138 138 138 137 136 135 135 133 133 133 133 133 132 131 129 128 128 128 129 130 133 134 134 136 135 133 132 130 130 130 131 133 135 137 135 136 138 139 141 143 143 140 140 138 138 138 141 147 155 164 172 179 186 189 189 187 181 173 161 151 144 144 150 159 163 165 165 161 156 149 141 135 130 127 125 123 123 124 127 128 130 133 134 137 142 145 150 154 154 153 153 152 149 145 139 135 133 132 131 129 130 131 135 138 140 140 139 138 136 137 135 133 134 135 135 135 134 135 136 135 133 133 135 138 140 140 139 138 138 144 146 143 131 128 130 134 138 139 138 126 118 123 130 130 129 129 132 136 135 131 129 126 125 126 125 125 126 125 124 124 124 123 121 122 121 124 127 127 130 128 
122 102 99 92 86 81 78 76 76 78 78 79 80 77 74 71 72 81 96 112 126 139 149 142 133 122 113 103 91 89 88 88 84 77 72 72 72 75 77 78 80 81 81 81 80 82 86 90 93 98 107 119 130 139 148 154 160 165 171 176 178 178 178 178 177 175 172 168 165 161 156 151 146 143 145 150 154 157 158 157 153 149 149 148 148 148 149 150 151 153 156 160 164 168 172 175 180 183 183 185 185 185 184 182 179 179 176 175 174 173 174 174 174 173 173 174 172 171 172 175 176 177 180 181 178 173 168 162 156 151 150 150 151 152 152 152 151 152 152 150 148 148 149 151 153 154 154 153 152 153 151 149 151 150 150 152 153 153 154 156 154 153 152 150 148 145 142 141 139 139 138 137 137 137 137 136 135 135 134 134 134 133 133 132 129 128 127 127 127 127 130 132 134 134 135 134 132 132 131 130 130 131 133 135 134 135 136 137 138 140 142 142 141 141 138 138 139 142 148 157 164 171 179 184 189 189 185 181 175 165 154 148 147 152 159 164 166 165 162 156 147 140 134 131 128 125 122 122 122 124 126 126 128 129 132 138 141 144 148 152 153 153 154 152 149 145 141 136 134 131 130 132 135 138 140 141 141 139 138 136 136 136 134 134 134 135 136 135 133 134 134 133 132 134 137 138 137 136 135 132 135 144 144 137 131 128 131 134 137 135 129 120 118 127 131 130 127 131 134 134 131 129 126 125 128 127 125 126 126 126 126 126 125 122 123 124 127 129 127 128 126 
121 99 95 88 80 76 74 72 72 73 74 76 77 74 72 68 70 81 96 114 129 143 152 147 137 127 116 104 91 86 87 86 84 80 74 69 71 71 74 74 76 77 76 77 76 78 82 86 91 96 105 117 127 135 143 149 154 160 165 170 172 173 173 173 173 169 165 162 159 155 149 142 137 136 138 143 147 151 153 152 147 143 141 138 139 140 141 144 146 149 153 158 162 166 169 172 176 179 180 181 180 181 180 178 175 175 173 172 171 170 171 172 174 175 174 175 172 171 172 175 176 178 180 180 178 173 168 162 156 152 150 150 151 151 152 153 154 154 152 150 149 147 147 148 150 152 152 152 154 155 154 152 151 149 149 150 151 150 149 151 151 151 151 150 147 146 142 140 139 139 137 136 136 136 136 135 134 133 133 133 132 131 131 130 128 127 127 126 127 127 130 130 133 135 135 133 134 132 131 130 129 131 134 134 135 134 135 137 138 140 141 142 140 140 139 140 139 144 149 157 164 169 176 181 187 189 185 181 175 167 158 152 149 153 158 160 162 162 159 153 143 137 135 132 130 128 124 123 122 122 123 124 126 128 131 134 137 140 142 147 152 153 154 153 151 149 147 142 138 132 132 135 138 140 140 140 140 138 138 137 136 135 134 133 133 134 135 135 135 132 132 132 131 133 135 137 135 134 133 131 130 137 144 140 134 129 129 132 133 131 132 123 116 121 129 129 127 131 133 132 131 128 125 126 128 127 127 127 127 126 126 126 126 125 125 128 128 129 130 126 124 
121 96 90 84 79 76 73 69 69 69 72 73 72 71 68 66 67 79 96 115 132 146 155 152 143 131 120 105 91 83 84 84 84 81 76 70 67 69 71 72 72 74 72 73 72 74 76 83 89 94 101 113 123 130 136 144 150 155 160 165 167 166 167 168 167 164 158 153 152 147 141 135 130 129 131 137 141 144 146 146 142 135 130 128 129 131 133 136 140 143 148 153 159 163 167 171 174 176 177 176 176 177 175 173 171 170 169 168 167 168 169 170 172 176 176 174 173 172 172 174 175 176 177 177 176 172 167 163 158 153 149 148 151 151 152 153 153 152 151 148 146 145 146 148 148 148 152 156 157 157 156 153 151 151 150 149 149 147 146 147 148 149 150 148 148 150 146 141 140 137 136 134 134 135 135 134 134 134 133 133 131 130 131 130 129 129 128 126 125 127 129 130 133 135 135 135 135 132 129 129 130 131 134 134 134 134 135 135 137 139 141 140 139 139 139 138 141 145 149 157 162 165 170 178 185 188 187 183 175 169 162 154 150 150 154 156 156 156 154 149 142 138 137 134 133 130 128 125 125 124 124 126 127 129 132 134 134 137 139 140 144 150 152 152 152 153 151 148 143 138 135 137 139 140 140 140 138 136 136 137 135 134 133 132 131 133 135 134 133 131 129 129 129 132 134 135 134 133 132 129 128 131 141 143 136 133 130 130 131 130 132 128 117 116 125 128 128 131 133 132 130 127 124 126 128 129 127 127 128 126 128 128 128 126 126 129 129 128 130 124 122 
122 92 88 83 79 75 71 68 67 70 71 70 70 70 66 62 62 77 96 115 133 149 160 158 148 137 124 107 91 82 81 83 84 83 80 73 66 66 68 68 69 70 68 68 69 69 73 78 85 92 99 109 117 124 130 138 143 148 152 156 157 157 158 159 158 156 151 145 141 138 133 126 121 122 126 132 135 138 141 140 137 127 123 119 119 120 124 129 133 138 143 148 154 159 163 167 171 173 175 174 173 173 171 167 166 165 163 161 163 164 165 167 171 174 175 173 172 171 171 171 172 173 174 174 174 172 167 162 158 153 150 148 149 152 153 153 152 150 147 145 143 143 143 145 147 150 154 158 159 158 155 152 153 152 152 151 148 146 146 146 146 146 148 148 152 152 149 143 138 136 134 134 133 133 133 132 133 133 132 132 130 131 130 130 129 129 126 127 127 126 129 131 133 135 136 136 136 133 131 130 130 131 133 133 134 133 133 135 136 138 138 138 137 138 138 138 141 145 150 156 160 162 166 173 180 184 185 183 176 169 162 156 150 148 150 150 150 150 148 146 143 138 137 137 137 134 132 129 128 126 126 126 129 129 131 132 133 135 137 136 137 143 146 150 152 152 152 153 151 147 142 139 141 141 140 140 138 137 136 135 134 133 131 130 130 132 133 135 133 129 128 128 129 132 133 133 133 131 130 128 128 131 134 143 142 138 133 129 127 129 132 133 122 115 120 128 131 133 134 131 129 127 123 125 129 130 128 127 127 127 132 131 131 128 127 130 129 128 129 124 121 
121 89 86 81 77 73 71 67 67 68 68 69 69 68 64 57 59 74 93 113 132 149 160 161 152 141 127 108 91 78 77 81 82 83 82 76 69 66 65 66 67 66 64 65 66 67 71 78 83 90 95 105 112 118 125 130 135 139 142 145 147 147 149 150 149 147 143 137 132 127 123 118 115 115 121 128 132 134 135 134 128 118 113 112 114 116 118 120 124 130 135 142 148 154 159 163 166 168 170 171 170 168 166 164 161 158 157 157 157 157 160 164 167 170 172 172 170 169 169 168 168 169 170 171 170 170 168 163 157 154 152 150 150 150 151 150 150 149 145 141 140 139 140 144 147 151 156 157 158 156 154 153 152 151 152 149 146 144 144 145 144 143 145 147 151 150 146 139 134 133 131 131 130 131 132 130 131 133 132 131 130 131 131 130 127 127 125 127 128 129 130 132 133 134 135 136 135 133 132 132 131 132 132 132 131 132 133 134 135 136 137 137 135 137 137 137 142 148 151 155 158 160 163 169 173 180 181 181 178 172 164 157 150 147 147 146 146 145 143 143 141 138 141 141 140 138 133 130 128 128 128 130 130 130 131 131 132 133 134 134 133 134 138 144 149 150 152 154 155 156 152 147 142 141 141 138 137 138 135 134 133 133 131 131 130 132 134 134 134 129 127 127 130 133 132 132 133 132 128 126 126 131 132 138 144 141 138 130 128 130 131 134 128 118 115 125 133 135 133 131 129 125 124 126 130 131 129 127 126 127 135 134 134 133 130 131 129 128 128 124 120 
122 86 83 79 75 73 70 68 66 67 68 69 68 66 60 54 56 70 88 108 129 145 158 163 156 145 130 111 93 76 75 79 80 82 82 79 73 67 64 64 64 64 63 62 63 64 69 76 80 88 93 100 107 114 118 123 128 131 133 134 135 137 139 141 141 139 134 129 125 119 115 112 111 112 121 130 135 135 133 130 124 112 105 103 105 108 112 115 119 125 129 135 141 147 153 157 160 163 164 165 166 163 161 161 159 157 154 152 151 153 154 159 162 164 166 167 168 166 165 165 165 165 166 167 167 166 166 164 160 157 155 153 152 151 150 148 146 145 143 139 136 136 140 144 148 151 154 156 155 154 154 153 151 151 148 145 143 144 142 141 143 143 144 144 144 148 144 136 132 130 130 130 128 129 129 129 130 131 131 129 130 130 129 128 127 127 126 126 128 129 130 132 132 134 135 134 134 133 133 133 132 133 133 132 130 131 133 134 133 135 136 135 135 138 138 138 143 148 150 154 156 158 162 166 170 175 179 180 178 173 165 157 150 147 145 143 143 141 141 141 140 138 141 143 141 140 135 130 128 128 128 129 129 130 130 129 129 131 131 131 131 129 130 134 141 148 152 156 160 163 161 156 147 142 139 137 137 137 135 133 133 133 133 131 129 130 133 133 133 132 127 126 131 133 132 131 132 131 130 126 126 129 132 133 141 144 140 135 129 128 131 133 132 122 114 122 135 136 133 131 128 125 126 128 130 132 129 127 127 127 134 139 136 136 132 130 130 128 126 123 118 
122 82 81 78 75 71 69 68 67 67 66 66 66 63 59 54 52 63 82 103 124 142 156 165 159 147 131 112 91 74 71 75 79 81 80 81 78 70 65 65 63 64 63 60 62 62 67 73 79 84 91 96 102 108 113 116 120 123 125 123 124 128 132 134 132 130 127 122 117 113 111 108 109 112 123 132 138 139 136 130 125 116 105 102 99 100 101 105 111 118 124 128 134 140 145 149 154 158 159 160 159 158 158 156 155 154 153 151 150 150 152 154 157 159 159 162 163 162 161 161 160 160 161 162 164 164 165 164 162 159 157 155 154 153 153 149 146 142 141 137 134 138 142 145 148 152 153 154 154 153 151 150 148 147 145 143 142 140 139 140 143 142 142 143 140 141 143 136 131 131 131 128 126 126 127 130 131 130 129 127 128 128 127 128 130 130 130 128 129 132 133 134 132 133 134 134 134 134 133 133 134 134 135 134 132 131 132 134 134 134 134 135 136 138 137 138 143 147 151 152 154 157 161 164 167 173 178 181 180 174 167 158 149 146 144 141 140 138 138 140 140 137 137 138 140 139 135 130 127 127 128 128 128 130 130 130 129 128 128 128 128 127 126 126 134 142 150 157 163 166 166 163 154 146 139 137 137 137 136 135 133 133 132 129 127 128 131 132 132 132 128 128 131 133 133 132 131 130 130 127 127 129 130 131 133 142 140 137 131 128 129 130 133 127 116 120 133 137 133 130 127 124 125 126 128 129 128 127 128 126 131 139 138 136 133 131 130 126 125 122 119 
122 79 78 77 74 74 73 69 67 66 65 64 64 61 57 52 50 57 77 98 120 139 155 164 161 149 133 115 92 72 67 72 76 78 81 81 80 76 68 65 65 63 62 62 62 63 67 72 79 84 89 93 99 104 108 112 114 117 118 116 117 121 125 127 125 121 119 116 112 110 110 110 111 116 124 133 138 140 139 135 130 122 112 106 101 97 95 97 102 108 114 121 128 132 138 144 148 151 154 153 153 152 153 151 150 151 150 150 150 150 151 151 152 154 154 155 157 157 157 157 158 159 158 158 160 162 164 163 161 159 156 153 153 153 153 149 146 141 138 136 135 138 144 147 149 151 151 151 153 150 148 146 144 143 142 141 141 139 138 138 140 141 141 142 141 140 140 137 134 132 131 129 128 127 126 129 130 129 129 128 127 128 128 129 132 132 133 132 131 134 134 135 135 133 134 135 136 135 135 136 136 136 136 135 134 135 134 133 133 133 133 135 136 136 137 138 143 148 151 152 152 156 160 163 166 172 177 181 180 174 168 159 151 144 142 140 137 136 137 139 140 139 137 137 138 137 134 128 126 127 127 127 128 128 128 129 130 130 127 127 128 125 125 124 127 135 146 156 164 166 168 166 160 150 141 136 137 136 135 134 132 132 131 129 126 127 128 131 132 132 131 131 132 134 133 131 130 130 132 128 127 127 129 130 129 133 137 137 132 127 126 127 130 129 119 116 127 135 133 129 125 123 123 126 127 127 128 126 126 128 130 140 140 139 136 132 132 129 127 124 121 
124 77 76 75 75 74 74 71 69 66 64 63 61 58 53 50 49 52 71 94 116 137 153 163 163 150 133 116 94 73 66 70 74 76 80 82 82 81 74 68 67 66 63 64 64 65 67 72 79 85 91 94 96 100 103 106 108 110 110 111 113 115 119 119 117 116 113 111 109 109 111 114 118 124 129 135 139 140 143 141 135 126 119 110 103 98 94 95 97 103 107 113 120 125 132 137 141 145 147 148 148 148 148 147 147 147 147 147 149 148 149 149 150 151 149 149 150 152 152 152 154 154 154 156 159 162 162 161 159 155 153 151 149 150 149 146 143 140 140 139 138 139 143 146 150 151 151 150 149 145 144 142 140 141 142 140 138 137 137 136 137 139 140 141 142 140 137 137 137 135 133 131 128 126 124 126 128 129 128 128 128 128 129 130 132 134 135 137 137 137 135 134 135 135 134 135 136 137 137 138 139 139 138 137 136 135 135 134 133 131 133 135 136 137 137 138 143 147 150 150 152 155 159 163 168 173 177 180 179 174 168 160 151 145 141 138 135 134 136 139 139 139 137 137 137 136 134 129 126 127 126 126 127 125 126 128 129 130 129 126 126 126 123 123 125 128 139 152 163 166 167 166 163 154 144 139 138 137 134 132 131 132 129 129 127 127 127 130 131 131 133 132 133 133 132 132 130 131 132 130 128 129 130 130 129 126 131 135 134 127 124 125 127 128 123 114 119 131 132 127 123 123 123 124 125 127 127 127 126 128 129 139 143 141 140 134 132 130 128 125 122 
123 74 75 75 74 74 74 72 69 68 67 64 63 57 52 49 46 48 64 88 111 132 149 160 162 151 134 116 97 76 69 72 74 75 78 82 83 84 81 77 72 71 68 67 67 66 69 74 80 86 91 94 96 97 99 101 103 102 105 108 110 110 110 110 110 110 107 107 107 108 113 117 123 130 138 143 143 145 148 146 139 129 122 114 106 97 93 94 96 99 103 109 115 122 129 134 136 139 141 142 143 142 143 142 142 143 143 145 147 147 147 147 147 146 146 144 145 147 147 147 148 149 152 156 159 161 161 159 157 153 150 147 144 144 146 144 143 143 145 143 140 141 145 148 148 148 149 147 143 141 141 139 139 139 138 137 137 136 136 136 136 138 139 139 140 139 138 136 138 137 134 132 128 127 125 125 127 129 129 128 129 130 130 130 132 133 135 138 139 139 137 134 135 136 134 136 137 138 140 140 140 140 140 139 139 137 136 136 135 133 134 136 136 138 137 139 144 148 151 150 152 155 158 162 168 174 177 179 176 171 166 158 150 145 141 138 135 134 134 137 138 139 137 136 137 136 135 133 129 127 126 126 127 125 126 128 130 131 130 128 126 126 123 123 125 127 132 144 156 163 164 164 161 155 148 143 137 134 132 134 133 133 130 129 129 129 127 129 132 133 134 132 133 132 131 131 130 131 132 132 129 129 130 130 130 125 124 129 131 129 124 122 123 125 127 117 114 123 129 124 121 122 122 122 123 126 127 127 128 128 128 137 146 145 142 135 132 130 128 128 123 
123 71 72 72 74 74 75 73 70 68 67 66 63 59 54 48 46 47 58 81 105 128 146 156 158 151 133 113 96 78 73 75 75 77 79 80 83 86 86 84 78 75 75 71 70 72 72 76 81 86 90 94 98 98 96 98 99 99 101 103 105 104 102 102 104 105 104 104 105 108 114 121 129 136 145 152 156 154 152 149 142 132 124 116 108 97 90 91 97 98 102 108 115 121 127 133 135 136 135 136 136 137 138 137 138 138 140 142 146 148 147 146 144 143 141 142 141 144 146 144 144 146 150 155 156 159 159 156 153 150 145 141 138 140 143 144 146 146 147 146 143 143 146 148 147 145 143 142 141 139 139 137 135 134 134 134 135 135 134 134 136 136 137 138 138 138 137 136 136 138 136 135 132 128 128 128 128 128 128 129 129 130 130 132 133 134 136 138 140 139 137 136 136 136 136 139 139 138 140 141 141 141 141 140 140 139 138 137 135 134 136 136 136 137 136 139 144 147 149 150 152 155 158 162 168 174 176 176 173 169 163 156 149 144 142 140 138 135 133 136 138 137 138 136 136 135 135 133 129 130 129 127 127 126 126 127 130 130 129 129 128 126 125 126 127 127 130 135 146 156 161 159 156 154 150 145 138 133 131 133 134 134 131 130 130 130 129 130 132 134 135 135 133 131 129 129 129 131 133 131 130 130 129 128 130 125 121 122 128 129 126 122 122 123 130 124 113 115 122 120 117 117 118 120 122 125 126 127 128 128 128 136 148 147 143 137 131 130 128 128 125 
122 69 69 70 72 73 73 72 70 68 68 68 64 59 54 53 51 48 55 78 101 123 140 149 150 144 125 105 91 77 75 77 78 78 81 83 84 87 89 89 85 81 80 80 76 76 76 79 82 86 90 94 98 100 97 96 96 97 96 97 97 97 97 97 99 101 102 103 105 109 116 123 130 141 151 156 161 161 157 151 144 136 125 117 107 95 87 90 95 99 102 106 113 120 127 132 135 136 134 131 130 130 130 131 133 135 138 141 143 145 147 145 142 140 138 138 139 142 146 146 144 145 149 151 153 154 154 152 146 143 139 135 136 141 143 144 146 147 148 147 146 146 145 144 144 141 139 139 139 138 137 134 132 133 131 132 134 134 132 133 135 135 137 138 139 137 137 136 135 137 139 137 134 132 131 131 130 129 130 131 131 131 131 133 134 137 137 139 140 139 138 137 136 136 138 138 139 139 141 142 142 143 143 142 140 140 140 138 136 137 137 136 136 138 136 139 145 146 148 150 153 155 158 161 167 172 173 173 170 166 160 153 147 142 141 139 138 136 136 137 137 137 138 137 136 134 133 132 129 129 129 129 129 127 127 127 128 131 130 130 130 128 127 127 127 128 130 135 139 147 155 157 154 153 151 149 142 136 133 132 133 133 132 132 130 129 130 131 133 136 136 136 133 129 129 128 130 131 131 130 130 129 128 126 129 126 120 118 123 127 128 126 121 124 131 130 118 114 116 118 115 115 115 118 119 123 125 127 127 128 129 134 147 148 144 138 132 129 130 129 127 
123 70 69 70 71 71 72 70 70 70 69 69 67 61 57 55 53 53 57 76 97 118 131 139 140 132 115 95 83 76 77 80 80 78 80 85 87 89 90 93 91 88 85 84 83 82 82 82 85 87 89 93 97 98 98 97 92 94 94 91 90 92 92 95 97 98 99 102 105 110 117 125 132 142 152 157 158 160 157 151 144 135 125 114 104 92 86 88 93 97 102 108 114 121 127 132 135 134 133 129 127 126 125 124 126 129 134 138 142 144 146 144 141 139 138 137 138 140 146 147 147 147 147 148 149 148 147 145 141 136 134 134 136 139 142 145 148 150 151 149 146 146 145 141 140 138 136 137 136 134 135 132 131 134 133 132 134 132 132 133 134 136 136 137 139 138 138 138 138 136 138 139 136 134 132 132 132 131 131 131 132 133 133 133 134 136 138 139 140 140 139 138 138 138 138 139 139 139 138 143 143 143 143 143 141 140 140 138 140 139 138 136 136 138 137 139 143 144 146 150 153 155 157 160 164 168 171 171 167 163 158 152 145 141 139 138 138 138 138 139 137 136 135 136 136 135 134 131 129 128 129 128 129 130 130 129 130 131 132 131 130 130 130 128 127 127 130 133 138 141 148 154 155 153 154 151 147 141 136 134 134 133 133 132 131 129 129 129 133 137 137 136 131 128 128 129 129 129 130 129 127 126 125 124 125 125 120 115 118 125 129 127 123 123 129 132 126 116 114 115 115 113 114 116 117 119 124 125 127 130 130 132 145 147 144 138 131 131 132 131 129 
125 70 70 69 69 70 70 71 72 70 70 69 68 65 62 59 57 57 58 71 91 108 121 129 132 120 105 87 80 79 81 82 84 82 79 81 88 91 93 95 96 94 92 90 89 89 87 87 86 87 91 92 96 98 98 99 94 91 91 88 88 89 90 92 95 96 98 101 104 112 121 130 138 145 152 157 158 157 154 150 141 133 121 108 100 91 85 89 93 96 101 108 116 124 130 133 136 136 133 129 126 124 124 123 124 127 129 134 138 141 143 143 141 139 138 138 138 141 145 145 147 147 144 144 143 142 142 141 138 136 136 135 135 137 141 145 150 156 158 156 148 143 141 140 137 137 135 135 135 132 132 131 131 133 136 136 134 133 134 134 133 135 136 138 140 141 139 140 140 139 139 139 137 136 136 133 132 131 132 132 133 134 134 134 137 137 139 141 140 141 141 138 137 138 139 139 139 139 139 141 143 144 144 143 144 142 140 139 140 140 139 137 135 135 135 139 142 144 145 150 152 154 157 156 160 167 169 168 165 162 157 150 144 140 139 139 138 137 137 139 140 138 135 134 134 134 133 131 129 127 127 128 129 129 129 131 131 132 132 133 132 131 132 129 129 128 129 131 134 138 142 148 154 154 154 153 150 147 142 137 135 136 134 132 132 130 129 132 134 138 139 136 131 128 128 129 129 130 129 127 125 124 124 123 122 122 119 116 113 120 128 128 125 126 130 130 131 119 113 114 115 113 113 114 116 119 120 124 126 131 131 132 144 147 144 137 132 132 132 132 131 
128 71 71 71 71 70 71 72 71 72 72 72 69 67 66 65 64 64 64 69 85 99 110 118 120 112 98 85 82 82 84 87 88 88 84 80 85 92 96 98 100 100 98 97 97 96 92 92 92 91 92 93 95 98 100 99 98 91 87 85 85 86 88 90 93 95 97 100 104 109 119 132 142 149 154 158 160 157 153 148 139 128 116 107 100 91 88 90 93 97 101 109 117 125 131 134 137 138 135 130 127 125 124 124 125 127 128 132 134 137 140 141 140 139 138 138 138 141 143 144 144 144 142 140 136 137 141 141 139 139 137 136 137 138 141 145 149 155 158 158 155 145 139 139 139 137 134 133 134 131 128 128 131 134 135 135 136 135 135 135 136 137 138 139 140 139 138 140 140 141 139 138 139 137 136 135 133 133 133 134 134 135 134 135 138 140 141 141 141 141 141 140 137 136 137 138 138 138 139 140 141 144 145 144 143 143 141 142 141 141 140 138 134 133 134 138 140 143 146 150 153 154 155 155 160 165 167 166 165 162 156 150 144 140 139 138 138 137 137 138 140 141 138 134 132 131 131 130 128 127 127 127 129 129 130 131 133 134 134 135 133 133 132 130 128 127 128 130 132 134 137 143 149 153 154 154 153 152 148 142 137 137 135 134 133 133 133 136 137 140 141 137 132 130 130 130 130 130 129 127 123 122 122 121 120 119 118 116 114 118 126 129 126 129 130 130 131 124 114 112 114 114 111 113 116 117 121 123 125 129 131 132 142 145 142 138 133 132 132 132 132 
131 72 72 73 73 73 73 74 74 74 74 74 72 70 69 68 69 68 69 68 77 88 97 103 106 102 89 85 85 86 87 90 91 92 91 84 82 90 97 100 103 106 105 103 102 103 100 97 97 97 97 94 95 97 99 99 97 94 87 83 82 83 88 90 91 93 96 99 104 111 117 126 139 149 155 158 158 156 151 146 135 124 116 108 101 94 90 92 95 99 104 111 119 128 134 137 139 140 136 132 129 127 126 126 126 127 129 131 133 135 137 138 137 136 137 139 140 140 141 142 141 140 139 140 138 140 143 140 138 139 138 137 138 141 143 144 147 149 151 153 154 152 146 139 137 136 133 132 132 131 127 128 130 133 134 135 135 136 136 136 136 138 139 140 142 140 141 142 142 141 140 138 138 139 138 137 135 134 133 134 135 135 135 135 138 140 142 141 142 142 141 140 138 136 136 136 137 136 136 138 140 141 143 144 144 143 143 144 143 142 140 137 135 132 133 136 140 143 147 150 152 153 154 156 160 164 165 164 163 160 156 150 145 140 139 138 138 138 137 138 140 139 139 136 134 130 130 130 128 127 126 127 128 129 130 130 133 135 136 137 136 134 131 131 130 128 126 127 130 130 134 138 143 149 153 154 155 154 152 147 141 138 136 135 135 134 135 139 139 140 144 140 136 134 131 131 131 129 128 125 122 122 122 120 118 118 117 117 118 118 124 128 129 131 131 131 130 127 115 111 113 114 113 113 115 116 119 122 125 128 128 130 140 145 141 137 133 132 132 131 131 
130 72 73 75 75 76 76 76 76 76 76 76 74 73 74 72 71 70 71 71 73 79 85 88 90 88 84 82 87 90 91 93 94 96 96 91 86 86 94 100 104 109 109 108 107 106 106 102 99 99 99 98 97 97 98 98 97 94 91 84 81 82 87 90 91 93 95 98 104 111 116 123 132 144 152 156 154 152 149 142 133 124 116 109 104 98 95 96 100 103 108 115 123 131 137 139 141 140 138 134 131 129 128 128 127 128 129 131 133 135 136 138 135 134 134 135 138 141 142 142 142 141 143 142 141 141 140 139 138 138 138 137 139 141 143 141 140 141 143 146 148 150 151 146 138 135 132 131 131 131 128 127 131 133 134 136 137 137 137 138 138 139 141 141 142 142 142 144 143 141 140 141 138 139 139 137 136 135 134 133 135 135 136 137 140 141 141 141 142 142 140 140 140 136 136 135 135 135 134 135 137 138 140 141 143 144 145 144 143 143 140 136 133 131 131 135 140 144 147 150 151 152 152 155 158 163 163 162 161 159 156 151 144 140 138 137 137 137 136 136 139 140 139 138 136 135 132 130 127 125 124 126 127 129 129 130 132 135 135 136 137 135 135 134 133 129 127 126 128 130 132 135 137 142 149 153 154 156 155 152 146 140 137 135 134 134 137 140 140 142 144 144 140 136 132 131 130 129 127 125 122 121 121 121 119 117 117 117 121 120 124 126 131 132 133 134 132 127 118 113 113 115 114 113 114 116 119 120 127 128 128 130 137 144 140 138 133 131 131 131 130 
129 73 75 76 76 76 78 77 79 79 80 79 78 77 77 75 74 74 73 73 74 74 76 78 79 81 83 86 88 91 93 94 97 96 97 97 92 88 92 98 105 109 112 113 112 111 109 107 103 101 100 101 101 99 98 99 97 96 95 89 83 81 86 89 92 94 95 100 105 110 115 123 130 138 146 151 151 148 146 140 133 126 118 112 108 103 99 101 105 107 113 119 127 133 138 142 141 140 138 136 131 130 130 130 131 130 130 132 134 134 136 137 135 133 132 132 135 139 144 145 146 145 145 145 144 141 140 139 139 137 138 140 140 138 138 136 132 131 131 136 141 143 147 150 145 137 132 130 128 130 128 128 132 135 136 136 138 138 138 140 140 140 142 143 143 145 145 144 143 142 140 140 140 138 138 139 137 136 135 134 134 135 136 139 142 142 142 141 140 140 140 139 138 137 136 135 134 134 133 133 135 137 138 139 141 144 145 144 143 143 140 135 133 131 131 136 141 144 146 151 152 152 151 155 159 162 163 163 162 160 155 148 144 139 136 136 136 137 138 136 138 139 139 139 138 137 135 132 130 126 123 124 124 126 127 129 130 133 134 136 136 135 136 136 133 131 131 128 128 130 131 133 135 137 143 149 152 154 156 155 150 143 137 134 133 136 140 142 143 141 143 145 141 136 133 131 130 129 128 125 124 122 122 122 120 118 117 117 121 122 124 126 129 131 133 135 132 127 120 114 113 115 116 114 115 116 116 120 125 128 129 128 135 143 141 138 132 130 129 130 130 
129 75 76 77 78 78 78 79 80 83 83 83 82 82 81 79 79 78 77 77 76 76 76 75 75 76 80 85 89 93 95 96 96 97 97 97 98 94 90 95 103 108 112 116 115 114 112 112 109 104 103 102 102 101 100 101 101 100 98 95 90 85 89 92 95 97 99 104 107 112 115 121 129 137 144 146 149 147 145 143 137 130 123 117 113 106 104 106 109 115 118 123 130 136 140 144 148 159 164 157 148 140 135 133 132 132 133 135 134 135 136 136 135 134 133 134 136 140 146 148 150 150 149 148 146 143 142 142 140 139 140 138 137 132 131 130 129 126 125 125 132 139 144 148 149 144 135 129 127 128 128 128 134 136 137 140 139 140 141 142 142 141 142 142 145 147 147 145 142 140 139 139 138 137 136 138 139 138 135 133 134 135 137 140 140 141 142 141 140 139 138 137 136 137 137 136 134 132 132 133 134 134 136 138 141 143 144 144 143 142 139 135 131 128 131 136 140 143 147 151 153 151 150 155 159 162 165 163 161 159 155 148 143 139 137 136 137 137 137 136 136 139 140 138 138 138 137 134 130 127 124 123 123 123 124 126 128 129 132 134 135 135 137 137 135 133 132 133 131 132 133 134 133 135 139 144 149 153 156 155 153 148 141 135 134 141 145 145 146 143 143 145 142 138 133 130 130 128 127 126 125 124 122 122 121 121 120 119 119 123 126 127 126 128 131 134 132 126 122 117 115 117 118 117 116 115 117 122 124 126 128 128 134 143 141 136 132 130 128 128 129 
128 76 78 78 80 80 81 82 84 86 87 88 87 86 85 85 84 82 81 78 80 79 78 77 76 74 76 81 87 91 95 96 96 96 97 98 101 99 95 94 101 109 113 116 118 117 115 115 114 110 108 109 107 108 107 105 106 105 104 101 96 88 91 95 98 100 104 107 108 112 116 120 127 137 141 146 149 148 147 146 141 135 128 122 117 110 108 109 115 119 123 126 132 137 141 144 150 166 173 166 164 161 157 150 142 137 135 136 136 137 136 136 137 138 139 141 142 144 149 150 152 153 152 151 150 147 145 144 144 142 138 133 131 127 127 127 125 124 121 119 124 131 140 146 149 148 141 132 126 127 127 130 135 138 140 142 141 141 142 144 145 144 144 143 143 145 147 144 141 141 138 138 139 137 136 137 139 138 136 133 133 134 137 140 141 141 141 140 139 138 136 134 134 135 135 135 133 133 132 132 133 132 135 138 140 143 143 142 142 140 136 132 129 127 131 136 140 143 146 152 153 151 150 154 158 161 163 161 158 158 156 149 144 139 137 137 136 138 138 137 137 138 140 139 137 138 137 135 132 129 126 123 123 124 124 124 124 125 128 130 132 134 135 135 136 135 134 134 134 132 133 132 133 133 134 138 145 151 153 155 154 152 147 141 139 143 148 149 149 147 142 143 144 139 133 130 128 130 127 126 125 125 124 122 124 122 121 120 120 120 124 128 126 125 128 131 131 126 124 119 116 117 118 118 118 116 117 122 123 125 127 127 130 142 141 137 132 129 128 127 128 
127 78 80 80 81 83 84 84 86 89 90 90 89 87 86 86 85 84 82 80 81 82 81 80 79 77 76 79 82 86 91 95 98 97 97 99 99 103 101 96 99 108 114 116 118 118 118 117 116 116 112 113 114 115 114 113 111 110 107 105 103 95 95 99 102 104 106 110 112 113 117 121 126 133 139 144 149 150 150 148 143 138 131 124 119 117 114 115 119 123 128 131 135 140 144 147 148 149 149 148 152 158 162 163 159 154 147 142 140 138 140 141 142 144 145 146 146 147 150 152 153 155 154 155 154 150 148 146 143 139 136 133 131 129 128 126 126 124 120 121 125 128 135 144 148 149 145 137 130 127 127 132 135 137 141 144 143 144 145 146 147 145 146 144 143 143 144 141 141 138 137 136 138 136 136 135 139 138 136 134 133 135 138 140 141 142 141 139 137 137 135 134 131 134 135 135 135 133 132 132 133 132 135 139 140 142 142 142 140 138 135 130 126 127 133 137 140 142 145 150 152 151 150 154 157 160 161 159 157 156 154 149 145 140 138 136 137 139 138 137 138 140 142 141 140 139 138 134 132 130 127 125 123 123 124 124 124 124 126 126 128 131 132 133 134 137 136 136 136 134 133 131 131 132 132 134 138 145 152 154 155 154 152 147 143 145 149 152 153 151 143 142 143 141 135 128 125 128 128 126 127 126 124 124 125 123 123 121 121 120 119 124 126 124 125 127 126 125 124 121 116 116 119 118 119 117 118 122 122 124 126 125 129 140 141 137 132 129 128 128 126 
123 76 78 80 82 85 86 87 88 90 92 91 89 89 86 84 85 84 82 82 84 90 94 93 89 85 82 79 80 87 91 92 97 100 99 100 101 103 104 103 102 106 114 117 119 120 120 121 121 120 117 115 118 122 119 120 120 119 116 113 110 104 99 101 106 108 110 112 115 115 117 122 126 131 137 142 148 151 151 149 145 140 134 128 125 125 125 126 129 131 136 138 142 145 148 152 151 149 150 148 146 148 151 154 155 158 160 158 153 149 146 147 148 149 149 149 148 149 150 150 153 154 154 154 155 153 148 143 140 138 138 136 133 133 132 131 128 125 125 126 127 129 131 138 147 150 148 143 136 129 129 133 137 140 142 143 144 145 148 149 148 145 145 144 143 142 141 139 138 138 134 133 134 133 135 135 136 140 138 137 135 135 137 139 141 142 141 139 138 137 136 134 132 134 134 135 136 134 132 132 132 134 136 138 140 141 142 142 141 138 134 128 126 128 135 139 141 143 145 148 149 150 149 153 156 159 160 157 156 153 154 150 145 141 138 137 138 138 137 137 138 140 142 143 142 141 141 138 134 130 128 125 123 123 123 122 124 123 124 125 126 127 128 131 133 137 137 135 136 135 132 130 129 130 131 130 132 138 145 152 154 155 155 152 148 148 151 154 155 151 142 140 143 141 135 127 125 126 127 127 128 127 126 126 126 124 124 122 121 120 118 121 125 124 123 125 124 123 123 123 117 114 120 119 118 119 121 123 124 124 125 124 127 140 142 137 130 127 126 127 124 
119 75 78 78 80 84 86 86 89 91 91 91 89 88 87 86 85 86 85 89 95 102 105 105 102 97 91 84 86 92 95 94 95 102 105 104 104 106 108 109 107 106 110 118 118 119 123 123 123 122 121 120 121 125 125 126 125 124 122 120 117 115 110 108 110 113 115 118 119 119 119 122 126 130 137 143 150 153 152 150 148 144 140 136 133 134 135 135 138 139 141 144 146 149 152 153 152 152 152 150 150 149 149 151 152 155 157 159 161 160 158 155 153 151 149 149 148 146 146 149 151 151 152 153 153 151 146 141 140 139 138 138 136 136 136 133 130 130 129 129 131 132 134 135 143 150 151 147 141 137 131 134 139 141 143 143 146 148 149 150 148 144 145 145 144 142 140 140 136 134 133 131 132 133 135 134 134 138 139 138 138 135 136 138 140 141 141 140 140 139 138 136 136 135 135 138 137 137 135 133 134 135 137 139 139 140 141 140 139 136 131 126 126 129 135 140 142 143 145 147 148 148 146 150 156 159 160 157 155 154 152 149 146 141 138 138 138 138 137 137 138 142 144 145 144 142 141 140 136 130 128 125 124 123 123 122 122 123 123 124 125 126 126 127 130 134 136 135 136 136 133 130 128 128 129 127 128 129 137 147 152 154 156 156 153 154 157 159 156 151 142 140 144 143 137 129 125 125 126 127 128 128 127 127 127 125 125 123 121 120 120 121 124 126 124 124 124 123 123 123 119 115 119 120 118 120 127 126 125 124 124 121 126 140 142 139 130 126 127 125 122 
120 76 76 78 81 83 84 87 89 89 91 90 90 87 86 86 85 88 93 99 108 114 115 113 110 105 97 94 95 98 103 102 98 100 107 108 106 107 108 109 109 108 109 113 119 120 121 124 126 125 124 124 126 129 131 128 128 129 127 125 122 121 120 119 120 122 123 124 124 125 124 124 128 133 137 145 151 154 155 154 151 147 144 139 139 142 141 142 144 145 146 147 149 152 152 151 150 151 151 151 151 151 153 156 157 158 158 158 155 155 159 161 162 159 153 147 144 143 142 145 146 148 149 150 151 149 147 143 141 140 140 139 139 138 136 135 134 133 133 134 135 138 139 140 141 146 150 149 147 142 136 134 137 141 143 144 147 148 149 148 147 144 145 145 144 141 140 139 136 133 132 130 131 132 133 133 132 135 138 138 139 138 137 139 141 142 142 142 140 140 138 135 136 136 136 137 138 139 138 138 137 138 139 140 140 141 141 138 136 132 129 125 124 129 135 140 143 144 144 145 145 145 146 148 153 157 159 157 157 155 151 149 147 143 139 139 139 139 138 139 140 142 143 145 144 144 142 141 138 133 127 125 124 123 122 122 122 122 122 123 125 126 127 127 129 134 138 135 135 135 134 130 127 127 128 126 126 125 129 139 147 152 156 159 161 163 164 162 155 150 142 139 145 144 138 130 125 124 125 127 128 129 128 129 127 125 125 124 122 120 119 121 125 125 123 123 124 124 121 122 121 116 117 121 119 125 129 128 126 123 123 122 128 142 144 140 133 125 125 124 121 
121 74 75 78 79 83 83 86 89 90 91 91 89 88 87 85 87 94 103 109 118 120 123 121 116 111 104 101 103 107 111 113 107 101 104 109 109 108 109 110 111 110 110 112 117 120 120 122 126 126 126 127 129 131 132 131 131 132 132 129 127 126 124 124 128 130 131 131 132 133 132 131 132 136 141 147 151 153 154 153 151 148 145 143 143 145 146 147 148 149 150 150 151 153 153 151 151 152 153 154 155 157 158 160 160 161 161 159 157 154 151 153 157 161 162 157 146 138 135 135 140 145 147 148 148 150 148 144 143 142 142 142 139 138 138 137 137 137 137 136 137 140 142 144 143 142 147 149 147 146 141 136 135 139 143 145 146 147 147 145 145 143 144 143 141 139 139 138 136 132 131 129 130 130 131 133 133 133 137 139 141 141 139 140 143 144 145 144 140 137 136 135 134 135 135 135 136 138 139 140 140 140 141 142 143 142 142 139 134 130 128 124 124 130 135 140 142 143 144 144 143 143 146 148 150 154 157 158 156 155 152 149 147 145 141 140 139 139 138 138 138 140 142 144 145 145 143 143 141 137 131 126 123 123 122 119 120 120 119 120 124 126 127 128 130 136 139 139 136 134 134 131 128 129 129 127 125 121 120 130 141 151 158 163 169 172 169 164 155 148 141 137 144 145 141 132 125 123 123 124 128 130 130 131 128 127 128 126 122 119 119 120 123 124 123 124 126 124 123 123 123 118 118 120 124 128 130 129 127 123 124 126 130 143 146 141 134 126 124 123 122 
124 72 73 77 80 83 82 86 87 89 90 89 90 89 87 87 92 101 108 119 124 128 129 128 123 119 114 111 114 118 119 121 118 108 103 108 112 111 111 111 112 113 112 113 116 119 120 120 123 125 126 128 131 132 135 136 134 134 134 131 129 129 128 130 133 135 137 136 137 138 139 140 138 140 143 146 150 154 154 153 151 148 145 144 145 146 147 149 150 150 152 152 152 151 152 151 153 155 156 158 158 159 159 159 160 161 160 159 157 158 157 150 145 146 153 160 160 149 135 129 134 142 146 146 149 148 147 146 144 144 143 143 141 140 141 141 140 140 139 138 140 142 144 145 144 143 143 146 146 146 145 142 137 136 140 143 145 144 144 142 142 142 141 141 140 138 138 137 135 133 131 129 129 129 128 131 133 132 135 140 142 143 142 141 141 142 143 141 138 135 134 134 133 134 134 133 134 136 139 140 140 141 142 145 145 143 143 140 134 131 127 124 125 131 136 140 142 143 142 143 141 140 143 148 149 151 154 155 155 155 153 151 148 144 142 141 139 139 138 137 137 139 141 145 144 144 143 144 141 138 133 128 123 123 122 120 118 119 119 119 122 125 127 127 129 133 138 142 140 138 137 136 134 132 130 129 126 121 118 122 133 148 161 172 177 179 175 166 155 146 137 135 144 146 142 133 125 122 122 124 126 129 130 130 130 129 130 128 122 118 119 121 122 124 123 126 128 126 124 123 122 121 118 121 128 130 131 131 129 127 124 126 131 143 147 142 135 127 125 122 123 
124 71 73 75 79 80 82 84 86 87 88 90 89 89 87 90 98 106 115 125 132 135 135 134 129 127 122 119 122 126 126 126 128 120 108 106 110 113 113 115 116 115 114 114 115 117 119 120 121 124 127 129 131 133 135 138 138 137 136 133 132 130 131 132 136 138 139 140 140 141 142 143 143 145 145 148 151 155 155 155 153 149 146 145 146 147 149 150 151 151 152 153 152 151 151 153 155 157 157 157 157 156 156 156 157 158 159 157 158 159 158 153 146 139 139 145 153 158 154 143 136 140 146 148 149 149 147 146 144 144 143 144 143 143 143 142 142 142 140 139 141 144 145 146 147 145 143 142 144 145 146 145 140 136 138 141 143 143 141 141 140 140 140 138 138 138 138 136 135 133 131 130 130 130 130 131 132 132 133 139 141 144 145 141 141 141 140 139 137 134 132 132 132 132 133 133 134 135 138 139 140 141 143 145 145 144 141 139 134 131 127 123 127 132 136 140 142 142 142 142 139 138 142 148 150 150 151 153 155 154 154 151 150 145 142 140 139 138 136 135 137 138 142 145 144 145 146 146 144 140 133 128 124 124 123 121 119 119 121 120 122 123 125 127 127 131 135 139 141 141 140 140 138 136 131 129 125 122 120 121 132 148 163 176 181 182 178 170 157 144 133 133 143 146 143 133 125 123 123 123 124 128 129 129 131 130 128 128 123 118 119 120 121 124 124 128 130 130 126 124 124 123 120 123 130 132 131 130 130 128 124 124 128 142 145 142 135 129 126 123 123 
125 70 72 75 77 79 82 82 86 86 87 88 89 89 89 94 102 111 120 130 137 140 142 139 133 129 123 123 125 129 131 131 131 128 119 110 110 114 115 115 117 116 115 116 114 116 117 118 120 123 126 129 131 132 133 135 138 137 136 135 133 134 135 136 138 139 140 141 141 142 143 144 143 145 149 152 152 154 156 155 153 151 148 147 146 147 148 148 149 150 152 153 153 152 151 152 153 154 154 154 154 153 153 154 153 155 157 159 159 157 152 148 143 139 135 132 136 146 153 157 154 150 148 148 150 150 148 146 143 143 143 143 143 144 143 140 141 141 141 140 141 143 145 146 148 147 144 142 140 142 144 145 144 140 138 139 141 140 139 138 139 139 138 136 136 137 139 137 136 134 133 132 130 131 132 130 131 132 132 136 141 144 146 142 140 140 139 138 137 134 132 131 130 130 129 132 133 134 135 138 141 143 145 146 145 144 141 139 136 132 127 124 129 133 136 139 142 141 141 139 137 138 142 146 149 149 150 151 153 154 153 151 149 148 144 139 137 137 136 135 135 136 140 145 147 146 148 148 146 143 137 131 126 124 123 122 122 123 124 124 124 124 124 127 129 133 134 137 140 142 140 141 142 139 135 131 127 125 123 125 134 148 161 173 182 182 177 170 158 143 132 131 142 147 143 133 125 123 123 124 125 126 128 129 130 130 130 129 124 120 120 120 121 123 124 128 132 130 126 126 125 126 124 123 129 132 131 131 129 125 124 123 126 139 142 141 133 128 126 125 124 
124 71 72 75 77 79 81 82 84 85 85 87 87 87 90 97 106 116 125 132 139 143 142 136 132 128 124 124 128 131 133 132 131 130 126 120 113 113 116 118 117 117 117 116 115 116 116 117 119 121 123 124 127 130 132 134 137 137 136 137 135 135 136 138 140 141 141 142 142 142 141 142 142 143 147 150 153 154 155 154 153 151 148 145 144 143 144 144 146 148 151 152 154 156 155 154 155 155 155 155 154 152 152 153 154 156 155 156 155 151 148 145 141 137 134 129 128 133 139 146 154 158 158 154 151 149 147 146 143 142 142 141 140 141 142 140 140 139 140 140 139 141 144 145 145 146 144 141 136 137 141 143 145 144 139 137 140 139 138 139 138 136 136 136 136 138 138 138 136 136 134 132 131 132 131 130 129 131 131 134 139 144 145 143 138 138 137 139 138 134 131 129 128 128 129 130 132 134 136 139 142 144 148 149 146 144 140 137 135 131 126 122 127 133 137 139 142 141 142 139 135 135 139 144 147 148 147 148 151 153 153 151 149 148 145 141 137 136 136 134 132 135 140 144 147 148 148 148 148 144 138 134 129 126 122 123 122 123 126 126 125 125 123 125 130 133 134 137 139 141 141 141 141 142 138 135 132 128 129 132 136 145 156 167 175 178 174 166 156 145 136 131 141 146 142 134 126 123 124 125 125 124 126 128 129 129 129 128 125 124 121 119 121 122 124 126 131 131 127 125 126 127 122 119 128 132 130 130 127 123 122 120 125 137 140 139 132 127 126 126 125 
124 72 73 75 77 79 81 81 82 84 84 86 86 88 92 100 109 120 129 135 142 142 135 130 128 126 124 125 129 130 133 133 133 130 129 127 121 116 116 119 120 117 117 117 115 115 116 117 119 120 121 123 125 128 130 132 134 136 137 138 138 137 138 139 140 141 142 142 141 140 140 139 137 139 143 146 149 151 153 153 153 151 148 144 143 141 141 142 144 147 149 153 157 158 159 157 156 157 158 158 157 155 154 153 154 154 152 150 149 150 148 144 142 141 136 129 130 131 134 137 139 147 155 159 158 153 148 146 144 142 143 142 142 141 141 141 140 140 139 139 140 140 142 143 144 144 142 140 136 134 139 141 143 144 143 139 139 138 137 138 137 135 136 137 137 138 139 140 138 136 136 132 132 132 131 129 129 130 131 134 138 143 146 146 139 136 135 138 140 138 130 126 127 128 130 132 132 136 139 143 144 146 150 151 148 146 140 137 133 131 127 124 129 134 138 139 142 142 141 140 136 134 138 143 146 148 148 147 149 152 152 151 149 147 145 141 137 136 135 133 132 132 137 142 145 147 146 146 146 142 138 134 130 129 125 123 121 122 126 126 125 124 124 124 128 133 136 137 138 141 142 142 142 141 139 138 136 133 133 134 138 143 150 159 166 169 165 160 155 149 142 136 141 146 142 134 126 124 124 126 126 126 124 126 128 128 128 127 127 127 126 121 121 123 123 126 129 131 128 125 126 129 121 115 123 131 128 126 126 123 122 121 125 137 139 135 129 126 128 126 124 
124 73 74 76 78 80 80 81 83 83 84 85 87 89 95 105 114 123 130 136 141 138 132 129 126 126 125 126 128 130 132 131 130 128 128 127 126 121 116 116 119 119 118 120 119 118 118 118 118 118 120 122 125 128 129 131 132 132 133 136 139 140 141 141 140 139 140 143 141 139 138 136 133 134 138 140 144 148 151 152 154 153 149 146 145 143 141 140 142 146 150 154 157 159 160 158 157 158 159 159 157 155 153 151 150 153 150 148 150 155 155 153 151 146 139 134 134 134 136 138 137 138 143 149 157 160 155 150 146 142 144 144 143 142 142 141 141 140 140 140 140 139 138 141 142 143 142 140 137 135 136 139 142 143 145 142 137 137 136 135 137 135 135 137 137 137 139 140 138 136 135 133 131 130 131 129 129 130 132 135 135 142 148 148 142 135 134 138 139 140 134 129 128 129 132 135 138 140 142 145 147 147 150 151 149 146 142 138 136 133 130 129 132 136 139 140 140 140 140 138 137 137 138 141 146 149 149 147 147 149 151 150 148 145 144 143 139 136 134 133 131 134 138 141 143 144 145 145 144 141 137 132 130 129 127 124 122 122 124 126 125 125 124 124 128 133 135 137 139 139 140 143 145 142 139 137 137 136 136 136 136 139 144 149 154 158 158 156 154 153 148 143 145 146 142 134 125 123 125 125 125 124 124 122 125 128 127 127 129 131 130 127 126 127 123 126 128 130 129 127 129 131 123 114 119 129 127 122 121 121 120 122 127 138 138 135 128 124 127 126 123 
125 74 76 79 80 82 84 85 85 86 86 87 89 91 98 108 116 125 131 137 141 136 131 129 129 129 129 129 128 128 127 128 128 127 127 126 125 126 121 117 116 118 120 121 123 123 121 119 119 120 122 122 124 127 130 131 131 131 132 135 138 140 141 141 141 140 139 139 138 138 137 134 131 131 134 137 140 145 149 151 154 153 151 150 148 146 144 143 144 147 151 154 158 160 161 161 160 159 160 158 155 153 152 152 152 152 149 150 157 158 157 157 156 151 145 142 140 140 137 138 139 140 144 144 147 152 155 157 153 146 143 143 144 145 144 143 142 142 140 139 138 137 136 139 142 142 143 141 139 136 136 137 141 143 145 144 140 136 135 135 135 137 136 137 138 137 139 139 138 137 135 133 132 130 129 128 130 130 131 134 135 140 147 149 144 134 131 135 138 139 137 134 131 131 132 137 143 144 144 147 147 149 150 151 149 146 142 139 138 135 131 131 134 138 141 140 140 139 137 134 135 138 140 142 146 149 150 148 146 146 150 151 147 144 142 142 140 137 134 130 129 135 143 146 145 143 143 143 142 141 137 132 128 127 127 125 125 123 123 125 127 128 126 126 128 130 135 137 138 138 140 140 144 142 140 138 137 136 135 135 136 136 137 138 139 144 150 152 152 153 151 148 151 150 142 134 124 121 123 124 124 123 122 121 122 124 126 127 131 134 134 132 128 127 128 129 132 130 131 132 132 134 127 114 116 126 127 122 121 119 117 120 131 140 138 134 125 122 127 127 126 
131 79 80 81 83 84 86 88 89 89 89 91 93 94 100 109 118 126 131 137 140 135 132 130 130 131 131 129 126 125 124 124 125 127 129 128 127 127 128 123 120 119 119 120 123 124 125 125 125 123 123 123 124 124 128 130 130 133 135 136 140 142 142 143 142 142 142 140 138 138 136 134 131 129 130 135 138 141 145 150 153 152 152 152 151 149 147 147 150 152 152 155 157 159 161 162 160 160 158 158 155 155 155 155 153 150 150 155 159 158 158 157 158 160 154 148 145 143 141 141 140 142 146 149 149 147 148 153 159 157 149 145 144 146 146 144 142 142 141 138 138 136 135 138 141 142 143 141 139 138 136 136 137 142 145 145 142 138 136 136 136 135 138 138 138 136 139 138 138 137 134 132 131 130 129 128 131 131 130 133 135 139 146 150 146 136 131 129 132 136 138 138 136 134 135 140 145 148 150 150 149 149 150 150 149 146 143 141 139 134 131 133 138 140 141 141 140 138 136 132 135 137 140 143 144 147 149 149 146 146 147 149 148 146 142 140 139 138 135 130 130 136 143 150 151 146 140 140 139 137 135 131 128 127 127 125 124 124 124 127 130 131 131 130 130 132 135 135 136 138 140 138 141 142 139 137 134 134 133 132 131 131 130 130 131 134 141 147 152 153 153 154 156 153 143 133 124 122 121 121 122 123 122 122 121 121 125 125 127 135 137 136 131 127 129 129 132 134 135 135 135 134 130 118 116 124 127 124 121 119 119 120 133 142 137 130 123 121 125 129 133 
135 81 83 85 86 88 90 91 93 93 93 94 95 96 102 110 119 126 133 138 140 136 133 132 131 131 130 128 126 125 123 121 121 125 127 128 128 127 128 127 124 122 121 121 121 122 125 127 129 128 126 127 126 125 125 129 131 134 138 140 142 143 145 144 146 145 145 142 141 139 137 133 131 128 128 130 135 138 142 146 148 149 150 152 151 151 151 151 154 154 155 155 157 161 163 162 159 158 158 157 158 157 156 155 153 150 151 155 157 159 160 161 162 165 159 152 149 147 143 141 140 143 146 151 152 151 149 148 150 155 158 154 149 146 146 144 142 141 138 135 134 135 135 136 139 141 141 141 140 139 138 136 136 142 149 151 146 141 138 138 136 136 136 137 137 137 136 137 137 136 134 132 130 129 128 127 129 130 130 133 134 136 143 150 149 141 132 128 128 132 136 138 140 141 143 146 149 151 153 153 152 150 149 148 148 146 144 141 138 135 132 135 139 140 142 141 139 137 134 131 134 138 142 144 145 146 147 148 147 145 146 147 148 149 146 143 139 136 135 133 129 132 141 148 151 150 144 138 136 134 132 129 126 124 123 124 125 124 127 130 130 132 133 132 132 133 135 136 137 139 140 140 139 137 135 133 131 130 127 127 125 125 127 127 128 129 134 141 148 153 154 156 161 158 145 132 122 120 121 119 121 121 122 123 122 122 123 124 122 129 137 138 136 130 129 130 133 136 139 137 134 132 131 120 116 122 126 125 119 120 120 121 136 143 137 127 119 119 125 132 134 
136 84 87 89 90 92 95 96 96 98 97 99 98 99 105 112 119 126 134 139 141 136 133 133 133 132 130 129 128 128 126 124 121 122 124 125 127 127 127 128 126 123 123 123 122 122 124 127 128 131 129 129 130 128 126 127 131 135 138 142 145 146 147 146 147 147 146 144 143 142 142 137 131 128 127 127 129 130 135 139 142 145 147 149 153 155 155 157 157 158 158 158 159 161 162 161 158 156 158 158 158 158 157 154 150 148 148 154 156 160 162 164 166 168 160 153 151 147 145 140 141 144 148 150 151 152 152 151 149 146 149 155 156 153 149 145 144 141 137 134 132 131 132 134 137 138 139 140 139 140 140 139 139 141 149 150 143 140 140 137 137 137 136 138 137 137 137 138 138 137 135 133 131 129 128 128 130 131 131 133 134 134 140 148 151 146 136 130 130 131 134 138 142 146 148 149 152 153 152 152 151 150 148 147 147 146 145 141 139 136 136 137 140 142 143 142 140 137 134 131 134 137 143 144 144 145 146 144 144 144 144 145 147 149 150 147 144 139 135 133 130 126 130 138 145 149 148 141 134 130 129 128 127 124 123 125 128 129 131 133 133 133 133 133 132 135 137 138 140 141 144 146 142 133 131 130 129 127 124 124 122 121 123 125 126 126 128 133 141 149 155 155 161 159 147 133 124 120 119 118 119 120 121 121 122 122 122 121 121 124 134 138 139 134 130 130 133 137 141 140 135 132 130 121 115 119 125 125 120 119 119 122 140 142 136 126 119 122 126 129 132 
132 88 91 92 93 95 98 99 99 101 102 102 101 102 106 114 121 128 135 140 142 139 135 135 134 133 131 132 130 129 129 126 125 125 121 122 124 125 126 126 125 124 125 124 124 124 124 126 128 131 132 129 129 129 129 127 130 137 140 142 147 149 149 147 148 149 147 146 145 146 146 145 141 136 132 130 129 127 128 131 135 139 143 147 154 157 160 159 159 159 160 161 158 158 158 156 156 158 158 158 158 158 155 152 149 148 148 153 158 160 163 168 169 168 160 155 152 148 143 140 141 145 150 153 152 153 152 151 150 147 145 145 150 157 158 151 145 140 136 134 133 131 131 133 136 136 138 139 139 138 140 142 142 142 142 142 138 136 138 136 135 135 136 137 137 137 138 137 138 137 136 134 132 130 131 130 131 133 133 134 133 134 137 147 152 149 142 134 133 134 134 137 142 146 149 150 151 151 149 149 147 146 143 142 144 146 147 144 141 137 138 141 142 144 143 142 140 137 133 130 133 137 142 145 144 146 143 142 140 140 142 144 147 149 149 151 148 144 140 137 133 127 121 124 133 140 144 145 138 131 127 127 126 127 128 129 131 131 134 135 135 135 136 136 136 138 137 138 142 146 149 153 150 141 130 126 127 125 124 124 121 121 121 121 124 126 125 128 133 143 151 155 159 157 148 138 129 122 118 117 116 119 120 120 121 121 121 121 121 120 129 137 139 138 132 132 132 135 139 139 137 132 128 121 114 116 124 126 121 118 117 126 143 142 134 129 128 124 125 128 129 
127 91 94 95 98 99 100 101 102 105 106 105 104 105 109 116 123 129 136 139 142 142 137 136 135 135 135 135 133 130 128 128 126 124 121 123 123 124 125 127 127 126 126 127 127 126 126 125 126 129 131 132 130 130 129 129 132 136 142 146 149 152 151 150 150 150 150 149 148 148 149 150 150 145 141 137 134 134 131 130 132 136 143 150 155 157 160 160 159 160 159 158 156 154 153 154 155 156 158 158 157 156 153 150 149 149 149 149 155 161 167 169 166 162 157 153 150 146 143 139 137 141 147 150 152 155 156 154 153 149 148 146 146 150 156 159 153 144 136 133 131 132 132 135 137 137 137 139 140 141 143 143 143 142 141 136 135 134 134 135 133 132 133 135 135 136 136 135 135 136 136 135 134 131 132 132 133 133 133 133 134 133 134 141 149 151 146 136 135 136 135 137 141 143 147 149 148 148 147 145 142 140 138 139 141 143 147 148 146 141 142 146 147 147 144 142 140 137 134 131 133 137 142 146 146 144 142 141 138 136 138 141 146 148 147 150 149 147 144 142 138 131 124 117 119 129 135 139 140 135 130 128 131 131 131 132 132 132 134 137 139 140 141 141 138 141 141 140 143 149 154 155 153 149 138 128 125 125 123 122 121 121 123 121 122 124 124 125 128 134 144 152 157 156 151 143 136 128 119 114 115 118 119 120 121 122 120 120 120 117 122 136 139 141 136 134 132 134 135 136 135 130 126 122 117 116 122 126 122 117 117 132 143 142 138 134 134 130 124 125 124 
121 96 98 99 100 103 104 104 106 108 109 108 107 108 112 119 124 130 136 138 142 142 138 136 135 136 137 136 133 131 128 126 124 122 123 125 126 127 126 126 127 127 127 128 129 129 127 126 126 128 129 132 132 130 129 132 133 136 142 148 152 155 154 153 151 151 150 150 150 148 150 150 149 147 144 143 139 138 137 137 138 141 145 149 154 156 157 159 159 159 158 156 155 151 150 153 154 154 155 154 153 152 152 150 148 147 147 148 150 153 158 164 169 168 162 157 155 152 138 137 151 157 160 159 160 154 153 148 149 150 148 147 147 145 146 152 159 156 145 135 132 132 133 135 136 139 140 139 140 142 143 143 144 140 138 136 135 130 130 133 132 130 130 132 133 135 134 134 134 135 136 135 134 133 132 132 132 131 132 132 133 131 131 134 144 149 148 140 136 136 137 137 141 142 142 146 146 145 144 141 137 136 134 136 138 141 146 147 146 147 148 148 149 150 149 146 144 140 135 134 135 137 141 145 147 145 143 141 139 137 136 137 141 145 147 147 148 148 145 144 141 137 130 122 117 118 126 134 139 139 136 135 136 139 139 138 137 137 140 142 144 145 145 143 143 145 144 144 145 149 158 158 152 150 148 138 130 127 124 124 123 125 127 125 123 122 124 124 126 128 135 145 152 155 153 147 144 136 125 116 115 117 118 120 122 121 121 118 117 117 118 131 140 142 142 138 133 131 132 134 133 130 127 125 119 117 122 126 123 118 120 136 144 144 140 135 136 134 127 122 119 
116 100 102 104 105 106 108 108 109 111 111 111 111 111 115 121 126 131 134 138 140 140 137 136 135 135 137 137 133 130 128 126 122 124 125 127 129 130 129 128 128 129 128 128 129 130 128 127 127 127 129 131 132 130 130 134 136 138 143 148 154 157 157 156 154 153 152 151 151 148 145 145 144 140 139 141 142 142 143 143 144 145 147 149 151 154 155 155 154 154 154 152 151 150 149 152 153 152 150 151 151 150 149 148 149 150 154 148 148 164 176 164 119 107 112 122 113 76 91 191 213 213 211 215 116 42 46 44 50 47 98 182 174 158 149 148 151 156 157 147 135 133 134 136 139 140 141 140 141 142 142 142 143 139 135 133 133 131 126 129 133 131 128 129 132 133 133 134 135 135 136 135 133 133 132 131 130 130 130 130 130 130 130 131 140 149 151 144 136 136 136 140 141 141 141 141 143 141 140 137 134 132 131 131 136 139 143 144 146 151 154 154 152 152 152 152 148 142 137 134 137 139 142 147 147 146 145 142 140 137 137 138 138 140 142 144 145 146 145 145 143 140 136 131 127 126 127 133 139 140 140 140 141 143 144 143 141 142 142 145 146 148 148 148 149 149 148 148 150 152 157 161 156 151 151 146 141 133 128 127 126 130 132 131 129 124 123 125 126 126 128 137 147 153 157 153 150 146 134 124 116 117 120 121 121 121 120 118 117 118 116 125 138 145 147 143 136 131 129 130 129 129 129 128 123 119 122 126 125 121 127 138 143 142 138 135 135 134 131 122 116 
114 103 107 108 109 111 111 112 112 114 115 114 115 116 118 123 128 131 135 137 139 139 135 135 134 135 136 136 132 130 129 126 124 126 129 131 134 134 133 132 131 130 131 130 129 128 127 127 127 127 127 129 132 133 132 134 138 141 144 150 155 159 159 157 156 155 154 152 150 147 144 138 136 133 131 131 135 139 145 147 146 145 145 146 148 151 154 153 150 148 148 148 149 149 149 150 150 150 150 148 149 151 155 153 143 130 106 108 187 210 220 102 12 27 60 63 31 6 117 222 213 213 210 211 62 9 24 4 7 4 104 198 197 158 84 114 136 146 152 157 156 144 134 133 135 136 140 140 140 139 140 140 140 137 133 128 128 130 130 129 131 132 128 128 130 132 133 134 135 135 136 135 134 133 132 131 130 129 129 128 128 129 128 130 137 148 152 147 137 134 135 138 141 143 142 139 140 137 134 134 131 129 129 129 132 136 140 142 145 150 156 159 159 156 154 152 150 144 137 137 140 143 147 150 151 149 147 145 142 141 141 142 143 143 143 142 142 144 147 149 149 146 143 140 137 137 138 140 143 144 143 141 142 145 145 143 141 139 139 141 143 145 146 149 151 153 151 149 151 155 154 157 158 154 149 148 145 139 131 129 128 132 136 137 135 131 125 125 127 127 125 132 143 150 158 158 154 150 143 134 124 119 118 121 121 121 120 120 119 117 115 120 134 145 148 146 137 130 126 126 128 128 127 127 124 120 124 130 132 129 137 141 141 141 136 134 134 134 127 121 117 
115 108 111 111 112 114 114 116 116 115 118 118 118 119 120 124 128 133 134 135 137 137 134 133 133 136 136 136 132 131 129 126 126 128 130 133 136 137 137 134 133 132 133 133 130 129 127 127 125 126 126 127 129 133 133 134 138 142 146 150 156 160 160 160 157 156 153 152 149 147 144 137 133 131 130 131 130 133 138 143 144 142 141 142 143 146 150 152 149 146 144 145 147 147 148 148 151 151 147 151 152 140 111 76 50 33 20 153 220 211 193 41 20 27 59 37 19 17 151 216 214 211 208 196 125 124 125 108 64 53 171 190 195 160 45 59 61 124 146 147 139 152 164 160 160 149 138 142 143 143 143 143 136 130 127 123 120 123 130 132 134 132 130 128 129 131 132 134 134 134 135 134 134 134 133 132 129 127 127 127 127 127 128 130 135 147 153 151 139 133 134 137 138 140 140 139 139 136 131 128 127 129 129 129 129 130 133 137 143 150 157 162 163 162 158 155 151 145 139 138 142 146 149 152 152 150 148 147 145 145 145 146 147 147 146 144 142 141 143 147 149 149 147 146 145 144 146 148 151 149 147 143 142 143 143 141 137 134 135 136 138 141 143 144 148 152 152 150 151 156 158 156 154 153 149 146 145 141 136 131 130 128 135 139 138 136 129 125 127 127 126 129 140 148 156 159 156 154 151 144 134 125 121 123 123 123 120 119 120 119 116 116 129 142 149 147 139 130 125 127 129 128 125 125 124 120 126 135 137 137 144 144 139 137 135 134 131 129 124 122 118 
114 112 114 115 116 117 118 118 119 119 121 121 122 122 122 124 128 131 132 134 135 132 131 131 132 134 134 134 133 131 129 127 126 129 133 136 138 140 138 136 136 134 133 134 133 132 130 127 126 125 125 125 127 130 135 135 139 143 148 151 156 168 174 172 170 168 164 160 156 151 144 137 134 133 134 136 134 132 133 135 138 138 136 136 136 137 141 143 145 145 144 143 145 145 146 149 150 145 165 144 94 59 12 11 26 12 74 209 208 211 187 35 17 30 47 23 13 31 184 214 214 212 199 181 171 163 165 171 163 176 197 188 195 130 34 45 70 112 103 63 63 181 209 209 213 193 67 57 69 82 102 111 136 141 125 122 118 118 125 129 134 137 134 130 130 131 132 132 132 132 133 135 134 134 134 132 129 127 127 125 126 127 127 128 132 144 154 153 142 132 132 134 135 136 138 139 141 138 133 127 124 128 130 128 127 127 128 132 138 145 153 160 163 163 162 157 151 145 142 139 142 146 151 153 154 154 150 149 148 146 147 148 149 149 147 144 143 141 141 143 146 149 152 151 151 151 151 153 155 154 150 146 143 143 141 137 133 130 129 130 133 136 139 142 144 148 152 153 152 157 160 159 155 149 147 145 143 138 137 133 129 127 131 139 141 139 134 128 126 126 127 129 140 146 151 155 157 157 154 152 146 136 127 124 124 123 121 119 123 133 122 118 127 140 147 145 138 128 124 125 128 128 129 133 130 120 123 135 139 145 147 142 136 134 136 134 129 128 126 123 119 
115 115 117 118 118 120 121 120 121 123 123 123 124 124 125 126 127 129 131 134 133 130 129 131 133 134 133 133 134 134 134 133 128 130 134 138 140 143 141 138 136 135 133 134 134 134 132 128 126 125 126 125 126 129 134 136 137 143 147 151 156 170 179 174 172 172 174 174 172 170 164 154 145 141 138 138 136 134 133 131 132 137 138 135 131 129 131 136 139 141 143 144 145 145 150 150 154 190 182 38 37 82 98 72 24 17 151 217 209 211 192 40 12 38 49 15 9 55 202 213 212 209 195 121 47 29 51 93 124 185 188 186 189 114 29 37 65 92 76 17 83 208 203 205 206 191 41 13 12 20 30 26 128 194 158 102 108 118 120 127 132 138 134 128 125 124 128 134 134 134 135 135 133 132 133 131 129 127 125 124 126 126 129 130 131 142 154 155 145 132 130 131 133 134 138 141 142 141 136 131 128 126 128 127 127 126 128 131 135 139 147 155 158 161 160 157 151 146 141 141 142 147 152 155 157 157 155 151 149 149 148 149 149 148 146 145 144 143 143 144 146 147 148 150 151 152 153 154 155 154 152 148 144 144 143 137 130 125 123 123 125 128 132 138 142 148 151 155 154 155 161 160 157 150 142 141 140 140 138 137 132 126 126 134 140 140 138 130 126 124 124 130 141 144 146 148 153 158 158 157 154 147 137 130 126 124 123 121 126 147 133 122 127 137 145 145 139 129 123 127 132 135 136 139 135 122 121 131 141 148 147 139 132 130 134 134 134 134 130 125 120 
117 118 120 120 121 122 123 122 124 124 124 126 125 127 126 127 129 130 132 132 131 130 130 131 133 134 132 132 133 135 137 136 133 134 137 140 143 144 142 140 137 136 134 135 135 135 132 130 127 126 124 126 126 127 131 137 136 141 145 150 153 159 162 160 158 156 157 158 161 166 169 168 165 160 155 149 141 135 132 133 132 133 136 136 134 132 131 131 134 137 140 142 144 155 141 149 208 223 166 107 164 171 172 115 15 29 177 211 206 212 176 28 18 36 42 20 6 77 211 212 211 211 163 16 4 22 33 6 18 154 188 184 184 95 27 38 75 82 50 7 86 208 203 208 204 188 143 127 86 26 12 28 155 185 176 79 62 87 125 127 129 130 145 153 155 159 139 116 117 122 124 132 136 135 129 126 128 128 126 126 125 127 130 132 132 140 153 156 149 136 131 135 135 136 136 138 141 142 138 136 133 130 127 128 128 127 126 128 132 137 141 148 152 154 155 153 150 146 142 140 142 147 153 157 159 158 156 153 152 150 150 150 150 149 148 147 146 144 144 145 145 144 145 144 145 147 150 151 151 151 150 147 144 141 141 138 132 126 122 124 128 131 135 141 146 150 153 156 159 158 162 164 160 154 146 140 142 144 141 141 136 130 125 127 137 140 140 133 124 123 124 129 141 144 142 140 145 154 159 158 158 155 148 138 131 128 125 123 124 138 135 127 129 134 143 145 140 131 129 135 136 136 136 138 136 123 120 129 143 147 142 134 129 129 134 137 136 136 132 129 125 
123 121 123 124 123 124 125 126 126 127 127 128 126 128 129 128 129 132 131 132 132 130 131 132 132 133 133 132 133 134 137 136 134 136 141 143 144 143 141 141 138 135 134 134 135 134 134 132 129 127 125 126 126 125 127 132 135 137 142 146 151 153 154 155 156 153 150 147 146 148 151 154 158 162 166 168 164 154 142 134 130 129 128 129 136 138 137 137 136 136 137 144 149 112 79 194 217 207 203 170 81 47 53 18 11 36 183 206 202 209 156 18 23 73 49 18 9 131 212 210 210 216 127 2 19 20 33 13 22 149 188 180 178 96 25 49 75 56 24 11 131 209 205 205 191 175 178 176 172 142 63 96 183 177 173 75 38 89 125 111 93 48 150 211 205 214 184 48 31 41 58 64 57 97 170 159 136 129 131 127 128 129 131 134 130 135 149 156 150 142 135 131 132 134 141 145 141 140 140 140 137 133 129 127 128 127 125 126 131 135 138 141 144 147 148 148 148 148 146 144 143 146 151 155 157 157 156 155 154 153 151 149 149 149 148 145 144 142 141 141 141 141 140 140 141 142 145 145 146 147 146 144 142 138 138 137 133 127 125 128 133 138 142 147 151 155 158 159 160 162 161 165 160 153 149 143 142 145 144 144 141 137 131 126 133 140 140 137 127 122 122 129 140 142 139 134 136 146 155 159 161 161 157 147 138 130 126 124 123 130 134 132 134 135 143 147 141 134 132 134 136 135 137 137 130 124 118 129 141 139 132 126 125 128 134 137 136 135 133 130 127 
124 124 125 126 125 126 127 128 128 128 128 128 129 130 131 132 132 133 135 133 133 133 133 133 133 134 134 133 132 132 134 134 134 137 142 145 146 144 143 140 138 136 135 136 137 136 135 134 132 128 127 126 126 124 124 127 132 133 137 141 144 149 150 152 152 152 150 149 150 148 147 144 142 143 149 159 168 170 167 155 139 132 128 127 132 140 142 141 139 141 145 123 69 13 117 226 210 210 172 52 5 8 12 18 12 36 183 208 204 208 158 22 25 70 47 9 14 157 211 208 213 219 72 0 15 29 22 2 37 168 181 173 173 96 24 64 81 60 10 60 195 202 205 200 196 176 126 109 149 170 177 181 184 179 159 53 34 91 99 92 63 17 142 205 200 203 203 90 47 32 19 24 30 62 183 191 167 101 115 129 127 130 128 130 154 168 182 196 180 69 50 52 55 62 74 90 142 153 142 139 140 135 130 127 128 127 125 126 131 133 135 140 149 151 154 154 154 152 149 146 146 149 153 156 158 157 156 154 153 151 148 147 146 146 145 144 141 139 138 139 139 140 140 139 140 139 141 142 140 138 137 138 137 137 136 136 131 126 124 128 133 139 143 146 149 153 156 158 157 157 157 157 156 149 145 143 142 143 146 147 147 145 141 134 132 140 140 139 132 123 121 128 140 141 136 130 128 137 148 157 161 163 162 157 147 135 126 125 124 126 130 131 139 139 143 146 142 135 133 132 134 133 132 162 143 122 117 127 134 134 125 119 123 127 131 135 137 136 133 130 128 
124 127 126 127 128 129 128 128 130 130 129 129 132 132 133 133 134 134 135 134 134 134 135 133 133 133 133 134 132 132 131 131 134 137 139 144 145 145 143 141 139 136 136 137 137 136 137 135 134 130 127 125 125 124 122 124 127 130 133 136 138 142 144 145 146 145 146 147 148 147 146 142 140 137 135 138 144 157 165 166 160 151 141 134 131 137 145 145 149 142 88 47 16 25 170 217 207 211 112 6 19 14 16 18 12 29 176 207 204 208 160 20 20 71 38 5 32 183 209 210 218 209 41 5 13 13 9 0 55 175 175 169 166 92 26 66 83 49 7 117 201 194 197 199 175 57 13 5 36 115 169 186 183 178 158 53 40 86 87 72 28 48 187 202 206 209 202 179 164 148 100 45 14 84 182 179 179 99 68 129 119 110 72 56 171 211 208 212 198 62 30 20 12 10 24 23 103 193 176 149 126 138 133 128 128 130 133 130 132 142 153 145 114 119 117 124 132 143 156 157 145 145 151 155 156 158 156 155 151 150 147 146 144 144 144 142 140 139 138 138 139 139 139 139 138 137 138 137 136 133 130 128 126 126 129 133 128 125 122 123 130 136 141 144 144 145 149 150 150 149 148 147 146 144 142 142 144 142 141 147 148 148 146 144 138 139 142 140 137 128 122 128 138 139 135 129 126 128 137 149 158 162 164 162 154 142 131 124 128 131 127 129 138 139 138 144 143 133 130 130 130 128 125 143 139 118 117 124 131 130 121 116 120 124 128 130 134 135 133 129 126 
123 128 127 128 129 130 130 131 131 131 131 132 132 134 134 135 135 135 135 136 135 134 135 133 133 133 133 134 133 132 131 131 132 133 136 139 142 142 141 141 139 137 138 138 138 137 137 136 135 133 127 124 123 123 122 122 124 128 129 131 134 136 139 141 142 142 142 142 142 141 140 137 137 138 138 138 138 141 147 152 158 161 158 149 140 135 137 150 134 52 39 33 12 60 205 209 203 203 67 7 15 12 12 13 13 20 169 210 204 202 184 43 13 64 36 6 30 180 212 209 222 182 18 9 11 7 10 0 82 176 175 168 155 105 40 70 68 30 6 135 200 191 188 206 82 0 10 11 9 0 99 195 181 175 150 50 45 91 76 41 10 122 203 201 207 202 185 176 177 177 176 170 134 167 187 180 178 109 52 115 107 94 50 18 144 208 202 207 206 192 163 132 115 78 51 12 68 193 188 184 120 102 130 124 119 108 89 143 194 197 205 198 78 16 20 28 31 33 56 103 160 154 145 148 154 154 154 153 151 148 147 144 143 142 141 139 138 137 138 137 136 136 137 136 135 137 136 133 132 131 127 123 120 119 119 121 123 121 120 120 122 128 134 138 140 139 139 140 140 140 139 138 136 136 136 138 142 142 138 139 146 150 149 148 144 142 146 146 141 134 125 131 138 138 135 128 125 124 128 138 150 159 163 165 162 152 143 137 139 141 133 128 133 137 140 142 141 130 124 124 124 121 119 116 113 118 117 120 127 125 121 117 116 119 123 125 127 130 130 128 123 
122 128 128 129 130 131 132 132 132 132 131 132 133 134 135 135 134 135 135 136 136 135 135 134 134 133 133 133 133 133 132 132 133 133 135 137 137 138 139 139 140 140 139 138 137 137 137 136 137 134 128 124 122 121 122 121 123 126 127 129 131 133 135 137 139 138 138 137 136 135 134 135 136 136 134 134 137 139 143 145 150 152 154 158 157 146 146 144 39 20 49 26 10 73 209 207 205 203 61 11 16 15 16 12 11 17 166 213 205 198 198 94 10 36 59 16 7 134 216 208 223 163 9 10 8 7 9 7 116 172 172 166 145 119 59 72 46 10 54 186 198 193 203 167 12 13 12 17 21 1 92 192 178 170 143 67 59 88 62 17 52 187 199 201 202 201 201 166 131 121 128 155 189 191 185 178 175 127 49 92 96 93 44 31 175 206 208 210 210 197 181 180 180 176 167 113 131 193 186 184 161 83 105 108 95 49 17 65 196 201 202 205 192 131 124 138 129 114 72 15 105 194 176 156 136 152 155 155 153 153 148 140 139 137 134 136 143 141 138 137 134 133 136 137 136 137 137 132 130 128 125 121 118 118 117 117 118 118 116 117 118 119 123 127 130 132 132 132 133 132 131 130 128 128 133 135 141 143 141 138 138 144 149 149 149 147 149 153 149 142 133 136 142 140 135 126 123 123 122 128 140 153 162 165 166 164 161 157 153 153 142 130 129 138 143 141 135 126 121 122 119 117 116 119 110 110 118 118 124 124 121 117 116 115 119 121 123 127 126 123 123 
121 130 129 130 131 131 132 132 133 133 132 133 134 134 134 135 135 134 135 135 136 135 135 134 134 133 132 132 132 132 132 132 132 133 135 135 135 136 137 137 138 141 141 139 138 136 136 136 138 136 131 126 122 122 121 120 121 124 128 129 130 132 132 132 134 131 130 130 129 128 128 129 130 128 127 130 136 141 145 147 150 151 149 150 156 158 194 76 9 39 26 22 11 81 209 203 202 207 98 29 25 16 12 11 12 13 144 210 207 203 201 132 10 24 76 30 2 101 213 209 215 166 25 5 9 15 6 29 148 167 167 161 151 152 66 56 29 8 110 206 198 190 213 78 0 10 16 15 11 2 118 188 174 160 141 77 69 82 42 6 116 207 196 200 197 210 111 32 14 10 14 14 85 192 181 177 171 124 51 83 85 74 27 33 179 204 206 208 206 208 191 147 104 109 148 175 198 189 185 179 169 91 84 102 80 39 15 27 176 203 200 201 202 202 181 174 175 170 170 124 92 179 186 185 142 117 133 131 128 128 149 178 171 173 166 135 103 106 117 126 136 141 136 136 137 138 137 134 129 125 121 121 119 116 116 116 118 118 116 114 118 118 119 121 124 127 130 131 131 128 127 126 125 124 128 135 139 143 143 139 134 133 140 146 150 151 153 159 158 150 145 147 149 144 134 125 121 121 121 120 129 143 156 166 171 177 179 174 168 160 149 134 127 137 140 134 127 122 123 123 120 117 118 127 114 102 111 117 121 123 122 118 115 115 112 117 123 125 125 123 122 
121 130 129 130 131 131 132 133 133 133 133 134 135 135 135 135 135 135 135 135 135 135 134 134 133 132 132 132 130 131 131 132 133 134 135 135 135 135 136 137 138 140 140 140 139 137 136 137 138 138 135 128 123 121 120 119 120 124 128 131 131 130 127 126 125 125 124 124 122 122 123 122 123 124 125 130 138 143 147 150 152 153 152 148 143 180 200 39 20 42 15 19 9 77 204 197 200 202 153 17 10 16 10 7 29 19 147 205 204 207 206 119 20 39 78 33 1 107 209 207 201 164 127 92 28 16 6 71 166 164 164 158 175 155 53 53 34 7 122 208 199 209 173 16 8 8 8 11 9 10 142 184 170 151 147 90 64 61 23 15 154 207 200 197 213 144 0 8 10 9 13 3 70 185 175 172 165 121 64 94 81 51 18 33 181 204 203 205 206 197 64 20 5 6 25 19 120 196 182 177 167 117 74 98 78 26 12 16 155 204 198 196 195 189 185 169 108 51 57 140 181 176 179 179 179 116 90 95 83 60 53 146 207 208 209 197 135 91 84 91 95 105 136 140 136 139 139 134 130 124 122 119 117 114 112 114 114 115 114 115 116 119 121 121 122 124 126 128 128 126 124 123 123 121 120 127 136 140 142 142 139 132 134 142 149 155 158 161 164 159 158 159 158 151 137 125 121 121 121 118 119 133 149 165 179 188 192 188 178 164 152 136 126 131 134 128 121 120 126 127 125 121 123 128 124 101 105 116 122 123 122 118 114 114 113 115 119 123 124 124 122 
121 129 129 130 130 131 131 132 134 134 133 135 135 134 135 135 136 136 135 135 134 135 135 133 133 133 131 132 131 130 131 131 131 134 134 135 137 136 135 137 139 138 137 137 139 139 138 136 138 139 137 133 125 121 121 120 119 124 128 131 130 129 125 122 120 121 121 119 119 118 118 119 122 125 128 133 140 144 147 150 152 153 151 150 146 206 187 29 31 39 10 17 13 52 190 197 199 193 191 104 75 103 90 30 17 42 172 198 198 203 210 114 14 54 44 13 11 139 205 206 184 157 162 162 125 37 15 135 169 169 165 157 186 118 49 47 29 6 115 203 196 219 108 0 13 7 7 8 6 27 163 177 166 155 167 104 71 47 8 72 196 202 203 206 198 41 11 12 10 10 12 4 98 182 170 166 155 125 66 92 72 40 18 44 192 205 204 202 216 98 0 14 9 12 11 0 78 192 180 176 163 139 78 86 84 31 11 14 157 204 197 196 192 196 146 43 4 1 2 14 88 170 175 175 174 155 99 90 79 56 18 28 179 204 200 202 203 183 167 165 161 129 97 151 153 140 139 139 131 127 123 119 115 110 108 110 110 112 113 113 117 121 124 124 123 125 123 124 126 126 124 122 121 121 118 120 131 139 144 145 146 144 140 143 147 153 158 161 162 163 164 167 165 157 143 127 122 122 120 119 118 125 146 167 185 197 200 196 184 168 156 144 126 123 128 123 119 120 129 132 130 128 125 127 129 108 98 110 121 124 122 119 115 114 112 112 114 118 122 124 122 
121 130 130 130 130 131 131 133 135 134 133 134 134 135 135 135 136 136 135 135 135 135 135 133 133 133 132 133 131 130 130 131 131 134 135 135 137 137 138 136 136 136 137 136 136 137 137 138 137 138 137 135 127 123 122 121 119 122 126 129 129 126 124 123 122 120 118 116 117 117 117 121 123 126 130 136 140 144 146 148 152 151 157 125 147 221 182 24 33 37 11 15 14 34 174 204 197 194 186 166 160 157 152 144 28 97 192 193 194 196 209 102 17 21 13 11 20 157 206 206 179 159 160 151 146 135 122 167 169 171 161 156 185 87 56 43 25 22 108 196 194 212 101 0 8 8 7 10 1 68 177 171 167 169 182 86 64 40 9 138 207 201 200 218 111 2 13 8 18 10 11 5 123 179 166 161 151 128 63 78 71 46 12 77 205 201 205 207 207 43 9 11 10 10 13 1 91 188 177 176 163 150 88 81 74 36 10 27 170 200 196 195 192 185 39 0 10 7 8 7 4 129 178 172 170 161 111 78 83 52 22 12 146 206 202 200 196 183 176 155 96 75 114 161 185 174 152 137 143 139 134 129 119 114 114 113 113 113 116 116 118 122 125 127 127 127 127 127 128 129 128 125 125 127 129 129 132 142 149 150 150 150 148 145 143 145 149 152 155 157 162 169 170 161 150 138 129 124 123 122 120 129 148 168 184 196 200 196 186 174 166 154 132 120 122 120 121 122 132 139 135 132 128 127 128 117 96 103 120 124 120 117 116 114 111 110 112 115 118 120 121 
121 130 131 130 130 130 131 131 133 133 134 133 134 134 134 136 136 137 137 137 136 134 134 134 133 133 134 134 133 132 131 133 133 135 135 136 136 137 138 137 137 135 135 136 135 133 133 137 138 137 136 135 130 126 123 123 120 120 124 127 129 129 127 127 123 119 116 116 116 118 119 122 124 129 133 138 141 142 144 147 148 154 132 59 173 219 181 26 24 31 14 14 14 24 160 210 197 195 174 155 159 154 153 115 17 104 197 193 191 190 172 54 46 25 13 11 37 173 204 203 181 160 155 149 138 156 182 171 170 165 150 169 171 64 57 36 23 16 135 197 195 190 159 79 20 4 10 15 10 128 178 168 166 180 168 63 54 33 14 99 209 202 206 206 43 6 11 9 12 10 8 17 152 175 166 159 154 149 75 76 75 44 11 138 211 201 203 216 163 10 13 10 15 9 10 3 122 187 178 175 161 170 105 69 74 44 9 37 181 199 196 193 204 145 6 10 5 6 5 9 4 113 179 170 167 162 127 73 78 45 13 16 157 202 200 197 190 191 128 25 3 0 23 141 183 186 180 154 123 124 126 130 145 140 128 123 123 127 130 130 131 135 137 140 141 141 140 139 139 138 134 130 132 133 138 140 139 142 149 152 153 153 151 149 143 139 138 141 144 148 155 164 169 163 156 148 141 132 129 127 126 136 150 166 180 189 193 188 183 178 170 156 137 121 120 122 125 129 139 142 138 131 128 125 123 123 100 95 114 123 120 116 114 113 111 109 111 112 116 116 116 
119 131 130 129 130 130 130 131 132 133 133 133 135 134 135 136 138 138 138 139 136 134 133 133 134 134 133 132 133 133 132 133 134 135 135 136 137 137 137 136 137 137 135 134 133 132 131 131 135 137 135 135 133 128 124 122 120 119 121 126 131 132 129 126 122 119 117 119 121 120 122 124 127 132 135 137 139 141 145 147 150 138 44 48 197 210 196 40 25 44 13 14 15 17 138 207 198 197 168 148 97 59 57 20 0 103 198 196 190 186 139 39 47 18 16 5 110 195 194 196 182 167 162 158 158 171 177 174 169 157 157 188 145 50 55 26 8 37 174 191 194 178 163 165 126 47 17 4 68 171 171 165 165 186 137 47 59 38 14 86 198 199 211 185 23 10 10 8 8 10 2 59 177 169 164 157 171 167 78 80 71 36 16 165 208 205 203 217 91 2 12 7 11 9 7 18 153 186 178 172 166 189 112 63 71 36 5 64 197 201 199 198 183 55 3 8 6 12 9 9 0 97 180 171 170 165 157 87 74 52 15 15 162 202 198 197 192 179 32 0 8 8 2 44 165 180 177 180 136 86 89 77 92 171 193 172 148 128 132 139 141 145 147 149 150 149 147 147 147 143 139 133 134 136 140 142 143 144 146 149 152 153 152 149 145 138 132 129 131 137 147 155 160 163 159 156 150 144 138 136 136 140 150 159 168 178 180 181 181 178 168 156 140 123 120 124 132 137 143 141 136 129 124 123 122 123 107 90 105 122 119 116 113 112 111 110 110 111 115 116 114 
113 133 131 128 129 131 130 130 131 133 133 134 134 135 138 139 140 139 139 138 137 135 135 134 134 134 133 133 133 133 133 132 134 135 135 136 137 137 136 135 136 135 135 135 133 132 130 129 130 134 135 135 134 131 125 122 120 120 123 128 131 130 128 124 121 120 119 123 124 124 125 127 129 133 134 136 140 143 146 146 149 70 10 57 200 206 210 76 19 55 15 13 15 14 119 207 200 198 179 85 6 5 3 12 4 98 198 196 193 193 118 38 39 18 13 43 171 201 190 191 197 157 74 67 65 120 176 173 169 157 161 190 115 42 52 42 28 89 184 189 194 179 163 159 153 136 110 97 153 175 168 162 162 183 107 48 50 39 35 122 197 195 212 162 7 13 9 7 8 11 3 110 175 162 161 159 184 160 66 73 64 41 4 117 209 202 209 193 31 8 11 8 8 9 4 36 171 177 173 170 174 199 110 65 64 30 3 91 204 200 200 208 135 1 11 7 5 4 5 8 0 91 181 169 172 167 174 92 60 61 24 21 166 200 196 195 205 103 1 9 7 6 8 4 110 184 174 175 162 80 94 76 43 56 176 209 201 177 153 145 148 153 150 149 150 149 146 146 145 142 138 134 132 135 138 138 138 140 141 141 143 148 148 147 143 139 136 129 126 129 141 148 154 157 158 161 159 152 147 146 145 146 148 152 157 160 167 176 179 175 166 153 140 128 119 131 140 142 142 138 133 128 125 123 122 122 113 95 95 116 118 113 111 111 110 111 110 111 113 114 113 
112 128 132 131 130 131 131 130 132 133 135 137 138 139 141 141 141 140 140 139 137 136 135 134 134 134 133 134 134 133 134 134 135 136 136 137 137 136 135 134 134 133 135 135 133 131 130 129 130 131 133 136 135 133 129 125 123 121 124 127 129 129 125 122 121 122 124 125 126 126 126 129 131 135 138 139 141 145 144 155 125 24 12 53 197 207 214 125 8 58 25 13 17 7 90 207 200 203 160 16 11 12 12 12 1 74 194 193 189 196 106 29 26 18 15 98 195 197 191 206 185 39 1 5 0 52 169 166 161 153 160 184 112 53 53 36 49 167 190 187 194 188 167 158 145 149 170 182 176 170 165 158 158 172 77 44 38 20 15 139 195 190 205 188 41 2 10 8 10 6 38 159 164 157 157 156 188 144 60 66 56 40 22 105 200 198 211 179 20 13 10 8 8 12 3 74 180 171 168 170 180 199 106 66 65 29 1 77 200 201 202 209 140 6 11 7 5 5 5 7 0 104 183 169 169 166 182 106 55 58 18 27 176 197 197 197 205 64 0 8 7 8 10 5 75 180 172 169 174 83 84 77 61 16 84 199 199 202 192 166 163 142 142 146 141 141 139 138 136 136 134 130 129 131 132 132 132 133 136 135 135 140 146 147 142 139 138 133 131 128 136 146 147 151 154 160 165 160 156 150 147 147 145 145 144 146 158 170 171 169 160 150 144 137 121 132 145 143 140 135 131 129 128 125 123 120 116 100 92 105 115 110 109 108 108 110 111 112 113 113 113 
112 119 126 131 134 132 131 132 134 136 137 139 142 142 142 142 142 141 139 139 138 137 135 134 134 135 134 135 133 134 135 135 134 135 136 136 138 136 134 134 133 132 132 133 132 132 130 129 129 130 131 133 134 135 133 128 125 123 124 126 127 127 125 124 125 125 126 126 126 127 128 132 133 136 139 141 142 144 149 130 34 16 16 35 179 204 208 191 40 43 36 13 16 12 51 190 197 204 145 8 13 10 8 13 12 45 180 185 177 180 81 21 21 15 33 152 200 200 203 212 82 1 15 15 5 59 161 155 148 150 154 171 97 45 30 17 99 182 192 194 198 205 178 163 159 166 175 172 174 169 160 152 157 155 54 44 25 11 22 156 191 187 194 192 144 44 8 14 13 1 100 175 159 155 149 152 186 126 57 67 48 35 41 88 191 193 202 195 41 2 16 11 9 14 11 126 176 169 166 169 182 196 95 56 63 44 12 19 151 201 198 211 156 2 6 5 6 5 5 8 4 126 177 167 166 168 188 122 53 60 21 3 120 201 196 196 201 61 0 9 6 5 8 1 49 176 175 170 173 127 74 77 64 33 29 166 201 197 191 177 124 27 35 119 131 122 126 124 124 124 125 125 127 128 129 129 129 133 137 136 135 136 139 141 138 133 135 134 133 132 135 146 147 148 151 155 163 167 163 155 149 142 141 136 135 145 158 159 160 157 154 152 149 146 129 125 143 143 132 130 132 132 131 127 123 118 115 106 92 99 111 108 107 107 107 110 111 113 114 115 114 
114 115 119 124 131 133 134 134 135 139 142 143 142 143 142 141 140 139 140 139 137 137 137 135 134 134 135 135 134 135 135 135 135 135 135 135 136 136 135 134 133 132 132 131 130 130 130 130 130 131 133 135 135 136 136 133 126 124 125 125 126 127 127 126 125 124 125 125 127 129 131 133 135 136 138 141 144 143 154 74 9 21 16 21 153 202 199 208 117 29 47 14 17 16 20 154 197 199 155 17 11 10 7 20 27 30 164 178 167 154 54 27 33 10 62 189 200 200 207 141 9 13 8 11 1 57 153 146 136 139 139 152 62 36 21 50 156 184 200 207 214 182 79 62 59 71 118 170 167 164 157 151 162 129 36 41 29 14 74 188 188 191 185 169 160 147 60 16 18 56 154 167 158 153 144 149 184 104 56 68 53 29 8 81 188 187 194 204 153 44 11 6 15 4 38 167 173 169 166 170 182 189 82 54 64 46 17 24 129 191 193 199 192 76 16 13 1 8 10 6 21 147 167 161 164 168 187 128 51 59 35 3 35 183 195 189 197 79 0 8 6 5 7 2 41 172 175 170 167 152 111 78 63 52 12 131 203 196 202 137 11 11 6 52 154 123 117 119 118 120 122 124 123 124 125 127 129 131 136 136 137 137 133 131 132 130 129 129 133 135 136 145 151 149 147 147 153 163 166 163 153 142 132 129 139 151 156 152 147 144 149 154 153 154 139 120 133 138 129 128 130 133 134 130 126 118 113 113 94 95 109 109 107 107 107 111 112 114 115 116 116 
115 113 116 121 124 128 133 137 138 141 142 143 142 141 140 141 141 140 140 139 137 136 136 134 134 135 136 134 134 133 134 135 134 135 134 135 135 136 135 135 134 133 131 129 129 130 130 132 133 134 136 140 140 137 136 135 128 124 124 125 126 127 128 127 124 123 125 125 128 131 132 133 135 137 139 142 144 143 152 69 14 21 18 11 123 199 197 197 171 38 48 25 16 17 11 104 192 188 188 48 8 13 10 11 8 15 136 174 164 141 33 27 39 11 62 187 198 198 195 58 1 9 7 6 10 101 146 139 131 125 132 141 49 48 33 113 180 181 198 212 178 37 5 2 1 0 21 151 163 155 152 149 162 103 51 40 41 31 123 188 186 191 183 168 157 147 137 116 135 168 168 165 159 152 144 145 172 80 54 63 43 23 11 126 188 189 190 181 173 148 107 59 31 47 129 179 173 169 168 172 183 182 73 53 52 32 20 8 115 192 188 190 178 159 134 114 43 6 10 0 80 169 163 159 160 170 187 130 51 59 42 10 43 171 190 188 193 140 28 10 2 6 7 2 43 165 172 168 165 155 147 87 61 55 11 114 207 196 204 104 5 16 14 10 97 174 124 115 117 119 121 123 123 122 123 123 126 128 131 135 136 136 133 128 124 123 127 130 134 137 138 142 151 152 147 141 144 155 164 166 159 146 131 136 150 154 151 143 133 133 141 151 156 159 147 121 122 132 130 127 130 130 135 134 129 121 113 116 102 92 105 109 108 108 108 111 112 114 115 116 115 
116 110 113 116 119 122 126 134 140 142 143 142 141 140 140 142 142 141 139 139 135 135 135 135 134 135 135 136 135 132 133 134 133 134 135 134 134 135 135 135 135 134 133 131 130 130 131 134 136 141 144 145 143 139 134 133 129 124 125 126 125 126 126 124 124 125 126 127 130 132 132 134 137 139 143 144 144 144 158 69 16 21 18 12 93 197 195 193 191 68 26 37 13 15 13 55 172 186 195 78 3 14 8 8 10 7 118 171 161 145 32 18 27 11 38 170 193 197 170 23 7 8 7 2 27 127 137 132 124 119 122 118 41 37 26 130 180 183 192 212 83 0 15 8 10 7 31 150 158 148 142 143 156 80 48 57 32 75 172 182 185 187 195 178 158 144 149 167 179 171 166 165 161 156 144 142 157 58 52 54 37 29 29 149 191 190 191 173 164 158 150 150 145 180 184 173 171 164 166 175 179 174 63 50 46 25 16 7 121 195 190 190 169 158 161 156 134 86 49 29 142 165 159 158 161 170 184 124 46 55 34 10 25 163 187 185 178 161 144 97 27 4 13 2 53 171 171 169 166 153 162 110 62 59 15 75 202 198 201 114 5 13 11 14 27 160 173 120 119 121 119 121 122 122 122 122 122 125 126 129 132 133 132 129 125 124 127 133 135 138 139 140 148 152 148 139 137 146 157 164 164 153 146 150 155 153 145 134 127 125 132 143 154 159 149 125 118 127 134 131 129 128 133 137 133 125 116 118 109 94 100 109 107 107 108 111 113 114 116 116 116 
115 113 112 110 115 118 121 126 135 142 143 141 140 140 141 141 141 139 137 135 135 135 134 134 135 136 136 135 133 133 132 134 134 134 134 134 134 135 135 135 136 135 133 132 130 132 134 138 142 146 148 147 144 140 134 132 131 125 124 124 124 124 123 123 128 127 129 130 132 134 134 137 140 142 143 144 142 159 196 80 15 22 18 10 57 185 194 193 194 91 16 35 16 15 17 30 148 183 193 119 4 12 8 8 9 8 121 174 163 155 46 17 22 11 23 147 185 191 167 20 6 7 9 7 23 124 135 126 122 117 113 85 32 19 37 157 185 186 190 177 27 5 6 7 9 5 82 159 148 140 134 138 139 50 33 33 28 144 179 178 186 192 203 199 186 171 173 177 176 168 166 164 161 158 143 145 144 52 65 49 41 42 92 183 190 191 194 182 172 160 143 148 171 190 176 172 168 162 164 170 177 166 58 48 42 19 15 31 162 191 194 192 176 158 157 152 143 147 152 151 164 160 155 154 160 167 181 114 47 49 25 3 36 175 187 183 170 152 154 149 131 74 15 0 95 177 167 164 161 148 160 113 58 63 36 18 157 202 199 154 13 11 12 16 8 104 189 151 97 110 123 118 119 121 121 120 121 121 125 128 130 133 133 129 128 127 129 132 133 135 136 136 143 150 148 140 133 137 151 162 165 163 162 161 157 148 137 128 125 123 125 139 152 154 144 126 117 125 137 135 129 128 128 137 137 130 121 118 113 99 97 107 106 106 108 110 114 114 117 116 116 
115 116 114 112 111 116 120 122 128 135 142 141 140 140 140 140 138 137 137 137 135 135 136 136 137 138 137 136 134 133 133 133 133 134 134 134 134 136 136 136 137 136 135 135 134 136 139 144 148 149 148 146 143 140 135 131 130 128 123 123 122 121 123 126 130 130 131 133 136 137 137 139 142 145 148 151 152 190 203 93 14 15 16 14 27 162 195 191 196 127 31 27 20 16 20 14 101 183 181 167 33 4 11 9 11 8 120 175 165 162 63 11 17 12 15 141 188 185 175 33 4 8 11 6 25 125 131 124 121 110 102 46 25 17 44 164 179 179 182 150 19 7 7 6 7 16 125 155 142 134 125 134 115 31 41 23 66 169 178 181 190 199 211 204 119 73 93 72 129 170 165 162 156 151 140 157 132 54 64 58 44 65 162 185 193 191 195 196 194 166 151 156 173 182 176 172 165 158 159 164 177 154 51 63 61 42 32 94 177 187 195 190 187 171 157 150 142 141 156 165 163 160 156 152 157 165 177 101 45 55 36 10 78 186 185 187 178 155 150 150 143 139 100 72 156 168 163 160 155 149 160 117 59 58 44 18 131 197 193 184 61 1 8 15 5 67 180 172 107 61 93 131 122 116 120 120 119 119 123 129 134 138 137 133 130 128 129 131 132 131 132 131 136 147 147 143 137 136 148 157 164 170 169 162 152 139 128 124 123 122 124 139 149 148 137 127 118 120 135 142 133 129 125 132 140 136 126 118 114 103 95 105 107 107 107 109 113 115 117 116 116 
115 118 116 115 113 112 114 120 123 128 135 138 140 138 137 137 135 136 137 137 135 138 138 138 141 140 139 138 137 134 133 133 133 134 135 135 135 137 137 138 136 136 137 140 139 143 147 149 149 146 145 144 143 141 138 132 128 126 123 122 122 123 126 129 131 132 136 137 139 139 139 141 144 150 155 158 171 202 201 115 33 80 39 15 11 112 194 186 198 103 12 31 21 17 20 15 50 169 172 175 116 5 16 11 11 11 122 171 166 168 75 9 23 14 12 124 188 181 175 46 3 10 14 1 62 134 130 125 118 105 87 28 24 14 64 163 168 173 158 85 40 6 12 11 3 40 143 148 137 127 116 129 90 36 46 44 130 172 178 185 190 199 175 67 4 1 3 0 35 158 161 156 149 144 137 162 118 59 56 41 18 120 177 182 195 197 198 200 212 199 176 178 182 186 172 162 157 153 153 164 175 144 53 62 55 44 41 141 176 184 193 193 195 191 166 150 146 159 171 162 161 159 154 150 156 163 172 82 41 42 35 36 140 183 184 188 185 174 155 149 139 135 151 164 164 163 158 155 148 141 156 109 52 48 31 18 145 193 190 178 136 83 27 7 8 53 173 169 146 56 47 75 159 134 113 117 118 119 124 131 137 141 142 138 133 132 131 130 129 128 127 125 125 138 148 147 140 139 142 152 162 168 167 160 148 134 126 123 120 122 133 144 145 141 133 136 122 114 127 147 141 133 128 127 138 141 129 120 113 105 94 100 109 107 108 109 112 114 115 115 115 
115 125 119 117 118 116 113 115 119 123 127 129 135 135 135 136 136 137 137 137 137 139 141 141 142 143 142 140 138 134 133 132 132 133 133 134 137 139 139 141 138 139 141 146 147 149 150 148 147 145 142 142 143 141 138 134 128 126 124 123 122 125 127 130 134 137 140 141 140 142 143 143 147 152 157 162 182 201 205 137 91 152 52 12 13 48 176 187 184 148 21 22 27 19 17 19 18 125 171 161 166 50 0 12 9 17 132 168 163 171 97 11 28 16 9 104 174 170 146 54 2 10 4 17 110 135 128 124 118 106 73 15 27 12 82 163 162 163 86 40 43 8 11 12 4 79 146 137 130 123 107 120 64 39 46 53 146 167 178 182 190 196 57 0 11 9 11 8 36 145 153 148 141 135 138 164 93 48 54 30 72 158 168 183 195 205 202 215 191 102 46 60 64 89 146 157 148 146 151 160 173 133 53 46 34 12 100 176 174 184 193 200 206 213 103 39 43 64 97 150 157 153 149 147 154 161 164 72 45 39 20 55 177 180 185 187 190 191 168 154 152 156 151 156 163 159 153 148 144 132 146 88 48 45 30 22 153 193 190 176 150 145 114 41 0 70 179 166 156 63 47 32 114 194 150 120 115 116 124 131 138 142 144 141 135 131 130 131 128 123 120 119 119 132 146 149 145 137 138 146 156 161 162 158 149 142 131 123 123 132 144 146 140 134 132 144 132 113 119 145 150 139 135 128 133 139 131 121 113 107 97 94 108 108 108 108 112 111 113 114 115 
115 133 129 123 120 119 116 115 115 117 121 124 127 131 134 136 136 137 139 138 141 144 145 145 145 143 144 141 139 136 132 132 131 131 133 135 137 140 142 143 144 144 147 150 150 150 147 146 144 143 140 140 138 136 132 130 127 125 126 125 123 124 127 129 135 139 141 142 143 143 144 145 147 151 160 146 140 204 200 172 138 101 18 13 17 14 125 190 183 189 118 22 28 20 17 19 13 49 146 161 157 140 73 9 6 24 142 167 160 160 105 17 25 19 6 89 163 138 56 47 35 3 48 111 133 134 129 123 116 100 64 14 23 15 102 154 157 77 12 34 34 8 3 6 69 133 137 135 128 119 100 100 39 38 37 44 150 169 172 175 187 163 18 8 8 9 9 6 49 145 146 143 135 123 134 156 77 58 56 43 139 164 168 181 193 203 203 155 35 2 5 5 6 1 113 156 144 144 151 159 172 115 46 54 27 40 156 181 182 186 193 202 205 110 0 2 2 2 0 80 159 143 143 145 152 157 152 59 46 38 22 118 181 179 184 189 197 197 185 106 70 106 151 162 157 156 149 144 137 134 144 63 43 45 20 49 173 187 186 187 166 145 136 118 62 118 181 165 160 82 36 43 56 182 194 167 136 124 125 131 139 143 143 141 137 131 126 125 125 120 117 115 117 125 141 150 148 138 138 147 150 154 157 160 159 154 147 140 144 151 151 144 133 128 132 142 140 116 114 137 155 148 141 134 130 134 129 121 112 108 103 95 104 108 106 109 110 111 112 115 115 
116 138 134 130 125 123 119 117 114 113 116 120 123 125 128 135 138 139 137 137 140 143 147 148 147 146 146 144 141 137 134 133 133 131 134 136 139 143 146 148 150 151 151 151 149 148 146 145 143 141 139 135 133 131 128 129 130 127 125 126 123 123 126 130 134 140 142 143 143 144 144 145 147 148 161 94 62 198 199 200 146 32 17 20 17 17 55 177 187 186 186 82 14 26 20 18 18 12 94 159 152 157 167 104 3 46 158 165 158 156 88 10 19 19 6 56 149 113 32 36 85 85 109 142 130 130 122 116 110 94 59 14 17 20 108 149 101 8 9 36 111 86 28 87 139 137 138 133 123 107 98 73 25 43 21 72 164 166 169 166 181 117 4 10 12 11 10 4 54 147 144 137 129 116 121 138 63 57 50 48 150 165 169 180 190 201 195 42 2 13 10 12 12 20 119 149 141 142 148 154 167 99 47 49 30 90 166 172 186 188 190 201 139 3 9 8 7 10 7 83 154 137 140 141 147 156 138 44 48 24 43 161 180 181 180 183 190 185 83 4 0 2 30 131 158 150 144 137 130 138 146 59 47 32 16 115 182 179 185 191 175 153 138 136 150 167 173 166 162 95 32 45 29 150 194 188 112 98 132 130 135 139 139 137 133 128 124 121 124 124 121 120 123 129 142 151 150 147 151 153 151 151 155 161 172 171 168 167 168 164 154 138 125 128 133 135 138 121 112 128 156 156 148 143 134 130 126 120 113 111 107 97 100 109 107 109 110 112 114 115 117 
117 140 139 136 133 128 124 119 116 116 113 113 117 121 123 127 133 137 135 135 138 142 146 147 147 148 148 145 143 139 138 135 135 134 136 140 143 147 151 154 155 154 152 148 146 145 145 145 142 139 135 131 127 127 130 133 134 131 127 126 125 123 126 130 134 138 142 143 144 144 145 146 145 142 151 77 20 145 205 202 167 31 18 24 16 20 12 124 188 180 180 156 42 18 23 17 17 10 56 142 153 164 162 161 107 120 163 163 158 156 105 13 18 17 8 35 136 93 17 30 103 143 136 137 123 117 113 107 102 91 62 20 13 39 114 126 32 4 6 39 140 152 141 146 143 141 138 126 117 101 92 47 20 36 17 102 160 162 165 167 163 91 9 11 14 7 10 4 55 147 142 130 124 112 112 117 44 48 38 39 150 179 170 177 183 199 162 18 9 10 9 10 9 22 127 145 138 136 142 149 163 77 39 52 31 98 167 166 177 184 188 198 72 1 10 5 6 8 5 104 150 140 138 135 143 153 118 35 51 22 59 166 174 181 178 180 187 84 0 8 9 10 0 100 160 147 142 136 127 134 131 53 47 23 53 166 176 180 187 190 189 102 81 99 144 170 170 164 157 106 36 47 17 119 192 186 82 30 122 130 130 133 133 130 127 126 125 126 131 134 132 129 131 136 142 150 150 153 156 155 151 147 154 160 172 179 181 184 182 172 152 131 123 133 138 128 129 124 112 118 149 161 155 150 140 132 125 121 117 116 114 102 97 108 110 109 109 112 114 117 118 
118 140 140 139 136 131 127 124 120 117 116 115 114 115 119 122 125 130 134 136 139 143 145 145 146 148 149 147 147 144 142 138 137 140 141 144 149 152 155 156 155 150 149 146 145 144 143 142 139 136 132 129 128 130 133 134 137 133 129 127 125 124 127 131 135 139 141 142 143 143 143 143 143 140 148 94 15 57 186 193 199 83 11 21 15 16 11 53 169 178 174 172 121 21 25 21 16 11 30 122 142 142 145 148 163 155 157 161 156 150 126 23 14 20 12 28 125 52 5 92 145 138 136 130 116 105 102 100 93 83 70 51 12 59 131 97 4 10 0 52 148 150 143 139 133 124 125 119 113 98 81 29 20 20 39 134 153 153 162 122 57 51 20 10 12 9 10 0 69 150 142 131 121 108 105 97 39 55 36 39 154 181 177 172 175 186 137 13 8 13 11 11 6 44 141 142 138 134 137 146 155 59 40 53 24 104 167 161 169 174 180 175 41 1 7 12 10 5 21 123 142 135 134 134 139 150 97 30 44 12 62 167 171 179 176 181 150 12 7 7 6 7 6 103 161 150 141 134 122 134 100 42 50 17 89 174 173 178 182 182 127 11 4 4 62 171 167 158 153 90 31 46 16 95 185 185 87 18 107 132 129 132 133 134 134 136 136 134 138 139 137 135 134 137 139 146 148 148 151 151 146 142 147 155 162 171 180 188 187 173 151 128 124 137 139 126 120 121 114 111 133 160 160 157 149 137 129 122 121 126 123 109 94 105 113 107 110 111 113 117 118 
118 139 139 136 135 132 129 126 124 122 120 119 117 113 115 119 122 125 130 135 138 142 143 144 145 147 149 148 147 147 143 143 142 145 148 151 153 155 154 153 151 147 145 144 143 140 139 137 135 133 131 132 132 135 135 135 138 136 131 128 125 124 126 131 136 140 140 140 141 140 140 141 141 139 145 96 28 17 94 188 194 151 19 21 16 16 18 18 136 179 172 165 154 51 16 24 16 15 15 97 137 132 128 126 143 145 150 157 154 144 140 82 13 20 17 25 106 31 1 103 144 129 120 113 114 100 96 97 92 76 82 67 17 83 142 57 1 11 56 117 134 140 139 136 125 117 115 112 107 92 78 33 21 15 47 129 139 146 91 15 18 50 22 1 4 2 10 34 117 150 137 131 122 102 96 71 30 53 32 42 147 165 172 174 173 172 143 24 7 14 12 13 1 58 145 141 141 136 132 133 139 49 42 46 12 83 171 165 161 163 165 159 53 1 9 10 9 0 46 136 136 132 132 132 135 146 74 29 35 13 115 164 160 168 169 177 112 4 7 11 10 8 7 113 154 145 138 129 117 134 75 41 43 25 131 168 172 175 183 154 19 5 12 6 38 167 165 155 147 65 34 40 15 65 177 186 90 9 93 146 138 141 143 145 144 142 140 135 134 134 132 132 134 132 134 139 141 139 139 139 137 136 137 142 146 152 163 176 181 173 155 135 128 139 139 125 116 118 116 110 119 153 162 160 158 147 136 124 126 136 133 120 101 102 113 112 110 110 114 116 117 
118 138 137 135 133 133 133 132 130 128 125 122 120 119 114 116 119 121 123 130 136 140 144 143 143 146 148 148 147 146 145 146 148 149 152 152 154 152 151 150 147 144 143 141 139 137 134 133 132 133 135 136 137 137 136 135 138 137 135 131 126 124 124 130 137 139 139 138 137 139 139 138 138 138 128 47 31 25 16 125 188 191 91 6 17 18 19 13 115 178 171 167 162 112 16 22 21 17 9 70 131 126 123 108 109 94 141 150 147 140 132 124 83 20 18 27 96 25 29 114 126 115 110 109 85 74 93 93 89 81 90 75 27 100 129 50 0 74 128 124 117 118 131 134 117 110 110 110 102 92 85 45 20 10 58 119 127 108 12 11 21 31 70 61 34 49 84 138 144 144 135 129 121 98 92 55 28 41 14 57 158 160 162 171 171 129 76 28 9 14 12 5 32 109 143 145 142 137 126 121 120 45 42 43 14 82 157 159 157 159 162 132 63 10 8 10 7 1 72 135 137 137 134 130 132 139 58 35 24 26 141 161 159 159 169 163 107 12 8 12 11 0 34 133 144 138 133 125 115 125 52 44 33 55 160 167 167 167 177 84 1 9 11 0 75 170 157 152 137 50 35 32 15 84 178 183 107 5 70 152 145 145 146 144 142 138 134 129 125 124 125 127 129 126 130 137 136 130 127 127 128 129 131 132 134 135 143 158 169 174 162 146 138 139 136 122 116 116 116 111 113 140 159 160 162 156 141 125 125 140 141 130 113 98 103 114 114 113 113 114 117 
118 136 135 134 133 134 135 135 135 134 132 128 124 121 118 116 116 118 119 123 129 136 141 143 142 144 148 151 151 150 148 147 149 152 152 151 149 147 147 146 143 141 140 139 136 133 132 132 135 135 137 137 138 138 138 136 138 139 136 132 127 123 123 129 136 137 140 138 137 136 136 136 133 138 115 36 25 23 19 28 147 185 164 64 15 12 15 8 87 177 169 167 158 148 94 22 18 21 12 38 120 119 112 101 94 30 109 142 139 133 129 120 120 79 18 19 90 97 107 116 116 104 99 62 8 20 84 89 84 82 90 81 33 91 122 108 80 122 120 117 109 106 121 121 109 107 111 110 105 92 94 50 15 33 85 111 116 33 6 13 10 69 132 137 136 142 147 142 140 139 133 127 117 93 94 50 24 35 9 83 156 156 158 121 62 34 37 28 12 4 9 62 131 144 143 144 137 135 121 120 119 37 37 31 15 106 145 144 153 143 105 52 34 15 2 3 14 83 129 136 141 136 134 129 128 130 45 32 12 70 146 152 158 159 123 73 52 19 4 2 3 40 107 138 142 137 127 120 114 109 37 37 12 99 162 160 158 166 153 36 3 10 9 11 126 157 147 145 119 34 34 23 29 148 180 170 128 44 49 139 145 143 141 139 134 128 121 117 114 114 119 124 125 128 136 141 135 128 125 124 124 124 128 129 128 125 127 142 158 169 168 156 150 143 133 122 117 115 113 110 113 127 149 157 162 160 145 127 119 134 144 140 129 105 97 107 119 117 115 116 116 
115 137 135 134 134 135 137 137 138 138 136 134 130 125 121 119 117 116 116 119 123 129 136 142 146 149 151 153 156 155 151 149 149 150 152 148 145 145 145 142 140 137 136 134 134 135 135 135 138 139 137 137 138 138 139 139 139 139 137 133 128 124 123 127 135 139 139 139 138 135 134 133 132 133 168 161 104 49 25 14 43 149 172 152 117 96 45 15 112 177 169 167 158 149 143 92 29 13 17 14 93 123 104 100 52 2 38 121 129 125 126 122 112 111 44 7 64 118 114 107 111 99 77 8 4 6 59 87 80 82 84 83 31 85 119 123 133 119 113 108 99 94 53 27 69 107 110 109 106 86 97 50 21 87 111 112 83 6 9 10 4 90 138 134 140 138 132 131 133 129 129 122 109 90 98 50 23 23 56 117 133 145 81 8 5 20 26 48 107 81 107 142 141 138 139 137 135 132 120 118 121 33 31 12 51 136 144 149 100 33 6 20 26 42 77 74 111 136 136 138 140 135 134 125 125 119 37 16 52 133 144 153 127 54 15 10 34 24 34 50 81 137 143 142 143 135 129 117 111 88 33 26 19 125 150 152 162 132 67 26 7 10 0 61 152 144 140 140 89 25 33 14 98 178 179 171 138 102 58 117 131 136 132 128 124 117 112 111 113 115 123 126 128 137 145 142 133 127 124 125 124 122 122 127 126 124 120 128 147 159 169 166 158 147 130 121 117 114 110 109 111 117 137 149 158 159 146 128 115 123 142 144 142 125 96 97 118 123 119 117 116 
114 138 137 137 136 136 138 139 140 139 140 138 136 130 125 121 119 117 115 116 120 123 130 141 149 154 156 157 157 156 152 148 145 146 148 149 147 143 140 139 136 133 133 134 136 138 139 139 140 141 138 137 137 137 138 139 140 140 137 135 130 126 123 127 135 139 140 140 137 135 133 131 128 134 189 196 184 159 101 23 15 49 140 157 163 176 161 144 161 170 169 164 157 150 137 129 101 62 40 9 45 114 106 65 13 11 5 70 123 116 122 120 110 105 80 15 51 110 110 102 96 89 52 5 7 1 40 86 77 83 83 86 26 70 124 120 121 113 99 97 94 56 1 1 16 90 106 111 106 91 94 50 51 103 116 117 28 7 10 4 47 124 130 129 135 128 122 120 119 122 125 115 99 88 107 51 17 31 101 122 132 80 3 10 13 14 72 122 128 148 149 135 131 130 133 134 132 128 115 117 116 33 23 29 102 128 136 93 7 4 10 21 67 125 137 141 141 136 137 135 128 129 131 121 124 108 16 43 113 125 139 103 21 1 10 16 42 97 130 135 142 138 138 139 138 131 126 113 111 68 27 21 89 142 147 121 80 25 30 27 7 4 44 123 139 135 132 129 49 25 18 40 157 174 176 176 140 109 89 105 88 136 125 125 121 118 114 114 116 121 127 130 138 148 150 139 129 124 123 126 123 119 118 123 126 125 119 119 133 150 161 169 162 149 129 118 116 113 109 107 109 115 126 139 149 156 143 128 115 115 136 146 145 144 111 95 108 126 126 124 120 
119 138 138 137 138 137 137 138 140 140 140 138 137 134 131 127 122 119 117 116 117 120 123 130 143 154 159 157 157 153 148 146 144 143 144 146 146 142 138 135 134 132 135 138 140 140 140 140 139 141 140 138 137 137 138 140 139 141 139 136 132 127 124 126 134 139 140 140 142 140 133 129 126 131 183 191 185 180 167 94 21 12 44 128 157 170 169 177 166 163 164 163 156 147 137 124 117 110 94 47 32 91 106 30 1 13 10 18 89 113 121 115 107 101 97 57 39 104 104 103 90 60 12 4 5 5 55 90 84 87 83 97 41 68 123 119 114 110 101 73 39 9 6 7 8 74 104 106 102 91 89 54 62 99 116 75 5 11 7 64 116 110 105 117 131 129 119 114 117 121 122 114 96 94 111 47 25 90 118 127 100 14 7 10 2 20 121 134 114 138 132 127 125 126 130 130 135 127 113 117 112 24 24 86 113 118 70 7 7 10 2 21 128 125 117 137 133 129 126 128 128 132 132 122 128 93 41 100 115 125 84 12 5 12 1 77 130 120 120 135 129 129 129 128 132 129 119 108 111 46 19 63 128 144 115 20 0 8 27 28 18 68 128 129 130 127 126 94 21 24 25 117 172 172 173 169 131 73 79 115 74 149 132 125 125 121 118 117 119 126 130 138 149 154 146 132 119 119 119 123 121 117 115 118 125 125 121 118 122 138 156 165 166 152 134 118 114 113 108 104 103 113 120 129 137 149 140 125 116 112 124 142 147 149 137 101 100 119 127 128 130 
134 138 137 137 137 138 137 138 138 138 138 136 135 133 132 132 129 125 121 120 118 118 119 122 130 140 149 154 153 150 147 145 144 143 143 142 143 140 138 136 138 138 139 142 142 141 141 141 139 140 140 140 139 139 139 140 139 140 141 137 133 128 124 126 133 139 140 142 150 157 151 138 130 123 160 185 178 173 163 149 87 28 11 38 120 150 143 156 159 155 159 157 152 141 133 126 119 107 103 94 82 85 101 89 48 16 11 7 41 113 114 108 102 98 90 88 38 77 101 99 59 8 5 6 4 14 79 91 85 81 80 98 47 68 115 116 113 98 47 10 1 5 6 4 13 87 102 97 94 85 85 70 37 82 110 50 0 12 75 118 113 109 99 101 113 112 104 104 107 116 119 113 104 99 106 57 77 114 120 125 36 4 11 5 30 95 119 113 128 135 127 131 125 124 128 129 135 123 113 118 105 24 73 104 113 80 4 7 5 1 21 89 119 122 128 133 126 128 124 125 130 133 128 124 129 98 90 110 118 75 4 7 6 12 57 116 118 114 121 125 125 126 125 128 132 129 117 113 102 28 76 117 125 102 21 4 10 6 46 95 113 128 127 125 129 125 120 54 19 11 84 169 164 166 170 143 48 4 52 117 68 155 151 137 128 125 121 120 123 129 138 151 155 151 138 122 113 112 115 117 119 117 114 115 121 126 124 121 119 126 149 167 170 159 143 125 112 111 108 103 100 108 118 121 126 138 133 122 117 114 118 132 145 147 148 119 97 110 130 141 142 
142 135 137 137 137 137 139 139 137 136 135 133 130 130 131 134 136 135 130 123 121 118 119 120 123 126 132 142 147 146 146 146 143 142 142 141 141 140 138 142 144 143 142 143 143 143 142 141 140 139 139 139 141 140 139 139 141 140 140 138 135 129 124 126 132 138 140 142 150 160 161 157 145 131 78 118 155 162 155 138 122 86 43 15 25 117 138 130 139 78 75 129 143 134 125 127 118 109 105 97 87 80 88 91 84 71 28 6 19 92 109 106 100 95 86 87 59 34 95 100 41 0 5 6 0 23 84 89 82 76 75 91 56 76 106 106 106 90 5 5 8 6 6 4 61 105 102 95 91 86 86 83 18 27 95 93 68 96 114 108 108 100 92 90 53 22 16 63 106 114 115 110 105 100 106 60 39 81 114 88 13 7 4 42 115 126 118 112 109 118 117 92 95 118 113 123 130 119 112 119 92 24 66 98 116 55 0 7 27 68 108 123 115 110 115 127 117 90 103 119 124 127 123 122 126 80 76 107 108 21 0 9 34 87 119 112 105 104 113 119 101 107 118 123 129 124 115 119 92 69 112 121 104 16 6 5 4 54 112 103 124 125 121 121 127 130 104 29 15 37 140 162 160 162 157 59 6 7 64 116 80 156 139 103 133 130 126 126 126 136 151 158 154 144 128 115 110 109 114 120 120 117 114 113 114 121 125 124 119 120 146 168 173 168 152 136 116 108 105 102 100 103 115 120 119 127 125 120 119 116 119 128 137 145 151 144 101 103 125 148 143 
138 132 134 137 138 139 138 137 136 135 132 131 131 130 132 135 140 144 143 137 129 124 120 119 119 121 125 129 138 143 143 143 141 140 142 143 144 145 144 146 148 146 144 141 142 143 143 142 140 140 139 139 140 140 140 140 140 139 138 137 136 129 124 126 132 137 137 137 139 148 156 160 165 109 17 20 46 76 97 115 115 126 128 89 35 38 109 122 117 24 3 28 85 118 114 117 114 108 104 98 91 76 71 91 87 74 74 42 2 56 108 103 97 92 84 79 73 46 87 103 78 34 16 6 26 82 94 87 81 73 69 86 79 94 114 108 102 88 22 0 1 1 2 39 91 103 101 94 90 87 91 63 14 48 100 108 112 116 103 96 98 91 85 61 6 4 5 23 103 112 113 108 101 100 102 42 19 23 90 80 16 29 88 125 118 118 114 106 99 81 27 6 11 64 104 116 123 115 110 117 65 18 20 66 118 96 71 88 122 123 115 115 111 102 100 88 38 4 38 106 115 121 118 122 114 34 18 95 112 41 50 99 125 121 115 113 105 100 90 44 9 41 112 116 126 119 115 120 71 52 107 126 62 0 5 31 90 117 106 114 122 116 114 121 123 117 62 18 17 102 153 154 157 138 66 8 14 8 95 122 133 161 92 44 134 134 131 131 134 148 159 157 147 134 119 113 112 113 119 126 125 117 113 112 109 115 123 123 120 122 149 167 169 170 163 145 126 110 105 102 101 101 110 121 117 116 119 119 121 118 123 131 134 139 152 166 127 102 112 132 132 
127 132 131 134 138 139 138 135 133 131 130 130 131 132 135 141 146 150 151 148 142 134 126 121 118 120 122 125 130 136 139 139 139 141 144 146 146 148 146 147 147 146 147 143 142 145 143 143 142 141 138 137 139 141 142 140 139 139 140 139 136 128 125 126 131 135 135 134 134 135 139 149 163 84 16 25 12 6 11 20 45 111 107 53 44 64 57 89 79 13 17 12 12 37 83 114 110 107 102 99 94 81 68 69 94 85 83 112 73 84 107 102 96 92 86 80 73 64 82 107 109 108 100 91 98 103 96 87 78 73 67 78 78 92 117 119 118 117 109 70 45 34 69 99 94 103 97 90 88 88 89 30 47 98 103 108 104 99 100 92 89 72 46 14 7 11 8 26 100 109 108 99 99 101 84 24 24 38 98 121 104 108 128 119 105 106 101 91 90 38 1 11 3 45 118 118 119 112 110 104 32 20 16 45 111 116 121 121 117 102 103 102 97 91 70 18 1 5 27 108 116 116 112 126 86 12 17 89 115 108 115 120 108 106 109 102 98 90 39 2 6 25 107 116 117 114 115 103 25 32 110 122 88 59 81 114 121 111 100 101 107 105 111 116 108 94 29 15 69 135 136 101 55 29 28 20 7 40 132 118 151 156 56 76 144 135 135 136 146 156 158 150 138 123 116 114 114 116 123 132 131 121 113 112 109 109 119 127 126 133 155 161 162 166 169 155 136 116 105 103 101 101 105 118 120 113 111 116 121 118 123 133 138 144 156 163 149 106 102 115 117 
117 135 134 135 138 140 141 141 136 134 131 130 133 138 141 145 149 150 150 147 145 141 134 127 121 119 119 122 125 130 137 141 144 147 150 150 147 146 145 145 146 145 147 148 145 144 144 143 142 142 141 139 138 139 140 140 139 139 141 141 136 129 124 126 130 132 132 132 133 131 130 133 150 104 20 25 20 15 14 12 6 12 40 39 28 78 116 100 84 40 14 13 13 9 26 93 108 108 105 100 94 88 83 73 72 78 72 96 119 107 104 101 97 93 87 80 74 67 59 82 102 103 114 121 116 105 97 87 80 71 63 70 65 67 111 114 113 115 121 128 125 118 115 110 106 104 100 91 83 80 83 51 85 101 102 103 104 95 91 84 52 22 8 9 11 8 11 66 96 106 106 96 94 105 54 13 35 93 112 114 117 113 110 111 95 90 85 76 40 6 9 10 5 72 111 110 108 103 108 81 13 25 26 86 113 106 109 108 103 94 88 88 79 52 12 5 10 1 51 116 110 113 117 123 62 14 70 108 107 105 105 105 99 92 95 87 69 29 7 10 1 48 106 113 113 105 115 70 19 83 118 119 119 119 115 105 105 100 85 36 19 65 113 105 102 64 20 68 115 103 63 9 2 14 28 15 7 97 131 136 162 133 31 98 144 136 140 145 154 154 149 138 123 114 114 114 115 116 123 135 136 124 114 111 108 104 114 130 136 151 159 151 151 158 168 165 146 123 106 103 101 99 100 111 122 116 109 113 120 119 121 137 148 153 156 151 142 117 100 109 113 
110 141 138 138 142 145 147 149 146 142 137 138 141 144 147 148 147 146 144 141 138 136 133 129 124 120 118 118 120 124 131 142 149 151 152 150 146 144 143 144 144 143 145 148 149 148 146 144 141 142 142 139 137 137 138 137 138 138 140 141 136 129 124 125 130 131 130 130 130 132 132 131 141 93 20 12 18 19 13 14 15 10 19 52 47 113 143 141 128 110 84 60 30 15 6 27 93 105 104 101 97 96 93 89 79 69 59 77 132 123 111 100 95 91 87 84 78 71 61 55 80 95 105 118 122 113 99 92 80 70 62 63 65 43 78 95 101 109 116 123 127 129 125 121 111 101 103 93 82 77 76 67 85 105 105 97 96 92 86 63 8 4 5 5 3 18 60 90 101 112 105 97 89 104 38 27 74 108 112 113 112 107 102 101 97 75 41 21 7 8 6 2 30 91 101 109 109 98 105 64 11 26 81 112 112 113 110 100 94 92 85 63 27 6 6 7 1 14 87 108 114 115 115 112 58 70 107 110 107 106 101 94 94 85 48 26 10 2 4 7 42 99 109 116 108 98 108 70 80 112 109 110 103 102 100 90 88 75 30 5 1 71 110 103 93 83 79 109 50 9 5 5 5 14 13 16 71 118 113 147 153 95 22 109 142 139 146 153 154 146 135 121 113 112 114 116 116 117 123 136 139 128 114 110 107 103 107 127 144 160 159 140 134 151 164 170 156 134 111 102 102 100 99 104 120 121 112 113 120 124 131 144 153 153 152 145 134 123 107 103 113 
114 144 141 143 145 149 154 156 156 152 149 150 149 151 150 148 144 141 139 136 133 131 129 127 124 121 120 118 118 119 123 133 147 151 151 146 142 142 142 143 143 142 142 145 148 150 149 145 143 142 143 141 137 136 136 136 137 136 137 141 136 128 126 125 129 129 126 128 131 133 133 132 144 167 135 64 35 11 7 10 14 29 70 127 140 158 157 140 115 109 112 107 94 64 32 14 67 102 99 97 97 97 95 90 91 87 53 96 155 146 130 111 99 93 86 84 81 73 68 61 61 74 84 87 107 90 58 68 80 68 58 55 70 84 78 85 96 101 116 126 133 138 135 123 115 87 49 69 80 74 68 61 83 103 113 114 115 110 103 101 93 80 66 58 55 66 87 98 107 113 103 83 85 101 43 58 104 110 114 111 105 99 94 91 63 7 1 1 4 4 18 46 84 100 110 111 104 88 99 65 29 75 105 115 114 114 106 94 86 79 33 0 1 2 3 5 30 78 105 109 110 109 102 101 74 86 107 112 108 102 97 94 89 44 5 4 12 18 34 68 100 103 108 111 99 95 104 87 107 118 111 97 93 72 36 33 27 13 5 2 44 98 105 94 108 111 105 86 10 13 21 32 49 82 67 86 114 102 126 147 114 33 19 113 143 143 155 155 147 137 122 110 110 111 113 115 117 118 122 136 140 131 115 109 108 105 103 119 149 160 149 129 120 140 157 168 165 146 121 104 101 99 99 101 112 121 116 117 126 138 150 149 145 142 149 144 137 129 117 104 110 
118 147 144 145 149 152 157 161 162 159 157 155 153 153 149 146 142 136 133 132 130 128 129 127 125 125 125 122 120 118 119 123 134 146 148 145 139 140 141 142 141 140 139 142 145 148 148 148 145 141 141 140 138 136 135 136 135 132 136 139 136 128 125 126 128 129 127 128 130 134 135 135 148 207 202 168 148 104 94 109 119 146 169 169 168 163 120 56 30 42 87 113 122 125 110 99 104 109 106 105 105 103 106 112 102 57 54 73 145 161 147 133 120 110 101 93 89 81 73 66 61 61 84 94 77 41 15 35 74 78 74 100 131 143 139 130 102 94 111 118 125 134 132 115 112 75 6 49 75 67 61 50 67 89 110 121 120 113 109 112 115 120 120 115 114 112 116 109 101 112 109 80 81 97 73 62 93 107 118 121 117 110 106 100 89 64 50 47 39 59 81 82 89 102 104 105 102 85 92 83 56 86 105 118 117 116 110 103 99 91 72 54 33 37 50 63 85 93 97 100 104 104 92 97 73 80 110 124 127 125 123 119 113 110 107 94 103 107 107 109 110 107 107 109 101 99 104 84 108 127 127 113 105 66 11 3 5 4 16 50 97 101 94 102 105 98 116 112 104 103 105 113 108 101 100 104 96 115 144 137 65 12 54 120 141 147 154 150 138 123 112 105 107 111 111 113 117 118 122 138 141 131 117 110 109 107 109 130 152 154 137 119 115 127 150 163 169 156 133 109 99 99 99 99 106 119 119 125 137 149 154 145 133 135 146 146 139 138 129 110 104 
114 148 146 147 152 154 160 163 164 164 161 158 153 151 148 143 139 133 130 130 131 130 131 134 133 132 131 130 125 121 118 118 121 135 146 143 140 140 141 141 140 139 138 138 139 143 145 147 148 145 140 137 135 134 132 132 132 132 134 139 136 128 127 126 127 129 130 131 132 134 136 138 160 191 182 177 160 158 158 159 166 171 166 158 154 114 16 6 14 27 107 153 157 147 130 119 131 135 133 131 130 131 128 108 71 49 55 44 70 117 136 125 112 107 95 82 58 60 62 64 71 88 126 141 135 128 107 108 128 138 147 156 153 150 149 148 143 116 91 92 92 109 98 62 50 69 67 70 66 73 83 108 86 86 95 72 54 48 44 51 82 108 110 115 118 119 119 121 118 111 118 111 97 94 86 60 76 99 115 123 127 129 125 117 114 123 128 121 115 113 108 108 118 116 100 101 108 102 98 95 64 73 96 114 124 128 126 124 120 117 126 133 127 122 119 111 111 111 103 97 104 106 102 103 71 74 103 121 131 140 141 138 136 140 140 138 130 128 129 130 126 109 114 125 120 110 95 64 84 119 133 137 129 125 113 40 5 52 82 102 97 89 95 90 89 119 122 123 124 114 115 111 101 91 85 83 108 136 134 118 68 67 110 121 139 145 145 139 128 116 108 102 102 108 110 112 116 118 120 137 143 132 117 111 110 113 130 149 152 144 128 115 113 118 139 157 169 165 144 119 101 99 100 101 101 113 120 127 141 149 144 131 120 127 141 143 142 144 141 127 104 
109 149 148 150 153 158 162 164 166 163 160 156 151 148 146 142 137 131 130 130 133 135 135 138 140 138 135 133 133 127 121 119 117 120 137 142 141 140 140 140 140 139 139 137 135 137 140 142 147 148 146 138 134 134 132 130 131 131 132 138 137 129 127 126 128 130 132 134 137 136 139 143 152 158 154 148 132 133 144 155 158 148 137 123 119 83 23 30 51 110 162 182 176 159 147 109 93 147 149 148 140 124 102 81 72 62 50 57 92 65 72 101 91 95 81 72 64 47 60 72 90 132 137 134 134 133 129 133 131 132 130 123 124 122 118 114 110 108 95 73 43 31 21 12 2 54 73 60 61 78 85 92 91 81 78 50 38 32 27 10 7 62 116 129 143 147 150 145 121 62 46 68 82 96 87 56 59 87 107 110 91 85 92 103 110 116 117 121 120 125 131 129 125 120 109 115 107 101 100 92 66 65 83 108 118 125 118 117 113 114 124 126 129 123 124 132 130 124 114 116 133 143 133 102 72 68 90 110 109 88 69 80 94 96 125 127 128 135 133 129 130 126 113 73 54 84 77 55 86 103 110 118 126 130 133 117 95 111 105 97 82 88 87 90 105 109 110 101 88 95 98 95 58 54 75 99 130 127 110 91 86 103 115 129 158 155 150 141 129 119 113 105 99 103 107 112 116 117 120 135 143 130 113 109 115 132 152 155 145 132 123 116 112 113 127 152 165 170 154 132 107 99 100 101 100 108 121 122 131 136 129 120 113 116 130 135 141 149 146 140 109 
103 151 150 150 155 160 163 165 163 160 155 151 146 146 143 138 135 133 133 133 136 139 139 139 141 141 137 133 134 135 129 122 118 117 121 135 141 141 141 141 139 139 140 139 135 133 135 137 142 145 147 145 139 134 132 131 130 131 132 137 136 130 127 126 126 131 133 136 138 138 141 147 152 145 110 102 75 94 119 116 101 101 97 80 61 52 32 27 26 82 158 184 174 158 136 42 17 105 127 122 92 60 74 113 84 82 103 128 140 108 72 107 136 127 105 89 64 40 47 55 60 68 64 66 69 70 67 70 69 64 63 62 63 65 64 63 63 67 75 82 84 52 33 31 42 63 60 56 55 50 50 49 49 50 52 58 64 90 107 82 28 104 160 166 173 169 159 154 85 1 8 5 26 78 73 52 43 54 81 78 16 12 12 19 32 65 107 118 128 132 132 135 139 139 128 87 29 30 66 86 56 55 65 86 103 58 28 27 33 32 67 105 116 135 147 145 142 146 163 181 195 202 171 111 57 56 65 90 68 12 7 8 11 9 77 127 142 151 150 153 155 159 93 3 15 69 70 91 105 110 104 85 102 124 128 131 129 110 98 89 80 80 98 123 122 108 93 30 14 33 40 23 12 64 100 112 87 71 74 75 99 111 106 126 161 161 163 161 154 141 127 116 109 111 112 114 116 116 119 135 142 130 109 115 137 153 157 148 131 119 121 119 110 111 116 142 161 170 165 146 121 102 100 101 103 118 127 121 118 119 117 113 112 113 120 126 135 149 148 143 123 
103 150 150 149 153 157 159 157 156 152 147 144 143 143 139 135 136 138 138 138 138 137 139 140 141 142 139 136 135 135 138 131 123 119 117 122 135 139 139 140 139 140 141 139 136 133 132 132 137 140 143 146 145 139 134 132 131 131 133 136 135 129 126 125 126 132 137 140 141 140 143 148 153 154 148 144 134 108 50 32 23 25 28 23 21 22 39 70 101 112 125 152 148 121 79 26 29 95 102 92 82 52 65 112 104 140 162 158 140 121 82 96 147 136 109 76 49 35 39 45 49 52 56 59 60 63 63 63 65 67 69 71 69 70 70 70 70 67 67 69 75 82 84 74 71 62 56 58 58 59 58 57 58 60 59 57 61 81 118 130 138 165 171 173 172 170 160 157 70 4 17 13 64 79 70 57 39 39 43 54 46 42 46 36 14 0 80 135 148 164 162 161 157 153 110 14 6 8 65 70 42 40 43 48 63 39 31 27 11 1 0 30 127 149 161 165 175 191 209 218 220 217 192 140 96 95 69 55 72 70 57 37 8 0 46 148 159 171 179 181 176 173 86 2 44 92 96 114 124 123 126 106 79 106 123 124 111 96 84 70 60 78 108 129 139 138 123 40 0 2 1 12 56 88 93 50 14 8 14 54 90 84 100 122 142 141 148 158 167 169 158 139 122 120 120 120 120 118 122 136 143 131 122 137 154 157 150 132 114 112 121 123 112 108 110 127 154 167 172 158 136 110 102 102 111 133 138 126 117 113 108 111 112 113 114 117 125 142 150 148 140 
110 150 151 152 152 154 153 150 147 143 139 136 137 138 137 138 141 142 140 140 138 137 137 140 141 141 140 139 138 137 138 139 132 122 120 118 122 131 136 139 141 142 141 141 137 134 132 130 131 135 139 142 146 146 141 136 131 132 132 134 134 130 127 123 127 134 139 143 145 143 146 150 153 152 154 156 158 152 107 59 37 34 40 54 57 85 121 132 141 145 141 127 104 76 61 42 68 143 139 110 91 63 67 64 145 174 165 156 150 133 99 89 122 125 104 70 61 55 55 68 74 83 87 90 94 92 90 91 91 93 92 94 94 97 98 98 98 97 96 91 90 88 89 83 80 76 75 75 75 79 81 81 83 84 80 78 73 76 98 135 150 162 169 170 170 167 158 156 85 10 3 35 102 97 80 56 54 58 59 59 62 61 72 103 95 55 133 170 172 179 182 173 164 163 82 5 6 37 92 76 51 40 41 39 40 46 54 79 84 61 46 30 141 167 172 185 199 209 212 211 208 206 199 170 136 111 83 62 46 68 96 109 84 37 76 169 177 186 190 190 182 174 92 15 89 119 121 129 125 139 137 132 89 62 99 95 79 67 55 46 45 64 98 115 127 139 144 126 69 53 65 77 82 75 35 8 11 11 7 14 24 13 84 130 128 122 124 131 144 158 168 164 145 125 123 126 125 123 125 136 140 141 144 152 153 146 131 115 108 111 119 123 116 108 106 116 145 165 173 170 151 125 103 106 127 142 142 128 120 115 109 110 112 114 112 115 116 130 148 153 153 
132 152 153 154 154 152 151 146 141 136 131 131 134 138 141 142 144 142 140 138 138 136 136 139 139 139 140 140 140 142 142 139 140 133 123 120 118 121 130 135 142 144 143 141 139 136 132 129 127 130 136 140 144 146 146 143 137 133 132 134 135 131 129 123 126 136 142 145 146 146 148 151 152 153 152 154 154 153 149 124 111 114 123 133 133 132 142 153 157 154 137 88 81 76 61 32 71 173 149 125 84 67 68 71 147 151 156 159 153 140 102 89 70 112 98 64 59 73 75 89 100 100 95 106 105 100 103 103 105 101 99 100 98 102 105 105 100 102 99 100 97 92 92 86 83 83 81 73 81 81 80 78 82 83 79 77 77 82 83 106 141 159 168 169 168 162 154 150 147 108 73 109 120 101 64 47 53 56 57 60 60 57 60 88 130 154 167 176 176 174 174 174 165 162 94 1 19 91 110 81 54 58 59 59 60 59 58 68 102 127 142 146 168 177 181 190 201 204 201 196 194 194 192 185 171 156 143 131 107 82 88 111 134 147 160 176 184 190 190 186 178 165 144 136 148 148 142 143 138 136 141 141 106 75 93 105 86 45 34 38 42 39 49 100 119 134 144 149 141 128 118 113 100 47 6 7 6 5 7 12 9 30 102 124 118 115 116 118 121 127 144 161 162 142 122 123 126 124 125 134 138 143 149 150 141 126 116 110 109 109 117 124 120 109 105 108 132 161 172 175 166 146 125 126 141 146 134 118 117 118 113 112 113 114 112 114 116 122 139 154 158 
155 152 153 153 152 151 146 141 137 129 127 128 134 140 144 143 143 142 141 139 137 137 136 135 135 137 139 139 140 142 144 142 143 142 134 124 120 120 123 128 134 141 144 142 139 136 134 130 127 127 131 138 142 146 148 148 145 139 134 134 136 131 128 124 127 137 144 146 146 147 150 153 154 153 154 156 155 153 151 144 123 119 133 137 135 107 65 70 77 78 67 30 34 66 58 30 51 167 154 124 91 69 99 138 141 147 149 141 136 131 110 47 47 99 76 63 70 84 95 98 102 97 101 108 111 111 114 115 116 113 112 113 111 110 114 112 113 117 111 114 110 104 101 96 99 99 94 93 99 91 80 80 74 73 73 82 78 82 96 96 111 145 151 157 162 161 156 151 147 142 132 116 102 68 60 63 67 67 69 71 67 65 70 74 104 143 154 163 168 172 171 168 160 152 138 93 114 129 112 72 49 51 54 55 57 57 59 60 75 113 140 157 167 172 180 190 195 190 188 187 186 182 181 179 171 166 167 170 167 156 138 131 132 142 156 167 176 181 179 172 169 168 170 173 165 157 158 152 149 142 135 138 106 51 49 54 68 64 40 45 53 43 7 33 77 115 136 142 128 117 125 131 130 79 19 50 54 36 16 7 21 86 115 121 111 110 114 118 118 118 121 134 154 158 135 116 118 124 129 133 133 136 140 137 123 116 115 113 110 108 116 124 122 113 109 112 132 166 176 179 180 171 161 154 153 144 124 107 108 116 115 112 113 114 114 112 115 117 129 151 163 
163 154 155 153 151 148 143 139 134 129 127 130 136 140 143 143 142 142 142 140 138 137 133 133 134 136 138 137 138 139 141 144 144 143 143 133 122 122 123 123 127 133 139 141 141 138 135 133 131 130 133 136 140 145 148 149 149 145 140 136 137 132 129 125 128 138 143 144 146 147 150 153 155 155 156 155 153 152 151 151 138 113 105 113 120 104 32 30 13 17 28 22 47 88 70 30 27 112 160 134 101 93 144 148 147 150 136 126 120 118 74 26 86 86 81 75 88 99 106 107 102 104 107 110 118 113 114 112 113 109 109 112 112 109 112 109 110 107 107 106 107 103 104 101 99 98 96 100 97 91 91 100 102 91 88 94 90 92 97 87 99 142 142 137 81 58 68 72 72 99 100 102 93 69 66 73 79 83 80 80 79 79 75 74 86 112 147 153 158 160 159 156 153 151 149 149 136 122 92 55 61 65 65 66 66 67 66 65 67 93 126 137 151 167 186 195 195 185 177 178 176 175 176 174 166 161 162 165 167 168 169 165 158 150 149 152 167 171 171 175 175 169 163 166 169 162 162 161 153 147 139 131 107 71 59 52 50 52 44 36 39 59 32 18 35 63 89 105 103 110 123 133 137 115 96 139 141 112 82 78 93 107 98 108 108 106 112 118 119 121 119 118 127 147 154 133 117 130 139 138 134 130 130 128 121 117 118 120 121 119 122 126 124 125 128 137 152 172 183 186 191 192 186 174 159 136 113 101 100 111 116 114 115 114 115 114 112 111 118 141 160 
164 152 152 150 149 144 140 135 133 132 129 134 139 140 142 143 143 142 143 139 137 136 132 132 133 136 138 136 134 135 137 141 142 141 144 142 131 122 123 124 125 127 131 135 141 140 139 136 135 133 135 138 140 143 147 150 150 149 145 139 138 131 127 125 130 137 143 145 145 146 149 150 150 153 156 155 153 152 151 150 151 146 125 110 96 102 88 65 42 34 40 53 86 114 107 55 19 49 104 120 111 140 141 142 151 144 135 131 117 110 39 66 102 93 91 88 91 98 101 103 105 105 102 105 109 103 104 104 101 99 100 100 100 99 100 101 99 95 96 95 97 98 96 95 93 94 89 86 78 74 73 78 88 80 75 72 69 70 70 72 86 113 153 140 30 8 16 8 23 102 111 126 101 68 68 69 76 81 82 80 80 83 78 79 79 79 120 149 160 163 162 161 161 157 153 138 118 110 87 60 69 75 77 79 78 80 79 75 77 79 116 129 147 172 190 198 198 190 180 170 169 173 169 160 156 159 161 162 161 158 162 163 163 159 155 158 166 172 180 175 171 167 166 170 169 163 156 153 147 139 130 122 102 82 75 70 78 77 68 56 46 45 33 34 45 43 42 45 72 108 129 147 158 141 130 155 159 150 118 108 124 118 93 104 105 105 110 118 121 121 122 119 113 119 144 149 136 141 150 149 145 140 140 139 132 125 123 131 135 133 130 128 127 132 141 151 163 173 183 190 195 200 196 184 159 128 106 100 98 104 114 116 119 117 116 116 111 108 110 128 152 
161 149 149 147 145 139 137 134 132 132 132 135 139 140 140 142 143 143 142 141 138 136 131 132 133 136 138 137 135 134 136 137 139 140 142 145 140 128 121 123 125 124 124 128 135 139 140 139 137 135 135 138 139 141 145 149 150 150 149 143 138 130 127 126 131 138 145 145 144 147 146 159 182 180 172 165 159 153 148 144 142 142 140 136 127 113 111 100 90 90 88 91 77 64 69 91 54 37 35 58 144 137 140 149 145 144 137 124 119 103 74 102 96 90 84 85 85 91 93 95 100 98 100 98 100 99 101 97 95 99 102 103 102 102 102 103 99 96 95 97 98 95 95 95 97 97 94 87 82 86 77 76 73 59 55 58 60 69 75 74 74 87 122 143 56 19 19 14 57 127 141 120 82 62 64 69 73 79 79 79 78 80 76 77 80 78 95 135 156 170 172 168 152 127 89 86 105 113 91 72 67 75 77 78 81 83 83 80 80 77 95 128 132 153 181 197 201 195 185 175 173 166 153 142 140 143 151 159 161 157 154 154 156 156 151 154 161 169 178 178 169 167 167 165 158 148 144 144 138 129 122 114 102 81 74 73 81 84 77 74 68 56 46 44 38 34 33 33 56 112 143 161 166 152 141 149 154 153 136 98 113 121 101 107 106 105 110 117 120 121 122 121 118 117 128 139 150 154 156 153 150 147 146 143 136 130 131 137 138 134 130 124 124 130 136 143 149 154 163 177 190 198 197 185 157 123 103 100 98 100 109 117 121 122 118 116 114 108 105 117 140 
157 147 145 143 139 135 133 133 133 134 133 136 138 139 139 142 144 144 143 142 140 136 133 132 131 134 138 138 136 134 135 135 138 139 141 143 144 138 124 119 122 125 123 123 124 132 136 140 139 137 136 138 138 139 142 144 148 150 151 147 139 131 127 126 131 139 144 144 144 145 143 152 166 154 139 136 135 132 131 130 125 122 119 111 110 110 110 102 100 100 94 92 62 34 30 48 75 75 65 125 150 146 152 149 147 142 129 123 112 107 107 101 93 83 80 81 82 86 87 90 95 94 96 99 100 100 97 94 95 97 97 98 100 102 101 102 100 98 99 99 101 97 97 98 96 96 98 96 96 87 77 76 61 48 58 54 62 76 77 70 66 72 95 130 134 59 34 54 116 134 128 87 60 64 65 71 74 76 82 81 80 82 82 87 91 88 82 99 133 131 125 74 35 22 5 25 116 117 89 66 69 72 77 80 80 81 80 76 74 72 83 101 127 132 167 200 204 198 192 183 175 156 140 134 132 131 136 149 156 159 154 148 146 146 144 146 151 161 170 179 168 156 152 154 144 140 138 132 126 115 110 111 108 97 86 86 81 85 87 82 72 83 75 71 59 49 40 35 33 59 109 138 153 151 157 167 160 153 135 85 93 120 120 113 111 109 111 118 125 126 128 131 136 141 145 142 152 157 148 147 144 141 137 135 130 124 126 128 126 123 118 117 121 124 122 121 122 126 134 148 174 189 192 184 157 123 103 101 100 100 105 116 119 121 120 117 115 111 106 110 129 
152 142 141 139 136 133 134 133 134 133 134 135 136 138 138 141 144 145 145 142 140 136 136 132 131 133 136 139 138 135 133 134 135 136 138 141 143 144 135 119 118 123 125 123 121 123 128 133 137 138 136 137 137 139 142 140 142 145 149 148 141 131 129 129 133 138 141 142 142 142 143 143 141 145 146 142 140 135 133 129 123 117 111 105 99 89 83 82 80 81 86 90 82 70 65 61 63 102 145 157 151 148 147 151 146 136 129 112 111 113 103 98 93 89 88 87 89 89 92 93 95 98 98 98 99 98 99 100 102 104 106 105 106 105 104 103 104 104 103 102 100 100 103 107 110 107 101 99 100 96 93 97 97 100 98 93 89 91 94 88 87 80 89 97 118 118 113 126 122 119 79 63 63 57 62 69 70 69 72 75 73 75 76 78 78 75 77 80 114 131 100 13 13 16 14 26 124 102 65 75 76 80 88 92 90 90 88 85 83 86 87 86 113 138 171 196 199 201 196 188 169 140 128 129 131 130 129 135 145 154 159 154 147 143 141 140 139 145 150 161 158 146 143 141 138 134 120 113 106 101 94 103 113 104 95 80 74 85 104 76 56 82 85 62 71 72 59 52 46 38 42 43 61 63 58 74 52 67 93 77 87 110 128 122 119 121 121 128 135 137 142 149 155 153 150 143 139 140 134 131 127 124 122 118 113 110 111 113 112 110 108 112 119 119 113 106 106 106 107 120 150 176 184 180 161 129 107 103 104 106 107 111 117 118 122 119 118 114 108 105 119 
143 140 138 137 135 135 136 136 134 133 133 134 136 135 135 138 141 143 144 142 140 136 136 134 133 134 136 139 140 137 136 135 134 134 138 142 144 145 146 134 118 117 124 124 123 122 121 126 131 134 135 135 136 138 140 139 138 139 144 147 141 131 128 133 137 138 140 140 141 141 141 143 145 146 147 149 148 147 148 151 149 145 144 142 136 127 117 106 97 87 80 84 78 69 67 65 70 128 164 159 147 145 154 150 141 130 114 121 132 142 146 152 156 154 145 142 142 140 138 137 138 139 140 141 140 141 143 144 147 148 148 147 145 141 139 140 140 138 134 131 129 129 145 163 172 161 143 132 129 133 138 140 149 153 138 130 136 136 140 156 163 146 126 126 130 127 128 133 128 122 127 107 109 114 115 114 112 109 108 107 113 118 114 108 102 100 94 95 96 119 112 24 14 15 14 69 109 80 72 72 75 79 84 86 86 88 86 87 86 87 83 85 94 134 177 192 194 201 200 186 149 109 101 109 116 123 128 130 136 143 151 158 155 146 144 142 139 139 144 150 151 146 138 128 118 109 110 107 101 97 97 109 114 109 103 96 87 89 108 79 54 64 96 89 79 82 70 65 58 54 59 60 21 11 25 25 21 19 50 88 100 126 130 131 132 132 132 136 142 151 158 162 159 150 139 129 121 121 121 121 118 117 116 111 107 103 102 102 101 106 107 110 118 119 112 104 102 101 101 104 127 161 175 177 168 141 115 105 106 107 105 106 113 116 118 124 123 118 112 107 118 
137 135 134 133 135 137 138 137 135 133 133 132 133 134 134 135 139 141 143 143 141 138 136 135 136 136 138 139 140 139 137 135 134 135 138 141 144 146 144 142 132 118 119 125 126 126 122 121 124 128 130 133 135 138 139 138 136 135 138 143 138 130 127 132 141 141 138 139 139 139 140 141 142 144 144 145 146 145 144 144 144 145 148 154 157 158 157 152 153 150 145 137 130 122 121 104 136 175 167 157 150 153 152 143 132 102 83 90 96 106 118 131 142 148 149 154 160 162 161 160 160 159 160 159 158 158 158 160 161 161 159 157 158 155 154 154 152 151 148 146 145 144 159 176 183 175 156 144 137 138 140 141 146 142 134 136 139 139 138 147 162 164 146 130 126 126 131 129 126 129 145 127 127 143 143 144 142 140 137 136 148 158 161 154 143 138 133 124 126 130 134 97 63 53 90 128 130 122 116 111 105 103 101 99 100 101 99 93 89 89 88 87 92 130 179 190 191 201 200 175 119 82 83 89 97 103 111 118 125 131 140 148 153 151 142 138 137 139 144 157 146 122 105 89 83 88 104 113 107 104 108 112 110 104 93 96 88 87 103 82 80 73 68 81 85 79 73 64 65 65 69 94 102 72 34 27 30 30 30 85 121 133 134 136 139 142 147 151 157 161 160 155 147 134 123 115 112 114 117 121 119 117 118 114 109 105 103 102 102 106 108 109 116 119 113 106 102 100 101 102 113 146 167 175 171 153 126 109 108 107 106 105 108 113 114 121 127 123 116 119 131 
137 129 131 132 136 138 139 137 133 132 131 130 131 134 134 134 136 140 142 143 142 140 138 138 138 139 141 140 138 139 139 136 133 133 135 139 143 147 149 153 167 146 119 124 126 130 126 123 123 124 127 132 135 138 137 135 135 136 137 137 135 128 126 131 141 146 143 139 139 138 140 141 141 143 144 144 145 144 145 144 144 144 145 149 156 160 160 157 157 162 164 165 164 165 164 169 170 168 162 156 158 151 146 137 120 94 90 85 81 82 81 83 85 89 95 102 108 118 129 138 147 155 164 169 172 173 175 175 175 174 173 172 170 168 168 167 166 166 166 165 164 167 179 193 198 190 175 163 157 156 158 156 146 138 144 153 154 153 150 149 157 163 160 143 128 125 123 120 118 123 141 124 124 141 139 136 133 131 132 133 138 152 155 148 137 129 124 123 125 130 136 140 142 133 140 142 144 143 136 129 125 123 123 123 124 125 123 121 120 118 117 120 120 148 181 187 192 201 194 161 105 87 88 89 92 92 93 95 101 108 117 129 143 150 147 141 134 133 141 137 101 90 86 84 82 85 91 109 113 112 112 109 98 93 79 67 47 52 83 72 78 88 83 78 86 92 84 74 69 76 73 87 115 124 94 43 23 24 23 38 114 137 144 149 153 159 163 163 159 154 147 139 128 118 114 112 111 113 116 120 120 115 116 115 111 109 106 106 106 106 111 112 117 119 116 109 104 102 102 102 107 133 161 171 174 163 138 115 108 108 106 105 105 109 113 115 124 125 126 134 145 
145 142 140 139 138 137 137 135 130 126 126 126 129 131 132 132 133 135 139 142 141 140 138 138 139 140 142 141 139 138 137 134 135 139 144 154 160 169 178 179 184 173 135 124 133 135 133 129 126 126 127 131 136 141 137 133 134 135 137 137 132 128 126 129 140 147 148 142 140 139 139 140 142 144 144 144 145 146 148 148 150 151 154 157 164 171 173 166 160 163 166 165 164 162 166 170 169 171 163 162 156 148 136 148 169 165 156 143 129 116 106 99 93 87 84 84 84 83 88 94 99 106 113 123 133 140 145 152 158 163 168 172 174 177 178 178 179 180 180 179 180 184 194 203 206 201 189 180 173 172 171 160 143 147 163 170 170 169 168 167 167 164 164 160 143 142 143 139 138 138 146 127 121 142 139 133 128 130 134 134 140 159 167 157 141 129 121 121 123 129 135 139 143 144 144 144 141 136 130 124 121 120 121 121 125 125 123 121 121 121 122 124 131 162 186 192 196 194 179 144 115 111 114 117 120 125 120 107 106 110 111 111 137 150 145 144 138 140 146 108 89 91 91 91 89 91 97 101 109 112 108 101 94 94 81 64 51 54 68 78 64 65 78 90 97 97 101 99 91 93 84 76 97 117 120 114 91 73 59 53 101 125 138 153 160 162 160 153 144 136 128 120 117 116 114 114 114 113 115 119 118 116 114 113 112 111 109 109 108 107 111 114 117 119 116 112 107 107 107 107 109 123 153 168 173 169 150 125 111 108 105 105 102 108 113 114 117 130 140 144 151 
151 176 176 175 174 171 169 165 157 149 145 141 141 139 137 135 134 134 138 140 141 142 141 140 142 146 148 150 152 154 158 163 169 174 178 179 175 169 166 166 162 167 164 138 135 143 145 139 129 128 130 134 143 155 157 147 136 135 137 137 132 128 127 129 139 148 149 147 143 142 142 143 147 149 151 152 153 155 156 157 157 158 160 163 170 181 181 173 162 159 163 166 163 162 171 169 160 159 165 158 149 140 148 164 162 163 164 167 169 169 171 177 176 160 136 121 110 102 99 95 95 97 95 98 98 101 106 106 106 109 112 119 125 130 138 145 151 157 164 171 179 188 200 209 211 206 197 187 180 177 177 159 143 157 175 177 178 177 178 179 179 173 164 164 156 154 165 166 164 163 157 128 121 151 154 147 143 144 145 147 161 178 183 172 149 138 129 123 123 129 137 142 146 147 145 144 140 134 128 124 122 121 121 122 124 126 125 123 124 124 122 120 135 170 188 195 194 182 159 129 114 113 117 128 138 136 129 131 136 137 136 128 139 164 151 143 140 142 134 108 104 99 95 94 94 92 94 92 95 94 94 90 80 65 65 62 52 56 61 69 72 71 74 77 86 92 96 98 100 106 102 92 76 112 125 129 131 127 121 127 118 126 131 135 147 149 141 131 120 112 111 113 114 114 115 117 115 113 115 118 118 116 116 114 112 112 110 110 110 106 107 112 115 118 117 113 109 110 111 112 112 115 142 164 172 174 162 137 116 111 111 108 109 118 122 120 118 129 146 150 150 
147 162 164 167 170 171 176 178 178 179 180 179 178 178 178 176 172 170 173 172 172 176 176 176 177 179 178 178 179 179 179 176 170 166 164 160 157 154 150 150 148 149 154 146 135 135 142 147 142 134 132 140 155 172 177 167 150 139 139 137 132 127 126 129 138 149 154 156 154 152 153 153 156 157 159 159 159 159 159 159 159 159 160 163 173 181 180 173 159 152 154 157 159 170 176 168 152 158 162 152 141 146 172 159 148 147 146 147 148 152 164 183 191 186 171 156 151 146 140 134 126 121 117 112 108 104 102 100 101 101 99 101 104 105 107 109 110 112 117 120 126 133 146 152 157 158 157 159 157 158 161 149 143 158 168 170 171 171 173 174 178 176 164 158 162 159 169 180 178 177 168 131 124 165 171 169 168 166 166 172 187 200 199 186 163 151 143 133 129 129 134 141 145 147 145 142 139 131 127 122 122 121 121 123 124 125 124 125 126 126 123 121 145 177 184 188 185 172 149 122 111 116 130 136 131 129 134 139 136 133 127 110 143 171 156 150 144 141 137 140 146 141 136 133 128 119 109 107 105 102 100 102 95 89 81 73 58 58 57 65 76 78 80 81 84 87 89 97 100 97 101 99 84 89 108 113 115 122 123 129 121 120 129 135 135 139 139 124 106 99 104 110 111 112 113 116 114 113 114 116 116 116 117 115 111 110 109 110 109 107 107 110 113 115 115 115 116 116 114 114 116 114 129 158 170 174 170 151 125 113 113 114 118 125 131 134 127 122 138 149 147 
142 136 140 144 151 153 154 157 156 157 159 158 159 162 165 166 168 169 168 168 167 169 167 170 169 164 164 163 160 159 159 157 154 153 151 148 146 141 137 139 140 138 136 133 131 133 134 142 150 147 142 144 158 175 181 172 157 146 143 139 133 129 128 130 141 155 162 165 164 159 161 159 159 159 159 159 159 158 158 158 157 157 157 162 171 172 169 163 152 150 149 155 173 179 176 160 161 155 154 146 138 157 167 167 151 139 138 139 140 142 157 175 179 171 153 142 142 140 140 141 141 141 141 142 141 138 135 130 126 121 118 115 112 109 107 106 105 108 111 111 110 111 113 113 115 117 118 121 122 124 126 126 127 133 137 142 143 147 151 154 157 161 158 150 157 160 163 175 179 180 175 148 134 174 183 182 182 182 183 191 201 210 209 196 176 161 151 144 143 142 143 145 148 148 145 143 136 129 125 123 121 120 122 124 124 125 126 126 128 127 123 126 158 186 185 182 176 165 144 120 125 135 134 133 139 142 139 137 131 116 100 90 157 175 155 150 144 145 146 148 151 147 143 144 143 141 140 140 137 128 128 138 146 149 142 118 69 61 67 67 63 73 79 86 85 90 100 104 106 114 104 101 96 83 80 80 79 84 93 104 121 130 130 134 138 141 145 145 135 113 102 103 109 110 113 117 113 112 115 116 116 117 115 113 110 106 106 107 105 105 106 108 109 113 115 117 121 120 115 115 116 114 118 147 166 172 173 161 135 119 120 122 125 131 136 145 138 119 124 140 140 
131 132 131 131 135 135 134 134 134 135 136 137 136 136 139 143 144 143 144 147 148 150 153 151 148 147 146 145 145 145 143 139 135 135 134 136 139 141 143 142 143 141 139 136 131 132 138 141 143 149 151 149 151 163 169 164 154 148 147 143 137 132 131 135 146 161 167 168 165 161 159 158 158 157 155 155 156 155 155 152 151 150 152 161 164 162 158 152 149 150 154 175 179 177 163 161 162 153 149 141 147 148 158 167 165 150 139 138 139 144 158 172 173 163 146 142 141 140 138 137 136 137 139 140 140 140 140 138 139 137 137 136 135 135 135 135 133 132 131 126 124 126 127 130 126 124 121 119 119 119 124 125 124 126 127 129 128 129 131 131 131 131 132 131 134 138 136 140 145 149 154 154 145 167 178 179 181 184 190 198 207 212 210 200 185 169 156 148 148 152 155 157 161 160 157 153 145 139 134 128 124 123 123 124 125 127 128 127 127 126 128 146 174 188 188 182 169 160 142 134 137 134 139 142 140 139 134 121 104 95 89 100 174 176 156 148 140 142 150 153 155 153 144 139 138 137 138 140 145 145 148 152 151 144 134 124 102 100 103 100 80 66 62 73 83 87 95 100 101 104 103 105 104 100 89 82 84 90 98 102 111 126 139 145 143 141 145 146 151 145 130 116 109 108 114 118 116 114 117 117 115 116 116 112 108 103 100 102 102 102 103 104 108 111 114 119 122 120 115 113 112 111 111 131 160 170 174 168 148 131 129 131 131 133 138 147 146 127 116 125 128 
121 135 135 135 135 135 136 133 130 128 128 128 126 126 127 128 129 130 133 137 137 137 141 144 144 143 141 141 142 140 136 136 136 138 138 139 140 142 142 140 140 140 136 136 137 134 136 139 144 145 154 155 150 150 154 153 150 151 153 151 144 140 137 141 154 164 167 166 161 154 154 153 152 150 149 147 148 148 147 148 148 150 157 162 160 157 150 147 147 150 173 184 176 167 161 162 152 149 146 147 146 144 147 157 167 164 146 138 139 145 160 170 169 154 141 140 139 139 139 138 136 138 138 138 138 138 137 135 136 134 132 132 132 133 134 137 140 143 147 148 149 153 169 178 176 162 148 144 138 129 122 119 119 119 120 119 120 124 125 131 134 133 132 130 131 130 127 125 128 134 146 151 143 151 160 164 167 173 182 196 206 208 205 196 181 167 154 146 145 148 155 162 167 170 171 169 165 161 157 152 146 143 140 136 136 134 131 129 129 140 155 171 181 182 187 183 170 159 145 138 139 145 143 141 139 129 112 99 94 93 106 157 182 168 160 150 141 140 146 157 159 158 157 148 138 135 139 153 163 165 162 156 145 131 121 116 114 113 114 115 114 101 78 66 69 79 84 94 101 100 99 101 100 99 101 102 97 101 110 115 120 123 131 138 140 144 148 146 148 151 140 137 132 121 117 119 119 118 118 117 116 115 114 111 106 101 98 99 101 101 101 103 106 111 116 120 121 118 113 110 108 108 105 115 150 167 173 173 160 140 132 133 130 130 136 142 145 135 118 116 123 
117 131 132 132 131 130 131 134 131 129 129 128 127 127 127 129 132 132 134 135 136 135 138 142 150 151 150 151 153 148 142 139 139 138 136 136 136 138 138 136 137 138 137 134 136 136 137 138 143 146 148 153 155 151 146 144 146 156 163 162 155 150 144 149 161 165 164 158 151 148 147 147 147 144 144 142 144 146 149 148 151 157 162 162 158 150 144 144 149 172 182 182 169 162 164 156 149 147 149 149 143 141 140 143 156 168 163 145 140 149 164 169 162 146 137 136 136 137 137 136 136 137 137 137 137 137 136 134 134 133 132 133 131 129 128 129 129 132 137 140 142 149 165 175 175 163 158 156 148 137 130 130 131 128 125 120 118 117 116 116 118 123 128 130 130 129 129 131 133 137 151 140 124 130 140 144 147 155 170 189 201 200 193 182 168 155 146 139 136 137 144 153 163 171 176 179 178 177 174 172 169 166 164 161 159 154 151 155 164 173 178 177 173 177 188 188 175 162 146 139 144 142 140 134 118 102 97 99 103 123 166 171 160 159 158 150 144 143 144 149 159 159 158 159 150 139 138 159 174 172 163 147 131 119 112 111 112 112 112 112 116 118 113 106 91 79 77 81 95 101 101 101 100 99 99 99 103 111 116 119 126 134 132 127 127 133 141 148 148 149 138 137 143 139 133 129 121 118 118 117 117 115 114 111 105 102 100 99 99 101 103 105 108 113 119 122 121 117 113 106 105 104 104 110 139 165 173 176 168 148 131 126 124 123 130 134 134 133 121 115 120 
119 128 128 126 127 128 126 129 131 128 126 126 125 124 125 129 132 132 134 135 135 135 138 141 144 149 151 151 153 150 142 140 139 137 136 135 136 137 140 141 139 136 134 133 133 135 137 139 141 143 147 148 155 154 145 141 149 161 167 168 163 156 151 158 161 159 155 149 146 147 147 147 146 144 143 143 143 145 148 151 156 161 162 158 151 144 141 143 161 171 172 169 163 163 153 151 149 147 152 151 147 140 138 137 144 159 170 161 146 154 166 166 157 141 135 134 135 135 135 135 136 136 136 135 135 134 133 132 130 130 131 132 131 130 130 128 128 129 129 131 132 143 158 166 165 157 157 152 141 139 142 138 131 126 123 122 122 120 120 121 123 126 131 133 132 135 135 142 150 145 138 128 116 119 125 127 129 134 155 179 191 189 176 162 152 145 144 140 136 135 136 140 149 158 166 173 176 179 180 182 182 181 181 179 177 177 180 182 184 180 172 166 168 180 193 193 181 168 149 137 138 132 118 106 101 101 106 116 141 166 161 146 145 157 158 149 145 146 145 147 156 159 155 151 156 153 143 141 149 153 154 147 135 126 119 115 113 114 114 114 123 130 121 122 123 116 99 88 89 96 101 103 103 102 96 93 96 99 109 124 129 134 132 129 124 119 123 133 145 154 147 144 149 151 151 153 157 144 133 131 131 131 126 116 108 104 100 99 101 104 105 108 110 115 121 125 122 116 111 106 106 109 111 116 132 161 172 176 176 158 134 123 120 118 124 126 126 125 118 112 115 
122 124 124 124 124 124 123 124 126 130 128 124 124 123 125 128 131 131 133 134 134 133 136 140 143 146 149 155 155 151 144 139 137 136 134 134 135 136 142 149 151 145 138 135 137 140 142 144 146 148 148 150 152 153 151 149 154 162 168 169 160 155 156 156 156 153 147 145 147 149 149 148 145 145 143 142 142 143 147 154 161 160 158 153 143 139 144 155 164 164 157 156 164 157 150 157 147 151 152 152 152 146 144 145 145 151 164 169 161 161 168 164 153 142 139 138 138 136 137 136 134 134 132 131 132 130 130 129 129 130 131 132 132 132 131 130 129 129 128 128 127 137 153 160 159 156 153 144 139 145 150 145 137 127 121 118 116 117 121 126 130 130 131 131 130 129 133 143 154 156 144 127 116 115 120 120 122 125 149 174 184 176 159 147 140 142 144 143 142 142 141 140 140 143 147 152 157 161 162 164 166 167 169 171 177 180 179 175 170 166 164 168 178 191 199 195 186 173 159 149 140 122 110 108 111 116 129 150 159 153 139 135 147 160 158 147 145 150 149 149 156 158 158 152 148 156 155 145 136 138 162 181 176 166 165 162 161 159 159 159 160 162 160 159 161 164 163 159 153 148 145 145 148 146 141 141 142 136 134 140 146 149 150 150 147 144 146 151 155 157 161 165 165 164 164 165 166 169 165 157 154 154 147 133 116 106 102 103 106 109 110 109 111 119 124 126 123 117 114 113 114 117 119 121 127 151 170 174 176 166 140 119 110 112 119 121 120 118 112 109 111 
119 122 122 121 121 123 122 122 124 124 126 125 122 123 125 127 129 132 134 136 136 136 139 142 145 148 152 156 156 154 146 141 138 138 136 135 135 138 146 156 159 158 155 147 145 145 145 146 148 149 150 150 151 153 159 160 161 162 163 158 150 152 156 153 150 143 142 143 146 148 148 147 146 146 143 143 143 144 150 157 158 157 154 143 142 151 158 167 163 153 151 160 153 151 161 153 150 151 152 152 150 151 151 147 146 146 152 164 170 167 165 162 149 143 143 142 141 140 141 138 135 135 130 128 127 126 126 126 127 130 132 133 134 134 134 133 132 130 128 128 127 137 151 159 160 153 143 133 136 145 146 144 138 134 128 123 120 123 126 128 128 128 126 125 123 125 130 141 154 159 155 144 130 125 131 132 132 138 153 165 169 160 149 145 146 150 150 152 156 157 158 161 165 167 169 171 173 173 172 169 173 175 175 177 178 173 167 163 163 169 175 178 181 188 198 196 190 179 171 171 170 164 161 160 160 158 153 153 147 135 134 148 159 158 154 148 149 153 150 152 161 165 164 164 167 158 152 151 145 145 164 181 175 168 173 176 175 175 177 179 180 177 177 177 176 176 175 176 176 177 175 175 175 172 173 174 174 172 170 169 168 167 170 170 170 169 168 168 167 166 166 165 165 166 165 163 160 159 159 158 156 156 150 138 124 113 110 110 110 110 110 108 112 122 127 128 125 122 121 120 120 120 122 122 122 139 165 172 175 172 148 120 105 108 116 117 116 112 109 105 104 
112 121 120 120 119 122 121 123 124 122 125 127 126 125 125 126 129 133 139 141 140 141 144 149 153 155 159 159 161 161 158 153 148 146 145 143 143 144 147 155 160 162 162 163 155 147 144 144 145 147 147 147 147 151 159 167 167 161 152 140 144 155 154 150 147 149 146 144 147 148 149 148 145 144 143 141 140 148 155 157 156 153 144 150 165 171 166 159 147 151 154 150 151 160 164 150 152 153 150 147 146 147 152 152 147 143 144 150 165 170 161 155 146 142 142 140 139 141 141 140 139 138 136 132 128 125 122 123 125 128 133 135 136 136 135 134 133 130 128 127 128 139 152 161 158 145 129 122 128 132 136 139 137 135 133 133 133 133 131 126 123 121 117 117 120 127 156 169 158 160 162 160 162 163 159 163 165 163 162 163 162 160 162 166 166 167 163 162 166 165 160 160 160 157 154 151 150 148 148 148 158 166 170 170 165 161 163 166 169 169 167 161 154 160 184 192 190 181 167 152 140 141 146 150 159 170 162 147 134 138 149 154 152 147 148 151 156 157 160 159 168 174 169 159 157 152 146 146 149 160 172 170 159 154 154 151 150 150 150 151 153 151 152 155 153 153 152 151 153 155 154 154 155 156 159 160 160 160 160 161 161 160 161 161 159 158 157 157 157 156 155 153 152 152 153 155 153 149 146 147 151 150 142 130 123 117 113 113 113 111 110 112 119 128 134 135 129 127 126 124 122 121 120 120 119 129 157 170 174 175 159 126 105 107 114 116 114 111 107 104 99 
104 120 119 119 119 120 122 122 123 123 123 123 126 126 127 127 130 135 138 143 142 143 145 150 155 159 162 164 165 163 161 160 156 151 148 146 145 144 143 147 153 157 160 164 165 160 149 142 142 142 143 143 141 147 159 167 166 156 140 131 142 152 149 143 145 150 147 143 145 147 149 148 145 144 143 140 146 154 157 156 150 147 159 174 171 164 156 148 151 153 152 154 151 151 161 146 149 149 147 143 139 140 147 152 152 142 138 141 154 168 165 149 140 138 139 137 137 136 137 136 136 137 138 138 136 132 128 125 125 126 131 134 136 136 136 134 132 130 128 128 131 147 154 155 146 129 119 116 116 115 118 127 136 137 135 136 138 139 137 129 124 125 126 132 142 147 153 161 159 162 166 165 166 164 165 166 165 166 169 168 164 163 163 164 160 161 161 159 156 151 150 150 150 152 147 141 142 146 154 163 170 171 165 161 158 161 164 162 157 152 150 148 148 153 164 184 189 183 169 151 146 146 143 138 141 154 154 144 145 150 153 158 154 148 149 157 159 163 168 165 163 160 155 149 148 149 147 147 146 147 146 138 131 128 127 127 127 126 125 126 128 131 132 130 124 120 122 124 127 130 130 128 128 129 131 134 135 135 136 139 140 141 142 142 141 141 141 145 148 145 143 144 147 146 145 147 146 149 153 155 152 157 160 153 137 121 119 119 119 119 119 123 130 137 141 140 135 129 127 124 120 118 116 114 112 115 144 167 172 175 167 138 108 108 115 115 114 111 106 101 98 
98 120 120 119 121 121 122 124 124 123 123 123 123 127 131 127 130 134 138 141 143 143 146 150 156 162 165 167 167 166 162 159 157 152 148 145 144 145 144 144 145 146 150 157 161 164 161 149 139 137 139 140 145 153 162 164 161 148 132 126 136 156 155 140 141 142 141 139 137 137 139 138 138 138 138 143 152 158 156 149 153 172 179 173 161 151 149 152 147 150 151 142 138 166 158 141 141 140 139 138 133 131 137 145 150 147 138 140 152 164 170 155 136 132 132 131 131 131 131 131 133 134 136 136 137 138 138 136 133 131 130 131 134 135 134 132 131 130 129 130 139 157 156 152 130 121 117 113 111 114 119 127 135 139 143 146 150 155 159 163 164 167 171 173 177 177 175 174 174 176 174 170 168 165 165 166 164 162 161 160 156 156 157 157 157 157 159 157 155 154 155 158 158 157 156 154 157 168 174 171 167 162 159 160 160 157 154 147 141 146 154 162 161 136 139 177 189 185 174 162 168 174 175 175 173 163 141 139 145 148 166 157 151 152 154 159 161 164 165 165 160 153 148 142 139 141 146 143 131 122 116 115 114 113 115 120 121 121 123 124 122 122 120 117 112 104 101 100 102 107 113 114 113 111 110 108 110 111 113 113 115 121 124 127 127 127 128 130 132 138 144 148 146 147 156 148 144 147 162 167 153 151 155 163 166 151 132 127 125 125 126 129 136 142 143 142 137 130 126 122 117 113 110 108 107 109 130 163 172 174 172 149 120 113 115 115 112 108 104 98 97 
97 119 120 120 121 123 123 124 125 123 123 122 123 125 130 130 129 134 138 140 142 143 144 150 156 162 166 168 167 167 165 157 151 148 146 144 143 143 142 141 140 139 136 143 151 156 160 161 155 145 139 143 152 160 166 164 155 142 132 123 126 162 186 169 146 144 145 146 145 142 139 135 134 134 130 132 137 142 146 163 183 180 169 157 150 149 149 147 150 147 141 148 174 169 139 138 136 134 134 132 130 127 128 135 143 147 147 148 155 157 166 167 147 129 127 126 124 124 123 124 126 128 129 133 137 138 139 141 142 143 140 138 135 133 130 129 129 127 129 138 153 156 150 139 131 134 137 140 145 153 160 163 166 168 170 169 170 172 171 171 169 167 166 163 162 158 154 152 150 149 150 146 145 144 146 147 148 146 149 150 144 142 143 144 142 143 144 143 142 144 145 146 145 145 145 150 157 166 167 163 162 160 157 155 152 148 146 141 141 151 163 166 137 115 139 174 188 185 176 158 145 149 156 163 169 170 139 135 136 147 156 150 156 164 169 169 171 166 164 164 163 153 145 153 161 161 153 137 123 117 113 110 111 118 121 123 125 124 126 126 124 120 117 114 111 110 108 103 100 100 103 111 115 113 111 109 108 106 110 114 113 112 114 119 124 127 127 126 126 128 133 140 143 147 153 149 148 149 154 156 159 156 152 152 161 163 159 148 141 129 127 134 139 142 142 139 135 128 124 119 112 107 107 106 107 108 119 155 171 173 175 162 134 119 116 115 111 106 101 96 95 
96 120 121 121 121 123 124 126 125 124 124 123 124 125 127 129 131 132 132 133 135 138 141 146 152 157 162 164 162 160 158 150 141 138 138 137 137 137 136 135 135 134 130 130 139 146 153 160 163 159 153 153 158 164 165 156 144 142 136 122 120 146 177 182 165 147 145 149 151 149 148 147 148 150 143 135 129 137 170 188 178 164 151 146 151 146 145 147 144 135 147 176 179 142 129 136 133 133 132 131 129 127 125 126 133 141 149 155 154 150 153 165 162 138 126 124 121 119 119 119 119 121 122 124 126 128 131 135 138 141 144 146 146 142 138 138 140 146 154 162 167 166 162 164 168 170 168 171 172 171 170 168 168 166 164 159 157 155 154 152 147 144 140 138 136 136 134 135 138 145 148 148 147 142 138 131 141 155 158 159 153 141 132 133 134 138 140 141 142 143 142 139 138 140 142 148 157 162 162 160 157 152 149 147 143 143 147 147 152 157 166 157 136 136 141 166 185 186 178 159 136 129 138 143 148 152 140 137 143 146 149 154 164 171 178 183 182 162 158 161 165 173 190 208 209 191 165 140 126 122 118 116 114 117 121 125 126 126 125 123 122 117 113 110 108 109 112 112 107 103 100 100 109 113 113 111 111 112 115 118 121 119 115 115 115 121 125 125 129 127 125 123 131 141 147 147 150 155 153 152 153 154 156 156 154 152 154 165 169 153 141 138 138 139 138 133 133 127 118 114 109 104 103 105 107 108 112 141 169 173 175 171 148 125 117 115 111 105 99 97 97 
97 121 123 121 122 123 125 127 127 126 124 123 123 126 127 127 129 135 133 130 132 136 139 144 150 154 157 160 158 156 153 142 134 133 132 133 133 134 133 133 133 133 130 127 131 135 140 149 156 159 163 167 168 166 158 146 143 149 140 126 119 131 148 154 160 158 144 146 149 147 150 154 157 158 153 147 158 183 186 173 156 147 151 151 147 148 146 140 135 130 141 168 150 128 128 132 132 131 130 129 127 125 125 126 128 135 146 154 156 147 137 151 168 154 129 121 119 115 115 114 115 116 117 121 124 127 132 136 143 147 152 159 165 167 168 168 168 171 173 171 171 171 171 171 170 164 161 161 159 156 151 149 148 146 143 137 131 128 131 132 135 136 134 135 135 135 135 135 138 140 132 137 152 150 142 139 141 146 146 153 154 142 131 132 137 140 143 142 142 138 135 137 142 150 153 156 160 159 157 152 146 149 150 149 149 150 153 158 158 153 164 156 149 133 132 156 179 187 182 163 137 124 128 135 141 144 142 144 148 147 148 153 158 164 170 176 181 157 151 164 174 201 222 218 212 199 177 154 136 134 136 135 130 126 125 125 124 123 121 119 116 113 110 108 109 108 110 112 114 111 108 103 102 106 111 113 115 118 119 122 123 121 119 117 117 117 119 120 124 126 125 124 126 128 132 142 157 154 148 152 152 149 147 149 151 154 153 153 164 162 158 154 140 129 128 126 130 126 117 111 107 102 101 102 105 109 108 128 163 173 174 176 162 134 117 114 109 105 101 99 100 
100 122 125 124 124 123 125 129 129 128 128 125 124 125 126 127 128 133 136 134 134 137 139 142 149 153 157 159 159 155 149 142 133 131 131 131 133 134 131 130 130 132 130 127 130 131 129 135 145 155 163 170 169 161 150 145 148 145 142 136 124 126 140 148 153 161 151 146 148 152 157 158 156 151 156 177 190 183 165 151 149 150 149 149 148 141 129 127 131 139 150 165 146 124 129 131 129 128 128 127 126 124 126 126 130 135 140 146 151 150 139 138 158 165 143 129 128 130 135 138 142 146 150 156 161 162 165 166 168 167 168 169 170 169 168 164 162 159 159 160 159 159 157 154 149 143 143 142 139 134 126 120 120 118 117 116 113 112 111 109 109 114 116 120 124 127 131 133 137 131 120 122 144 159 147 140 143 132 135 143 147 141 134 136 139 143 145 147 149 152 157 158 158 155 153 155 153 149 147 140 146 152 149 144 137 132 131 139 149 147 159 154 150 129 131 148 171 185 182 167 143 125 127 139 144 145 149 150 147 144 143 143 146 149 154 158 173 158 147 169 179 206 214 209 206 197 181 162 147 143 149 153 154 152 146 142 136 130 123 118 113 109 107 106 108 109 111 110 112 115 115 112 107 102 102 110 118 120 121 126 125 123 121 118 116 115 117 118 116 121 123 124 127 126 129 137 139 144 150 148 146 149 150 143 143 147 153 152 151 158 154 153 156 141 123 116 125 129 116 107 104 100 101 102 103 104 102 115 154 173 174 178 170 143 120 112 108 103 101 100 101 
101 122 125 125 124 124 125 129 129 128 129 125 124 123 126 126 129 132 132 135 137 137 139 144 149 153 155 157 157 153 147 141 135 132 132 132 132 134 131 128 128 128 128 128 128 132 130 130 138 152 167 167 161 156 151 153 150 144 148 151 138 136 145 148 146 148 152 149 151 155 157 154 152 166 187 190 175 159 153 153 148 146 147 145 134 124 127 138 159 177 175 170 153 129 134 133 127 126 126 126 126 125 124 129 141 147 148 148 152 156 161 159 162 171 170 168 167 167 169 169 170 171 171 170 169 168 165 164 162 158 156 153 150 151 148 142 141 141 141 140 138 135 132 129 130 131 127 122 116 107 103 104 105 106 109 112 115 116 117 117 115 111 109 108 109 106 106 112 116 118 116 120 129 144 146 130 127 126 127 134 140 140 137 136 144 153 160 164 164 159 156 154 153 153 153 154 150 145 139 131 137 132 124 120 118 117 117 121 130 142 159 151 149 136 130 140 164 180 181 173 152 134 134 139 145 150 150 147 141 134 136 139 144 145 146 146 164 157 144 163 155 194 201 199 194 181 171 158 147 143 149 159 168 172 172 169 163 155 145 138 131 125 118 111 108 108 108 109 110 112 115 115 115 111 104 101 106 116 122 126 125 123 121 117 118 115 115 118 119 118 118 120 123 123 128 127 126 127 133 145 146 146 151 146 144 142 140 146 155 153 152 149 158 156 144 128 124 132 118 106 103 101 100 103 102 102 101 106 143 172 175 178 176 156 127 111 105 100 99 98 100 
101 121 125 125 126 126 127 129 129 128 127 123 123 122 124 124 128 131 131 132 136 140 141 144 149 153 153 155 153 150 146 141 137 131 131 130 130 131 128 127 126 126 125 126 124 125 126 132 146 160 166 159 156 152 150 156 160 162 169 175 168 165 158 145 142 140 141 154 158 158 155 158 179 195 185 168 155 151 151 146 146 146 142 142 147 155 167 171 168 162 150 158 155 134 139 131 129 128 129 128 128 130 145 168 171 170 176 177 170 169 174 171 169 170 169 167 164 162 162 158 153 149 144 140 136 133 129 129 127 125 126 129 132 139 145 149 149 145 142 142 140 132 124 118 119 118 113 109 106 101 102 104 104 104 109 114 117 120 122 124 125 127 123 120 120 119 116 115 116 114 111 111 111 109 110 113 117 118 119 126 134 142 151 155 162 165 162 157 154 152 153 155 156 155 155 152 148 145 136 126 121 117 119 123 124 128 129 130 130 137 161 153 149 141 127 132 156 176 182 177 162 141 136 144 151 151 148 144 132 122 134 141 142 143 141 139 155 153 147 162 148 179 186 185 179 163 154 148 140 135 137 147 161 171 177 179 179 177 172 166 159 152 146 138 131 124 119 114 111 110 112 116 119 120 116 108 102 105 114 123 124 123 122 122 120 119 119 118 118 120 120 119 118 119 121 124 126 125 123 125 135 143 145 143 145 145 145 141 146 150 155 157 156 156 153 151 145 139 121 106 102 101 102 101 102 102 104 102 132 172 179 179 180 169 138 113 103 100 98 98 100 
99 120 123 126 126 127 127 129 129 128 127 123 122 121 122 124 126 130 131 133 134 140 143 145 148 150 150 150 148 146 145 144 139 137 137 136 137 137 135 134 135 134 135 137 143 150 155 162 170 172 166 159 157 157 164 172 180 182 192 194 189 186 168 144 139 133 130 151 169 176 184 187 191 180 161 154 151 148 147 149 148 158 172 169 168 163 158 149 142 137 142 153 162 136 140 131 126 126 128 130 130 137 169 179 160 151 155 154 151 152 158 152 148 150 151 140 132 133 132 130 127 128 127 127 128 128 127 127 130 132 135 137 138 144 160 164 152 136 136 142 140 128 117 111 111 110 110 108 104 101 101 103 104 105 107 112 116 117 120 124 125 128 129 126 125 131 138 140 125 121 126 123 117 117 115 110 109 109 110 112 115 119 129 139 141 142 145 152 154 155 155 154 153 147 141 136 141 145 134 121 116 119 124 128 132 133 133 133 132 130 149 157 153 149 130 126 148 172 182 180 167 148 143 149 151 146 140 137 124 113 131 143 142 141 135 133 152 154 143 158 143 166 174 172 163 149 141 137 135 130 129 133 145 156 163 169 172 176 178 178 175 171 167 162 157 152 146 140 134 129 125 124 122 123 124 120 113 107 103 110 120 124 124 123 122 120 120 120 119 120 120 119 118 116 119 121 123 125 125 123 125 129 135 141 145 145 149 148 145 140 144 156 160 162 160 148 149 151 138 112 101 104 104 102 101 102 104 100 123 171 183 182 183 180 153 119 102 98 97 96 97 
97 120 121 124 125 125 126 129 128 126 126 122 121 120 123 126 127 129 131 134 135 138 145 148 153 163 170 174 175 176 174 174 173 172 171 169 168 166 167 169 171 173 172 173 172 169 166 168 168 163 159 153 146 144 150 150 151 167 194 189 175 169 153 146 138 131 127 137 160 180 186 185 175 158 153 151 148 148 152 146 137 148 157 151 148 146 140 137 137 140 142 141 160 150 126 133 129 124 124 126 127 129 131 133 134 133 131 128 128 130 134 139 144 149 160 161 145 135 132 133 134 135 135 135 134 135 136 136 137 136 137 135 135 152 164 158 136 121 122 129 130 124 113 107 108 109 109 107 103 101 101 102 103 105 107 110 113 116 118 121 122 125 126 125 120 121 135 137 121 127 135 130 124 137 171 168 152 135 124 117 115 113 110 111 110 113 115 119 126 127 135 138 133 130 125 126 139 142 128 115 118 125 132 135 137 140 139 138 135 129 134 160 163 162 148 128 142 169 181 177 166 155 151 150 145 137 135 134 129 122 127 144 142 137 130 131 149 155 142 154 144 159 161 156 149 141 135 132 129 128 126 127 131 138 144 148 153 158 163 166 168 170 171 171 170 167 165 162 160 156 153 150 145 140 137 132 128 119 107 101 105 116 123 122 120 120 119 118 117 117 117 116 118 119 118 116 118 123 124 126 127 127 127 130 139 146 145 145 146 144 138 139 152 160 162 161 154 150 150 144 122 106 103 103 102 102 103 97 121 172 189 190 188 186 170 135 106 98 96 95 95 
95 119 119 122 123 124 125 127 126 126 125 121 120 120 123 126 129 129 130 134 136 139 143 146 163 186 168 155 150 148 148 147 146 143 140 140 141 141 142 143 141 140 142 142 141 139 148 156 156 156 153 143 138 137 137 139 145 179 197 170 149 155 159 156 151 143 135 136 158 184 185 171 155 151 148 144 150 146 140 144 150 173 173 151 136 132 131 134 135 136 138 137 141 152 128 125 130 125 124 129 131 130 126 124 124 125 125 125 128 131 131 134 146 151 160 169 157 138 129 129 129 129 128 127 127 128 126 126 127 127 126 125 138 155 158 143 120 107 106 115 119 118 113 108 108 109 108 106 101 100 99 100 101 103 107 108 111 116 119 119 121 123 124 124 119 120 134 127 120 130 128 124 120 145 179 185 180 170 160 151 143 136 132 129 125 121 116 115 116 114 112 115 114 117 119 122 135 135 122 118 119 120 124 126 130 131 134 135 135 135 139 160 166 158 156 136 137 162 176 171 164 156 153 146 137 134 137 132 137 159 138 138 139 130 129 131 149 154 142 152 142 154 151 146 143 139 133 129 127 126 124 121 120 123 127 134 140 141 142 147 150 154 158 163 165 166 167 169 170 170 169 168 167 163 159 156 149 142 130 116 107 105 111 117 117 117 116 115 115 114 115 114 114 116 119 121 119 117 117 122 127 127 128 127 128 134 145 149 146 144 145 143 139 139 148 155 156 153 151 154 153 141 119 102 100 102 99 106 143 178 192 195 191 188 180 155 121 102 98 96 94 
93 118 117 118 121 123 123 126 124 124 122 121 119 120 124 125 128 129 130 134 137 139 143 147 148 147 143 140 140 139 140 140 137 133 131 129 129 129 129 127 129 133 139 144 150 158 160 158 156 154 147 139 136 135 135 138 157 190 190 153 141 157 168 169 167 165 157 155 168 184 177 154 146 144 145 146 141 140 145 146 145 159 160 128 123 133 132 132 136 137 139 140 137 143 140 124 130 133 133 138 139 137 131 127 126 125 124 123 125 126 125 126 130 133 136 143 141 133 126 125 124 124 121 118 117 117 117 117 117 118 118 122 142 153 147 128 113 102 100 105 110 114 114 109 109 110 109 106 102 100 100 99 99 101 104 106 109 114 118 120 122 121 121 120 118 126 134 121 124 129 124 120 135 159 171 177 172 166 162 155 149 150 150 145 140 132 123 119 121 120 118 119 119 117 119 123 134 130 118 115 113 113 113 113 115 113 116 116 118 121 133 163 167 152 142 137 133 156 172 170 164 159 152 141 134 136 136 134 136 153 153 135 136 128 130 134 148 152 140 151 138 153 146 142 141 139 133 129 127 125 122 119 115 115 118 128 137 138 133 132 134 137 141 145 149 151 153 157 162 165 169 172 174 174 173 173 169 165 159 151 140 127 112 105 111 116 114 112 110 110 110 110 111 114 117 120 125 125 118 116 120 126 126 126 126 125 130 138 144 147 145 145 144 139 138 141 145 148 151 155 157 158 154 137 107 100 108 141 173 188 196 197 192 187 183 174 144 112 100 97 97 
95 117 117 117 117 121 123 123 124 122 120 120 120 123 124 126 129 130 130 133 136 142 144 145 146 146 147 148 147 147 146 148 145 139 135 133 133 132 133 136 141 144 149 154 158 155 156 154 152 148 140 137 139 142 144 146 168 192 175 139 138 147 154 162 175 186 183 182 186 188 172 149 143 145 140 135 141 148 147 147 145 137 147 126 120 132 131 133 135 137 138 139 139 137 144 134 128 134 141 143 141 135 130 128 126 127 127 126 125 122 120 119 120 121 122 126 129 126 120 119 123 123 121 119 115 115 116 116 116 116 119 129 144 147 136 119 110 105 105 106 110 114 116 112 111 111 109 106 100 96 96 95 95 97 100 104 108 113 116 120 123 123 121 119 119 132 128 118 127 125 121 135 156 150 153 165 165 162 160 151 143 137 132 125 120 120 123 127 130 130 130 128 125 124 124 128 137 130 118 123 128 126 123 121 118 117 116 116 116 119 139 159 153 143 149 136 125 153 171 170 167 166 154 136 127 128 132 137 120 139 163 146 134 129 133 140 155 152 139 151 142 153 147 140 138 137 135 132 129 127 123 120 117 115 114 121 129 133 131 126 124 126 129 132 135 136 138 142 146 151 156 162 165 168 172 175 176 176 174 172 168 162 149 123 105 107 113 110 110 107 107 107 110 115 118 121 124 123 125 122 117 119 121 125 126 127 127 126 128 138 145 145 143 144 143 140 137 141 147 148 148 153 169 169 145 128 141 166 180 187 189 190 189 183 181 181 165 129 104 99 100 
99 117 115 117 116 116 121 123 123 120 120 121 120 122 126 126 130 132 130 132 134 140 144 145 146 144 144 148 148 146 145 146 147 141 135 135 137 141 145 147 148 148 149 151 151 152 153 150 146 142 138 141 145 146 145 149 176 190 159 134 134 136 141 148 178 200 196 191 185 183 174 157 144 135 135 144 147 149 148 147 147 140 144 132 120 132 131 133 135 138 138 138 139 139 143 145 143 132 144 143 139 133 130 129 131 135 138 140 143 141 139 135 135 134 134 140 138 125 116 115 117 125 130 129 128 127 127 127 130 131 135 144 150 149 139 131 126 124 124 124 127 133 135 132 130 130 127 123 119 114 112 110 108 107 107 109 112 114 116 118 122 123 121 120 127 131 118 116 122 122 138 158 155 142 148 160 161 153 141 126 121 120 120 118 123 131 136 139 139 139 135 133 132 131 130 132 138 129 122 131 136 134 132 129 123 120 119 119 120 122 127 130 137 134 137 142 131 150 174 174 175 176 161 132 118 126 137 128 114 141 156 160 137 134 135 147 162 150 139 149 141 153 150 140 138 136 134 132 129 126 122 119 115 113 108 108 113 121 121 121 120 123 124 124 125 127 129 131 134 137 141 146 150 153 158 162 167 171 174 175 176 175 173 163 136 112 108 111 118 127 121 114 112 115 117 118 121 121 120 122 122 118 117 117 121 125 126 128 126 126 131 139 145 144 143 145 142 137 138 145 145 144 152 162 164 157 158 165 164 161 159 166 179 181 178 180 178 152 114 101 101 
103 116 115 117 118 116 119 122 122 118 119 120 120 123 126 127 130 132 130 130 132 137 142 144 145 142 139 142 148 148 146 146 148 145 142 143 147 149 151 150 148 147 147 147 150 153 150 145 141 141 142 144 143 142 142 154 183 185 146 130 131 135 136 142 179 198 191 171 158 167 169 146 133 136 145 148 147 149 149 148 145 140 142 135 118 130 132 134 136 137 139 140 142 146 145 147 157 143 148 143 137 132 129 133 141 146 150 154 158 158 155 154 153 151 151 152 151 139 123 116 115 124 139 146 145 146 145 147 149 150 151 155 156 153 149 147 145 145 143 144 145 149 150 149 150 150 148 145 143 142 142 141 140 138 136 136 135 134 133 135 134 129 127 128 134 125 114 112 120 144 160 158 153 153 157 157 144 129 124 124 129 133 130 125 126 134 138 140 142 141 138 137 137 136 136 136 136 125 126 132 129 125 123 120 116 115 116 117 118 119 118 115 127 133 124 133 141 154 174 179 180 180 161 132 122 134 133 112 127 141 145 162 151 145 145 158 163 150 141 151 141 152 155 143 138 135 132 129 127 125 120 114 111 107 104 102 103 109 115 116 116 118 121 121 121 122 121 121 122 124 128 132 137 140 143 147 150 155 160 163 168 172 173 174 170 152 124 108 109 129 147 146 139 133 129 124 120 118 116 116 120 123 121 119 118 119 122 126 126 126 126 126 133 143 144 144 145 143 140 140 140 147 147 149 161 161 159 158 149 136 131 136 164 179 175 175 181 171 135 105 101 
103 120 119 118 121 121 119 118 119 118 117 118 120 124 124 126 128 130 129 131 131 134 138 140 142 141 137 138 143 146 147 149 153 154 150 149 150 150 150 149 146 146 149 153 154 150 145 141 140 141 142 141 139 138 139 160 186 173 138 130 131 136 134 153 185 188 172 157 150 162 157 142 152 152 148 148 148 148 148 148 144 138 140 141 118 130 133 134 136 138 140 143 143 146 147 151 160 150 151 147 135 129 128 134 138 143 146 150 154 153 151 149 147 147 146 146 144 142 137 126 116 116 132 144 145 145 147 147 145 145 146 146 145 140 137 136 134 134 133 133 134 138 142 145 147 147 146 144 141 138 139 141 144 146 146 146 148 150 151 160 160 150 145 139 132 121 114 128 151 162 155 154 161 161 150 135 126 128 132 135 138 137 133 125 125 131 136 140 142 142 142 143 143 142 138 136 134 123 125 127 123 120 118 114 113 113 115 115 116 117 119 115 124 133 123 122 131 157 174 180 179 170 148 129 130 135 119 117 141 142 138 153 162 148 151 158 156 149 139 150 138 146 156 147 136 133 130 127 124 121 117 112 106 103 100 101 105 110 113 115 115 115 116 117 118 116 113 112 110 111 115 118 123 128 133 135 139 142 145 148 151 157 160 165 169 171 159 132 110 109 130 153 163 161 156 150 140 133 122 116 115 117 119 120 121 122 120 120 124 126 127 126 125 129 137 143 148 144 144 144 138 137 144 149 152 149 149 153 153 143 130 120 143 172 177 174 178 181 159 120 102 
105 127 121 122 123 123 121 119 117 116 117 119 124 125 125 124 126 128 129 131 132 133 135 134 135 136 133 137 144 151 154 156 157 156 153 151 151 151 148 144 145 151 153 151 148 145 141 137 136 136 136 137 135 134 142 171 187 158 132 131 131 132 138 170 189 177 165 159 154 159 150 161 169 166 160 154 149 148 148 147 145 136 140 140 119 132 134 136 139 141 141 141 142 143 147 149 157 153 145 143 137 132 128 131 133 131 131 134 138 137 135 133 130 131 132 134 135 136 140 138 127 116 117 127 133 133 136 136 135 134 135 133 125 115 110 107 106 110 115 115 116 123 131 136 138 137 135 131 126 122 119 117 119 121 122 127 133 138 143 152 158 146 136 128 121 120 136 157 165 159 156 162 159 144 129 125 127 131 134 136 137 138 134 126 123 131 140 143 143 142 141 139 136 132 129 133 133 122 121 117 114 114 114 113 113 113 114 114 116 119 121 124 131 132 121 117 127 153 174 178 174 157 133 125 132 132 113 134 145 144 141 142 161 148 137 142 141 144 137 147 138 141 155 151 140 133 130 126 122 119 113 106 99 98 100 105 107 110 111 114 114 114 113 114 114 113 108 106 103 103 104 106 109 112 117 122 126 131 134 137 139 141 144 148 153 158 163 158 138 116 107 120 146 168 174 171 167 161 155 146 137 130 126 121 119 119 121 122 121 122 125 127 127 126 126 128 139 146 145 142 142 138 136 144 149 150 146 145 151 156 151 134 124 155 177 174 175 181 176 144 116 
132 146 134 126 124 123 124 121 118 116 116 120 122 125 127 126 126 127 127 129 131 131 134 134 136 139 140 144 151 157 158 160 160 157 153 150 148 145 143 144 149 150 150 148 146 143 135 130 131 133 134 136 135 136 150 180 178 145 129 129 129 130 153 185 186 168 163 157 158 150 143 156 164 169 169 166 158 149 148 147 144 136 138 141 123 134 138 138 139 140 140 139 141 146 147 146 148 154 143 140 139 133 129 128 127 127 125 127 129 129 126 125 124 123 125 127 129 134 136 140 138 127 116 115 121 126 129 127 132 138 138 130 120 113 106 102 101 105 109 109 110 120 129 135 136 136 133 128 123 118 114 111 107 106 109 114 120 126 134 141 146 131 128 127 121 128 151 163 164 166 164 154 138 124 127 129 131 136 139 143 144 143 137 128 124 129 137 140 137 134 131 127 123 119 120 136 134 120 115 114 118 123 126 128 130 134 135 136 139 142 147 149 149 134 120 113 128 156 172 176 169 152 130 124 132 123 118 142 142 143 142 141 149 152 131 129 127 131 130 140 136 139 152 154 144 133 130 125 120 116 107 102 99 99 102 105 106 109 114 114 115 114 112 113 113 111 107 104 102 102 101 99 100 101 103 106 110 114 120 124 127 131 133 137 141 144 148 152 152 139 120 109 113 135 163 177 178 176 175 172 167 162 157 149 139 130 124 121 123 122 120 123 127 126 126 125 125 131 143 147 144 140 140 141 142 146 150 148 143 149 156 158 138 143 173 178 173 176 180 171 166 
182 159 153 144 135 127 125 122 119 116 115 119 122 124 127 126 126 126 126 128 130 134 141 147 147 146 146 146 148 151 154 154 155 152 147 143 140 142 144 146 148 150 148 146 143 135 129 130 135 139 137 137 137 140 161 185 168 136 129 128 129 137 173 190 177 168 161 157 160 140 136 142 149 157 165 171 168 160 151 145 142 138 141 143 125 135 137 138 139 138 139 140 145 147 146 145 142 154 145 139 141 136 131 127 125 127 127 128 129 129 127 126 127 126 127 130 133 136 136 137 139 136 126 116 115 121 129 128 135 143 139 130 123 120 116 111 111 114 115 111 110 119 129 134 136 136 134 130 125 120 118 116 114 112 112 114 119 126 132 134 136 139 151 156 141 133 146 163 170 162 143 128 122 125 130 133 136 138 140 141 143 142 137 130 124 123 129 132 129 126 127 125 124 124 129 140 131 121 131 138 141 145 146 146 147 148 146 144 143 140 137 134 129 128 124 112 132 159 170 174 166 151 127 123 132 114 129 141 137 137 139 140 144 161 142 134 125 122 124 132 131 134 146 154 150 137 131 125 120 116 111 108 104 103 104 106 109 112 112 113 114 113 111 109 111 111 111 107 102 99 99 98 98 99 99 101 101 102 105 107 110 113 118 123 127 133 137 140 143 145 138 125 113 108 120 148 170 177 179 179 178 177 176 173 168 162 154 144 137 134 132 123 119 124 127 126 126 125 127 136 145 144 142 142 142 138 139 146 147 148 153 159 154 148 165 181 177 174 179 189 200 
194 154 159 158 152 141 131 123 119 116 116 120 124 126 126 122 124 126 127 131 135 140 148 154 151 144 140 139 139 140 140 142 142 141 140 139 139 143 147 149 149 148 146 143 136 132 132 134 138 139 137 136 136 144 172 184 155 132 131 129 130 160 189 184 170 168 158 158 154 134 136 138 140 143 152 162 169 169 163 153 145 141 142 143 127 137 140 139 139 140 142 143 144 144 144 145 141 149 149 139 141 138 134 129 126 126 126 127 130 129 126 126 127 129 131 133 135 137 137 136 134 136 133 125 117 114 123 134 139 140 134 123 119 121 121 118 119 120 122 120 114 119 130 135 135 136 133 129 127 123 121 121 120 120 120 122 120 123 130 138 151 163 168 167 156 146 153 168 160 139 125 122 126 129 131 134 136 136 136 137 138 136 134 130 127 126 131 137 135 136 139 140 141 141 142 140 128 125 133 134 131 129 129 127 128 127 126 123 121 119 117 115 115 125 132 116 125 151 169 172 164 149 130 126 128 111 129 129 134 138 136 133 141 161 158 139 133 127 124 122 122 126 133 143 151 148 139 131 125 122 117 111 108 106 108 109 109 110 111 112 110 107 106 106 107 109 111 109 105 98 97 98 98 99 100 102 102 102 101 100 99 98 100 103 109 117 122 128 133 135 138 136 130 120 108 108 129 155 173 179 180 180 179 177 176 177 176 173 169 162 157 153 135 120 121 125 127 128 126 123 129 139 144 143 144 141 137 137 143 148 152 147 150 153 161 161 174 182 189 203 205 
191 142 150 157 161 157 146 135 121 115 118 121 125 128 126 122 123 125 127 130 136 140 145 148 145 138 134 130 131 131 132 133 137 138 139 145 146 148 148 149 146 145 144 138 134 134 136 135 137 138 137 136 135 152 180 177 144 131 131 129 149 184 186 175 170 163 153 157 143 134 136 137 138 140 142 150 160 166 169 166 156 142 140 146 128 136 141 140 143 144 144 143 142 142 142 143 142 150 151 139 138 141 137 133 128 124 124 125 129 129 127 126 129 130 133 135 137 138 136 133 131 130 132 133 133 123 114 125 136 133 122 114 116 120 123 120 121 124 126 124 119 121 130 137 138 135 132 130 127 124 123 123 124 123 123 124 129 139 153 166 173 173 169 166 164 163 167 165 148 134 125 124 129 131 132 133 134 133 133 135 136 138 140 138 137 138 141 144 142 139 135 131 128 124 131 137 126 119 114 114 113 112 114 116 118 118 117 116 115 114 112 112 113 124 137 123 124 149 169 170 163 148 132 130 119 113 122 125 136 143 137 130 142 154 167 143 133 138 128 123 121 119 122 127 134 139 138 139 137 134 128 123 119 115 111 109 109 109 108 105 104 104 105 104 103 104 106 106 103 111 106 97 97 99 100 103 103 102 101 98 97 96 96 97 98 101 106 114 120 123 126 129 133 132 126 113 106 114 136 159 172 177 180 181 181 180 180 180 181 179 176 174 170 152 129 122 126 128 128 127 125 125 134 142 142 140 139 137 136 136 145 146 147 150 149 151 157 174 201 212 208 
196 132 137 146 156 162 161 153 138 123 118 121 126 128 126 122 121 123 124 128 132 135 137 137 135 134 132 130 131 131 132 135 139 141 143 153 151 149 149 147 144 143 138 134 135 136 135 134 136 139 138 136 138 163 182 164 135 132 131 144 177 184 174 171 165 156 158 160 140 133 135 137 138 141 142 142 145 152 161 169 168 157 147 145 127 136 141 143 146 145 143 141 140 139 139 143 146 153 155 139 134 145 139 132 127 123 122 124 127 127 127 126 129 131 135 138 138 138 136 132 129 125 125 133 146 147 126 114 120 122 117 107 108 116 121 122 122 124 126 124 120 124 129 135 139 138 135 131 126 125 124 125 126 128 135 146 158 167 171 172 174 174 173 171 171 168 169 161 156 141 123 121 125 127 129 131 130 129 128 134 139 137 135 132 131 129 126 124 120 113 111 110 107 107 126 136 123 111 106 108 109 109 112 117 116 116 115 113 113 112 110 111 110 123 145 128 126 150 168 169 162 147 132 129 112 114 116 122 137 143 137 132 145 150 163 152 128 145 136 133 129 120 121 121 125 127 126 127 131 134 134 133 132 129 124 123 118 112 107 103 103 103 101 101 101 100 101 100 103 132 121 108 104 100 101 103 104 102 101 100 98 97 97 97 96 99 103 107 108 110 111 112 115 119 122 123 118 108 107 118 138 157 169 179 186 188 187 187 187 187 184 178 174 172 161 141 126 122 125 127 127 125 125 128 138 144 141 140 139 134 137 142 148 148 141 146 153 153 174 204 212 
194 129 131 135 143 153 161 165 158 143 128 121 123 127 124 122 120 122 122 124 126 127 128 130 130 132 133 133 131 130 134 136 140 143 147 150 148 148 147 146 143 137 132 135 136 135 132 132 133 136 138 138 145 172 180 153 133 133 144 175 184 174 169 164 155 157 162 157 138 135 138 138 139 140 139 138 138 141 146 159 168 168 160 142 128 139 144 146 144 143 140 138 136 137 140 144 148 158 154 140 129 144 140 131 124 124 120 122 126 127 127 127 129 133 136 139 138 138 135 132 128 122 116 123 146 158 150 127 117 123 126 120 108 107 112 115 118 123 126 124 118 122 129 137 139 139 137 134 128 124 126 133 144 158 166 170 170 171 171 173 173 167 160 153 155 162 167 159 155 133 119 122 125 126 129 131 131 128 127 127 126 122 120 121 120 118 114 107 104 102 105 108 107 112 132 134 119 109 107 108 110 109 112 117 115 114 113 111 111 110 107 107 108 122 145 132 128 151 166 169 164 146 131 124 110 113 112 120 136 138 132 134 150 148 155 164 132 147 144 143 136 125 125 124 121 120 121 122 121 121 123 123 123 125 126 129 128 125 124 120 114 108 102 99 98 100 100 99 101 111 110 118 122 112 104 104 105 103 102 101 100 98 97 95 98 103 106 106 107 108 105 102 100 100 103 108 112 111 106 105 109 120 137 158 180 193 197 200 202 200 195 188 181 175 170 166 155 136 123 122 125 125 125 124 125 132 142 145 140 135 136 136 140 145 147 145 150 152 153 167 194 
180 128 128 130 132 139 148 158 164 161 150 135 127 125 123 122 121 120 120 121 122 123 126 129 131 131 134 132 132 132 135 138 145 149 152 148 147 147 145 143 136 135 135 135 134 132 131 131 133 134 135 136 154 179 173 143 134 146 173 185 176 169 161 156 156 149 151 153 140 140 140 139 136 134 135 137 138 145 149 153 158 167 162 136 132 149 146 146 142 138 136 135 136 139 143 147 150 159 157 144 123 140 141 132 125 122 120 121 124 126 127 129 130 134 137 138 139 139 137 133 127 121 115 121 138 153 160 148 126 127 137 138 127 110 108 109 110 115 120 122 117 120 128 139 140 139 136 135 135 140 151 162 170 175 173 171 170 169 166 159 151 143 137 132 128 148 168 155 149 133 125 129 131 132 131 131 130 127 124 117 113 111 116 121 122 120 115 106 105 105 106 108 107 117 137 130 117 110 110 109 111 112 113 116 113 110 107 108 107 106 103 103 104 118 144 134 128 150 164 166 161 145 132 117 115 118 109 122 133 131 128 137 150 145 144 166 143 150 147 148 144 129 133 130 127 120 117 117 119 119 117 110 108 107 109 114 119 122 125 125 125 124 123 117 110 103 101 101 103 104 108 115 124 120 114 109 106 105 105 101 98 97 97 98 103 105 106 106 106 104 101 97 94 92 91 92 98 101 103 105 108 107 109 120 144 171 188 202 209 207 204 196 185 175 169 164 162 158 146 127 119 122 124 125 124 124 126 137 143 140 137 138 137 141 146 149 148 147 148 145 149 
144 130 129 127 127 129 134 142 153 162 166 158 143 133 125 120 120 120 121 122 122 124 127 130 132 132 132 132 132 131 138 144 151 155 151 147 145 145 141 137 135 135 135 132 131 131 132 132 132 133 133 139 166 181 161 136 148 176 185 176 168 160 155 158 147 141 156 152 139 138 135 132 132 133 136 139 141 144 148 150 150 153 156 135 153 165 147 140 136 132 132 135 139 141 145 148 150 162 161 146 121 132 141 131 126 120 120 121 125 126 127 131 132 134 138 138 139 138 136 132 127 124 125 129 131 139 156 158 140 132 139 148 140 119 109 108 111 115 120 119 113 116 126 136 140 142 144 150 158 168 172 174 173 172 171 166 158 149 143 140 138 138 136 133 118 133 164 154 147 136 132 133 134 133 131 131 129 124 119 112 110 111 114 118 121 118 115 106 105 106 108 109 109 122 141 128 117 113 112 111 113 113 112 113 110 107 104 105 104 103 102 103 103 114 141 134 131 152 165 164 159 142 131 111 116 120 105 112 128 123 126 140 150 139 136 166 151 154 152 155 150 130 131 130 130 125 122 116 116 116 115 111 105 98 94 94 97 102 108 114 116 119 121 126 127 124 117 110 106 105 112 110 112 115 115 114 111 106 102 99 98 97 99 101 103 104 106 105 104 101 99 96 95 93 93 95 97 98 100 102 105 107 108 107 110 128 159 177 180 183 188 184 170 160 155 151 149 146 145 139 129 120 120 122 123 124 124 123 130 140 142 139 140 137 134 135 133 126 121 119 117 
112 149 146 139 133 130 127 129 137 149 162 168 163 150 136 125 120 120 121 124 124 126 128 130 132 132 133 132 132 134 142 149 153 149 144 144 145 142 134 135 136 133 133 131 129 130 131 131 131 134 134 148 173 175 148 146 176 188 177 167 159 156 155 145 148 167 157 140 137 132 131 130 129 133 139 141 143 144 144 142 145 146 150 138 163 172 161 143 131 130 133 137 140 143 145 151 154 165 159 147 122 127 141 131 124 121 120 123 125 127 128 133 136 136 138 139 138 137 135 135 134 136 135 132 126 122 138 157 154 148 146 151 155 137 118 112 114 117 120 118 111 117 127 139 149 161 169 173 174 172 172 172 168 160 152 145 142 138 138 136 134 134 135 131 117 129 157 156 148 138 135 135 135 132 131 129 126 121 115 109 108 111 113 117 123 122 116 110 108 108 110 111 111 128 140 127 120 116 112 113 114 113 112 111 108 105 105 105 104 103 104 106 107 114 142 136 134 156 167 165 157 140 124 106 111 111 109 106 114 120 129 145 146 134 128 159 158 160 163 163 151 132 127 127 130 132 129 122 116 114 113 113 110 103 95 87 85 85 89 95 99 104 109 114 118 119 121 122 117 106 114 114 104 105 109 111 112 111 107 100 97 97 101 103 104 105 107 105 104 103 101 99 98 97 97 100 100 101 102 102 102 104 109 110 112 123 142 150 138 134 138 140 140 138 136 134 133 132 131 129 126 123 118 116 119 121 122 121 121 125 133 133 128 127 120 118 115 115 115 111 105 
101 151 149 149 150 146 141 136 131 132 145 160 167 165 156 141 129 121 120 123 126 126 127 130 131 132 133 134 134 138 146 149 148 142 142 146 144 134 132 136 137 136 134 133 132 134 135 135 137 136 137 159 177 164 146 167 185 178 168 160 156 154 143 145 173 178 147 133 136 132 130 130 130 133 138 139 145 146 146 145 148 150 145 137 155 167 170 161 143 133 138 140 141 146 148 153 154 164 159 147 128 123 137 130 125 122 122 123 126 129 130 134 137 139 140 140 141 141 140 142 141 139 132 125 117 106 113 141 155 150 146 152 158 155 136 115 115 118 120 119 116 129 146 162 170 174 174 173 173 170 165 156 147 141 139 139 140 140 136 130 126 128 132 128 119 137 157 158 148 140 140 137 133 130 130 126 122 117 113 107 105 111 114 118 125 125 119 115 115 115 118 118 118 132 137 126 123 121 117 116 115 114 113 113 110 108 107 108 107 105 105 108 108 112 143 144 137 157 166 164 156 141 120 103 111 110 111 117 113 119 138 149 141 127 123 149 167 167 163 163 157 140 126 125 131 136 135 128 120 114 112 114 116 113 105 97 93 88 86 89 91 91 95 100 104 109 113 116 119 110 111 114 106 101 102 103 108 112 111 108 104 102 103 107 108 109 109 108 106 104 101 99 99 100 100 101 101 102 100 103 104 107 111 108 132 168 151 135 125 117 114 113 114 115 117 117 117 118 118 116 115 115 114 113 114 114 113 115 115 113 114 115 116 119 116 112 109 107 108 115 127 
132 131 132 136 140 144 149 148 146 139 135 143 154 163 167 160 146 131 123 123 126 127 127 129 132 133 136 139 139 143 146 147 144 141 146 146 137 133 135 137 137 138 134 131 131 135 136 138 140 140 146 170 176 155 154 175 178 169 159 155 150 139 132 152 172 155 139 136 136 133 130 129 129 132 136 140 146 145 146 149 150 151 145 139 139 148 162 171 165 148 136 137 145 149 150 151 150 164 160 143 131 124 134 131 126 122 121 124 128 131 133 136 138 143 145 143 144 143 142 140 138 131 120 112 105 95 98 127 144 137 129 140 158 161 153 129 115 118 129 140 152 163 170 173 173 172 171 168 161 151 144 138 138 140 142 141 139 138 134 126 122 125 132 125 122 144 160 159 151 144 146 139 132 129 125 121 119 114 111 108 108 113 117 121 126 127 121 117 119 121 122 121 126 137 134 124 126 124 120 117 114 114 115 114 112 108 107 110 110 109 109 110 110 112 142 147 139 159 165 162 154 138 118 108 114 115 113 118 125 112 141 150 134 124 142 169 171 164 162 160 166 157 128 121 130 136 136 133 126 116 109 108 109 110 113 109 105 99 96 94 92 91 90 93 94 95 98 103 108 110 106 109 105 99 100 100 101 105 110 112 112 112 110 109 108 109 109 108 106 102 100 99 98 99 98 98 98 100 104 107 110 109 107 104 141 194 177 131 112 113 116 107 107 107 109 110 110 109 110 111 111 111 111 113 114 114 114 114 114 113 113 114 112 110 110 109 117 125 131 139 149 
150 128 128 130 129 131 137 140 141 145 143 140 144 151 158 166 164 153 140 133 128 126 127 128 133 138 139 141 140 142 143 142 141 143 145 138 132 134 136 136 135 136 134 132 132 137 139 137 138 140 153 176 170 149 157 172 170 159 152 148 138 131 133 151 157 136 129 135 139 134 130 128 129 130 133 138 144 148 149 149 147 150 142 133 128 131 143 161 171 167 154 144 143 146 147 148 150 168 162 144 132 121 131 129 125 124 123 127 131 135 137 139 141 143 142 142 138 135 134 133 134 125 112 105 101 96 101 128 136 129 117 125 154 166 165 156 145 151 163 170 172 171 171 172 169 163 154 147 141 138 137 137 137 137 141 144 143 140 132 123 120 125 132 126 136 152 152 154 157 153 154 144 135 127 119 115 114 113 113 116 115 118 121 124 126 129 124 118 120 124 124 125 130 136 130 123 128 125 121 116 114 111 113 114 110 109 110 113 114 111 110 113 114 115 139 146 141 159 164 163 156 139 114 108 116 112 107 113 126 121 121 142 136 155 173 163 153 164 168 162 162 170 146 120 125 133 133 132 126 118 108 103 120 128 115 114 114 112 110 107 101 96 92 93 95 97 98 100 99 101 101 99 100 98 99 99 98 100 104 110 113 114 116 115 112 110 107 104 103 102 101 98 96 93 95 98 103 107 110 110 106 105 107 109 139 186 189 145 108 104 114 109 108 108 109 109 106 104 105 107 108 108 110 109 109 109 110 111 111 109 109 111 113 114 127 137 135 136 136 131 134 
141 128 129 131 130 131 133 134 132 130 134 150 164 160 155 159 164 168 164 157 149 139 136 137 138 141 141 140 138 139 139 140 140 141 139 134 133 135 135 135 134 135 134 133 136 139 136 136 137 140 162 177 162 149 160 165 158 151 145 137 130 132 137 149 148 132 127 133 139 139 132 125 126 128 131 136 146 150 149 146 143 148 140 128 124 125 129 141 161 173 173 157 143 142 143 151 161 168 155 144 147 122 123 130 131 129 131 132 135 136 137 138 139 138 137 136 132 128 130 138 136 126 114 110 106 99 113 137 135 125 113 114 148 177 180 177 174 172 171 170 170 170 166 158 150 143 139 139 137 136 136 135 136 137 140 142 144 142 131 121 119 128 141 148 152 148 140 139 152 155 154 146 136 128 118 112 112 114 118 120 122 122 124 127 129 130 125 119 120 126 128 128 133 135 126 122 126 124 121 117 114 111 112 113 111 110 115 116 114 113 113 115 116 116 135 144 144 161 166 165 158 140 113 109 113 107 103 111 121 123 121 143 169 168 150 147 161 168 175 173 155 166 166 134 122 130 131 129 123 116 108 97 97 121 121 121 120 119 119 118 114 108 102 97 97 99 99 100 100 99 97 97 98 97 98 98 99 101 103 107 109 110 114 117 118 116 110 102 99 99 99 99 99 100 103 108 112 111 107 104 104 109 114 113 138 177 192 170 125 103 105 106 106 110 110 111 111 106 103 103 104 105 105 107 105 103 103 107 110 113 116 117 120 119 119 126 135 135 133 135 135 
133 127 129 130 131 133 135 136 134 127 130 159 161 148 147 153 157 162 168 170 165 159 156 154 152 150 149 145 143 141 140 138 136 136 136 134 133 134 134 133 134 133 131 132 136 137 136 136 137 147 172 175 153 150 160 158 151 145 134 128 130 130 132 120 118 133 126 124 134 142 139 133 128 128 134 142 147 148 147 142 142 144 132 132 122 125 126 130 144 162 172 171 156 143 156 163 157 163 149 145 159 131 118 125 133 131 130 131 133 135 136 137 137 137 133 130 129 132 142 144 138 128 118 114 110 106 126 143 132 118 111 114 151 187 191 184 177 173 169 168 163 154 145 140 137 137 138 137 136 137 136 136 136 136 138 139 142 138 125 116 124 143 153 148 140 132 123 136 152 151 153 144 136 129 121 115 111 115 120 120 123 124 125 129 128 128 125 118 119 129 131 129 134 134 122 124 126 123 119 117 114 111 111 110 111 114 118 117 115 115 114 115 116 115 132 146 150 166 170 169 162 141 112 108 107 102 105 112 127 136 157 170 157 142 147 149 156 149 141 167 165 158 171 156 131 127 130 127 120 110 104 96 85 78 85 102 117 122 122 121 120 119 115 111 106 100 99 99 100 99 96 96 96 96 97 97 101 104 105 107 105 104 105 108 113 118 118 111 103 101 106 110 112 113 113 113 108 103 101 105 111 114 113 111 141 176 191 186 145 112 104 107 105 109 110 112 115 113 107 102 102 103 102 104 106 103 102 103 106 109 112 113 116 117 118 119 122 133 138 136 136 
132 126 128 128 132 136 136 135 135 131 126 121 118 119 122 130 137 147 159 166 166 157 148 143 140 140 140 141 142 143 143 143 142 143 144 145 143 141 140 137 135 134 133 132 132 134 135 134 138 161 177 166 147 151 157 152 144 134 128 127 128 130 122 96 95 130 126 113 125 132 136 133 134 138 143 147 148 148 144 139 141 137 127 136 129 126 128 128 130 141 159 171 169 162 157 145 151 165 150 141 144 138 122 117 124 129 129 129 131 132 133 134 135 134 133 130 135 145 147 142 133 126 123 119 114 117 138 141 127 113 108 127 169 192 190 184 177 169 159 151 140 134 132 134 136 136 136 135 134 134 133 135 138 135 136 141 142 140 135 139 147 148 142 133 123 121 138 157 150 143 151 142 135 129 126 122 116 115 119 122 123 124 123 126 126 124 122 120 121 128 131 130 135 131 120 124 122 118 117 115 114 110 111 110 111 114 117 117 115 114 113 114 115 116 136 154 159 170 171 170 162 142 114 108 107 104 106 122 151 169 164 147 140 145 140 132 140 142 130 137 161 161 165 168 148 139 139 133 126 119 112 102 91 83 76 77 87 100 113 120 121 121 121 120 117 113 105 101 100 98 97 95 96 96 98 101 102 105 106 105 104 101 98 98 103 112 118 117 117 116 119 118 116 114 112 106 101 102 108 112 113 112 105 108 151 180 188 185 159 127 108 110 115 106 110 114 116 117 114 107 102 101 100 100 104 105 102 102 104 106 108 111 113 114 116 118 119 121 131 138 135 
133 127 126 128 132 135 137 136 135 134 127 119 118 119 120 126 128 134 147 159 163 162 155 146 140 139 138 137 135 132 131 132 132 133 135 140 140 142 145 145 146 147 148 143 143 143 141 141 156 177 179 156 142 149 150 143 136 131 130 130 131 129 113 99 96 99 105 110 113 116 130 135 142 147 149 150 151 148 144 140 145 134 126 131 134 125 127 125 125 127 142 166 165 149 142 138 152 164 146 140 138 135 129 116 119 124 126 126 128 130 133 136 136 135 133 136 146 148 143 136 130 128 127 123 119 128 143 138 122 111 123 157 180 184 184 177 163 148 135 127 122 123 128 131 136 137 139 142 144 145 147 149 150 151 152 150 152 153 163 176 161 142 129 121 128 143 147 138 132 142 146 139 133 128 127 125 124 122 121 123 123 122 120 119 118 118 120 122 122 126 129 128 133 127 119 120 116 113 112 112 113 109 109 110 111 111 114 114 113 112 112 113 118 127 146 161 164 169 167 165 159 145 120 113 109 108 127 160 170 154 143 144 136 127 137 135 137 137 132 125 136 163 157 161 154 150 150 145 141 140 138 136 131 121 104 95 92 91 95 102 110 117 121 121 121 120 119 113 106 101 98 95 97 100 103 104 103 105 106 104 103 103 105 106 107 106 106 110 114 121 123 120 115 107 104 107 110 111 113 110 107 103 97 117 162 181 184 179 163 145 123 122 137 115 108 113 116 117 117 113 109 101 99 98 99 102 103 101 103 106 106 106 106 111 113 117 119 119 119 126 136 
135 127 127 126 131 135 137 137 136 135 131 123 118 118 123 128 132 136 142 149 154 156 156 154 151 149 147 143 137 135 134 132 130 127 125 123 124 126 126 128 133 136 138 139 142 142 147 163 182 187 169 146 141 145 142 137 138 137 134 143 154 145 100 104 106 75 59 81 101 113 130 140 143 146 148 149 147 141 139 139 146 132 131 130 133 128 123 123 122 133 158 159 149 144 148 150 160 165 145 135 132 128 127 124 116 119 124 127 131 133 134 135 134 134 139 146 149 144 136 130 130 130 129 127 126 137 143 134 129 136 158 176 179 180 171 151 135 126 125 126 128 136 144 150 151 150 151 152 154 152 151 146 143 140 139 137 136 141 163 178 163 140 121 122 141 147 140 123 126 137 139 136 132 131 129 129 130 131 129 127 125 121 117 114 114 116 119 121 120 122 124 126 135 124 119 114 111 108 108 108 108 106 106 108 108 109 111 112 110 111 117 125 135 145 155 161 164 165 162 159 154 146 128 119 118 141 169 166 147 141 141 133 126 117 135 141 135 137 130 122 119 151 155 147 151 151 147 144 143 142 145 149 152 148 139 133 128 121 117 112 110 109 113 116 118 118 118 119 118 114 111 105 100 102 105 106 107 111 113 116 119 120 120 116 112 103 96 94 99 108 114 118 119 114 113 115 114 111 108 103 99 94 101 138 165 180 184 177 167 155 144 143 150 128 109 111 115 117 117 116 114 108 100 96 97 101 102 102 102 103 105 106 104 103 108 112 114 117 118 117 122 
131 128 126 126 129 133 138 139 137 135 132 127 122 122 127 134 136 136 140 144 145 146 149 154 156 154 146 141 137 137 139 144 146 148 145 138 136 132 127 126 129 127 126 126 125 131 154 179 189 180 156 139 143 141 139 142 146 149 161 170 165 150 98 93 92 68 41 54 88 103 122 140 143 145 145 144 141 142 141 143 142 128 128 125 130 132 123 121 140 165 155 147 139 148 175 166 164 160 141 132 131 128 126 128 121 118 125 128 129 131 131 132 134 140 149 149 143 135 129 128 130 133 134 134 136 145 143 142 155 167 174 178 183 177 156 143 142 146 148 150 149 151 150 145 142 138 136 134 134 131 128 128 128 127 128 128 129 134 148 162 159 144 125 125 138 143 139 123 124 127 129 130 131 133 134 135 136 137 135 133 128 124 118 111 112 115 118 122 120 119 120 129 137 122 118 108 106 103 103 104 103 104 106 108 108 108 108 110 117 124 134 144 151 155 157 161 163 166 165 158 150 146 138 134 156 172 158 143 142 140 129 128 128 124 119 141 137 143 133 119 118 134 149 137 147 160 152 138 133 132 134 137 139 141 140 141 142 142 141 137 131 125 119 117 115 115 116 117 117 117 117 119 117 116 115 115 119 124 128 130 128 122 116 110 101 93 88 86 87 91 98 110 117 120 123 122 117 110 102 95 93 97 124 156 171 179 178 176 167 151 146 142 138 129 116 108 112 116 118 118 116 113 107 98 94 97 102 104 103 103 103 103 105 104 103 105 110 113 116 117 117 
119 128 127 127 129 133 137 140 139 137 135 130 128 128 131 136 139 138 137 139 138 140 148 152 150 146 146 146 142 138 135 133 137 144 147 146 146 145 142 139 138 134 132 129 135 157 179 186 183 168 145 138 140 134 132 140 156 167 169 162 158 150 107 73 86 86 57 40 56 83 98 122 142 147 144 145 144 147 148 151 138 131 134 133 139 134 138 157 161 153 146 136 131 146 164 173 169 154 138 133 133 131 131 127 127 123 121 124 129 130 132 135 142 148 149 144 136 132 131 131 131 133 134 130 139 153 159 167 173 173 169 172 178 170 160 157 154 152 145 136 130 127 124 122 121 123 123 125 125 125 126 127 129 128 129 128 126 124 127 136 148 151 132 124 133 138 137 121 119 116 120 124 130 134 136 139 141 140 137 134 129 126 121 114 111 114 118 121 119 118 119 127 131 120 112 103 102 99 100 100 100 103 105 107 107 106 114 126 137 145 152 154 154 155 155 158 160 161 162 158 151 146 143 152 159 150 144 139 140 131 124 132 132 131 119 129 142 149 138 120 123 127 137 129 140 161 142 128 125 120 115 113 114 116 121 127 133 139 143 143 142 141 137 133 128 125 121 120 118 118 117 116 115 118 124 126 127 131 128 120 109 101 96 94 90 88 86 85 85 88 97 108 113 113 117 121 125 124 115 105 106 124 149 168 174 163 157 158 140 123 124 125 124 125 124 111 109 113 117 118 117 114 110 103 96 93 96 101 103 103 102 101 102 106 105 102 103 108 113 115 118 
117 129 128 127 131 134 137 138 138 140 139 135 132 130 133 135 137 136 135 137 141 147 148 143 140 142 146 148 144 142 140 134 129 130 134 135 136 142 146 148 147 144 138 141 158 178 184 182 177 157 136 135 134 135 152 168 168 160 153 151 151 145 128 93 79 79 78 52 42 72 82 103 126 137 136 138 139 139 143 150 137 143 148 148 146 152 163 159 151 145 138 137 145 145 153 171 165 151 144 135 133 133 131 128 127 126 119 120 128 133 138 145 148 146 141 136 132 130 130 129 128 127 131 138 155 170 176 175 171 167 162 154 149 144 146 142 134 126 121 118 117 117 119 122 123 124 126 127 128 128 129 129 129 129 127 127 123 123 127 133 138 147 142 127 127 133 133 118 116 110 112 118 130 135 135 138 141 141 137 134 130 127 126 121 114 115 118 121 118 119 120 128 127 118 108 99 98 98 99 98 98 100 102 104 111 124 138 146 153 157 155 151 147 145 145 153 149 143 146 146 147 146 144 147 144 141 131 138 140 125 127 136 135 129 128 119 137 151 143 128 133 129 132 129 136 143 129 128 126 124 120 115 111 108 109 111 113 120 127 133 138 140 142 141 139 136 133 127 123 120 119 120 118 113 113 117 123 130 136 136 127 109 97 89 85 85 87 91 96 103 107 110 108 105 103 109 123 135 136 131 131 139 158 172 164 145 139 130 113 102 103 110 118 121 125 119 110 111 115 116 116 115 112 108 104 96 91 93 98 102 102 100 99 102 104 104 102 104 107 111 114 
117 125 125 129 132 136 142 144 145 143 140 135 132 131 132 134 135 135 139 144 146 144 139 136 138 140 143 141 137 136 139 139 134 129 129 128 130 132 136 141 145 148 153 166 178 181 179 178 171 147 131 135 147 163 168 158 151 151 147 142 140 136 135 127 96 80 79 63 55 60 63 81 106 117 124 133 132 129 141 144 141 146 141 145 160 165 156 148 138 133 135 135 136 139 148 168 158 146 149 137 131 130 129 126 126 127 122 121 124 135 145 146 142 135 129 127 127 127 129 131 134 142 154 167 174 171 165 160 156 147 136 130 130 132 131 123 117 118 120 118 118 122 122 126 125 126 125 126 127 126 126 126 127 127 125 125 121 122 126 135 135 135 147 133 121 132 132 118 116 113 112 117 127 133 135 135 137 140 136 131 131 128 126 125 122 119 121 122 119 119 123 130 125 117 105 98 97 96 99 99 99 103 109 123 137 148 154 157 157 153 147 139 133 129 129 149 139 124 124 149 156 143 142 143 143 130 129 143 134 123 131 137 134 131 130 122 122 151 147 132 137 132 130 131 130 134 124 121 121 119 117 116 114 113 114 113 112 111 115 119 123 130 134 138 140 140 136 131 125 122 123 125 122 118 116 113 111 111 116 127 138 141 139 130 118 104 99 102 106 109 109 107 102 96 91 94 107 124 134 138 137 147 165 166 149 137 130 114 106 102 97 100 108 116 120 122 116 110 114 115 115 114 113 111 106 101 94 89 91 95 99 101 100 99 100 101 102 103 104 105 110 
114 123 125 129 131 137 150 156 155 152 147 140 135 132 130 133 137 141 145 145 141 137 136 136 138 137 135 132 129 127 130 132 134 134 135 133 130 130 132 133 137 148 164 177 180 175 175 175 162 140 142 160 164 157 151 150 147 143 139 136 137 137 142 143 136 123 109 96 86 61 48 72 110 118 125 135 135 134 149 146 138 131 145 164 162 154 146 127 124 127 126 127 128 126 145 167 152 143 144 138 132 126 123 123 123 124 124 124 126 127 143 138 129 124 122 122 122 126 135 149 159 167 169 169 158 146 140 138 134 126 125 141 164 160 144 131 127 129 130 129 128 129 129 131 130 129 128 128 129 127 127 129 128 128 128 127 124 125 128 135 133 127 143 144 124 131 130 119 118 116 115 118 124 131 136 136 136 137 135 129 129 129 129 130 129 125 125 126 122 120 127 129 121 117 108 101 98 99 102 103 109 124 141 152 157 159 157 153 146 139 131 122 116 114 120 152 137 133 158 169 156 144 140 139 140 134 135 139 126 124 135 137 133 132 129 130 118 144 152 136 135 132 129 130 129 135 123 116 112 111 109 108 106 107 106 107 105 105 104 104 106 109 112 118 122 126 128 128 125 125 130 132 130 126 121 118 115 110 108 108 112 115 122 132 136 143 143 133 125 118 107 96 90 87 86 88 96 104 113 124 138 163 171 155 140 134 120 108 106 104 98 96 101 111 118 121 121 113 111 113 113 113 113 112 109 104 99 92 90 91 94 98 101 101 99 100 100 102 104 103 105 
109 123 125 130 135 138 145 145 145 146 147 146 143 138 136 139 142 144 142 138 137 138 137 136 136 133 129 128 127 122 120 122 125 130 136 141 138 133 133 133 144 161 177 179 171 167 171 167 151 146 156 158 152 151 151 148 141 143 142 140 141 146 146 146 148 144 135 117 104 86 72 83 112 125 130 137 135 146 150 131 139 160 167 156 151 139 128 122 120 120 121 122 121 124 157 161 142 138 139 137 133 128 123 119 122 122 127 128 138 137 130 126 121 122 121 122 129 144 158 166 165 158 150 139 129 123 123 123 123 125 131 145 165 165 150 136 132 132 131 131 130 130 133 133 132 131 131 130 130 129 129 130 131 131 131 133 132 132 131 131 132 129 136 149 131 135 130 123 117 115 116 117 122 128 133 133 133 132 129 126 128 132 132 131 130 127 126 129 125 121 128 126 118 118 114 112 110 109 111 123 140 152 159 162 160 156 147 138 131 122 114 110 112 114 118 151 154 169 170 157 153 141 134 138 139 139 140 137 124 129 138 137 134 130 131 130 125 138 155 137 138 136 133 129 126 132 125 121 116 114 111 110 109 109 106 105 104 104 103 101 100 103 103 105 106 108 111 115 118 122 130 138 138 134 128 123 120 117 117 114 112 112 111 112 115 121 125 135 139 143 139 130 120 108 99 91 89 95 102 110 141 169 162 144 136 123 113 107 107 104 100 97 99 105 114 120 124 119 110 109 111 112 112 113 112 108 103 97 94 91 91 94 98 102 101 101 100 101 103 104 104 
105 126 129 132 135 137 139 139 139 140 141 142 142 141 143 144 142 138 135 136 138 138 137 134 133 131 130 129 126 122 119 118 118 122 130 140 146 150 154 162 171 177 176 168 160 163 166 157 139 144 154 156 151 145 144 141 142 144 144 146 147 150 148 146 146 141 135 124 106 97 95 98 104 112 128 140 147 151 128 142 169 166 151 144 135 132 130 121 119 119 120 123 123 143 168 153 135 130 133 136 136 133 130 125 124 129 139 136 149 147 135 129 122 124 130 141 155 161 156 150 139 130 126 125 124 123 123 122 122 124 125 126 142 160 153 136 127 124 123 122 124 125 127 128 128 128 127 128 128 129 128 129 130 129 129 130 129 130 128 127 126 128 130 144 139 132 131 126 119 116 116 118 122 127 129 129 128 125 121 125 129 132 133 132 130 128 127 131 126 124 131 122 118 120 119 119 121 127 143 155 160 162 163 160 150 141 133 125 118 114 114 116 119 118 133 170 170 159 156 151 132 118 127 134 138 139 141 136 130 139 142 138 135 131 131 128 125 139 157 137 140 140 137 131 125 128 126 124 120 116 112 110 112 110 107 107 104 103 102 99 100 102 104 104 104 104 106 108 110 113 121 130 136 138 136 131 126 121 118 118 119 120 119 115 108 102 98 106 116 131 135 140 145 145 141 135 125 117 108 110 148 163 149 137 128 113 108 106 105 103 101 99 99 101 107 119 126 126 115 106 108 110 111 112 113 111 109 105 101 95 91 93 95 97 100 102 101 100 102 103 103 
104 131 131 133 135 137 139 141 142 141 141 143 144 144 141 139 136 136 137 136 138 140 139 137 135 136 141 145 145 147 143 133 121 118 122 131 144 157 167 178 182 174 162 156 155 162 162 146 147 167 167 150 143 147 148 148 146 148 149 149 147 145 145 145 140 135 133 129 121 111 97 106 118 118 127 141 148 138 152 171 163 154 141 134 132 132 132 126 118 115 117 122 132 160 165 145 130 128 131 133 136 136 135 133 134 139 140 133 142 142 143 137 131 142 154 160 154 142 129 124 125 130 134 133 127 122 122 122 122 122 123 123 129 149 155 137 123 120 118 118 121 121 122 124 125 126 126 128 129 132 131 129 129 126 125 124 120 121 125 122 113 119 127 136 147 129 129 129 119 119 117 117 120 124 126 126 124 121 116 120 129 131 131 132 132 129 127 129 127 130 132 118 121 124 126 129 140 155 162 162 163 162 155 146 138 130 127 123 122 122 121 120 122 142 167 166 159 157 144 126 117 108 124 130 137 138 137 134 135 146 145 140 136 133 133 130 125 142 161 138 139 141 139 133 127 128 127 123 122 116 112 108 107 106 104 103 102 101 100 97 98 101 103 104 105 106 108 107 107 106 107 113 121 127 133 135 133 128 123 120 118 118 121 120 114 108 101 94 93 99 102 107 112 126 137 146 152 152 147 140 148 149 139 130 114 102 106 107 105 102 101 103 101 102 104 115 124 126 122 108 103 106 108 112 114 114 113 111 107 101 93 91 92 95 96 102 102 100 101 102 101 
103 133 134 134 135 138 141 142 141 141 141 141 141 136 136 136 137 136 136 139 142 143 145 151 157 162 166 168 166 161 151 138 131 125 120 124 133 146 164 177 175 160 149 150 159 165 155 135 142 163 153 135 137 139 144 147 149 153 153 153 151 145 140 138 136 137 135 132 129 127 112 103 120 130 134 137 142 163 171 157 148 136 135 136 132 132 132 129 122 118 121 134 152 167 155 136 128 129 132 132 133 136 138 138 139 139 135 127 142 147 140 124 135 156 144 134 123 124 129 136 139 139 135 127 122 123 123 123 125 125 125 127 127 139 153 143 125 119 116 118 121 121 122 124 126 125 128 131 134 137 135 135 132 130 126 121 117 120 126 122 107 115 128 127 147 137 125 126 118 118 117 117 119 121 124 125 122 116 114 116 124 129 130 130 128 126 125 129 128 132 128 118 121 124 135 151 161 164 165 164 157 148 142 137 131 126 127 130 130 128 125 130 153 168 163 160 153 140 128 124 114 106 123 134 143 136 134 136 135 144 147 143 138 134 132 127 124 136 162 139 134 138 139 134 126 128 130 124 122 118 113 107 106 105 101 101 100 101 100 97 98 101 103 103 106 107 109 108 108 106 105 108 112 117 123 130 134 134 131 126 122 119 119 121 121 117 113 111 108 104 103 103 102 102 104 109 119 129 139 146 149 151 150 144 132 118 111 106 104 101 102 105 105 104 105 108 120 124 126 119 104 99 102 110 113 114 115 114 113 106 95 89 89 93 95 98 98 99 100 101 100 
100 134 132 133 137 141 141 142 142 142 139 137 133 133 134 135 135 136 138 142 149 157 164 166 167 162 154 148 145 141 139 137 133 130 129 131 137 152 168 176 170 157 151 154 163 161 143 128 137 157 139 131 137 140 144 143 141 142 144 147 150 147 145 141 138 137 137 136 132 128 125 117 124 145 147 148 141 144 151 137 129 131 133 134 132 131 129 129 126 123 128 142 165 165 143 129 127 130 133 132 133 137 139 137 139 143 145 148 152 147 136 115 116 129 123 126 134 142 143 138 131 130 127 123 124 125 125 123 124 126 127 128 129 134 152 150 128 116 116 120 121 120 122 125 126 126 130 135 139 139 138 138 135 133 128 121 119 122 129 122 111 120 128 123 141 146 124 125 116 114 113 115 119 121 122 124 123 119 116 118 121 125 126 127 125 123 122 127 128 132 123 117 125 138 153 162 165 165 162 154 146 141 138 132 128 130 132 134 132 130 141 163 166 160 161 148 141 143 133 123 107 109 127 144 156 142 134 136 136 142 148 146 139 135 129 124 126 133 160 141 132 134 135 133 127 127 129 125 123 119 114 108 107 104 98 96 97 100 100 98 98 100 102 104 108 110 113 113 114 115 116 118 118 117 120 126 130 134 135 131 127 118 112 112 115 118 118 118 116 113 111 110 110 109 107 105 103 103 109 119 126 135 146 150 151 153 147 140 130 118 105 101 101 103 106 107 115 127 131 132 123 108 100 102 107 114 116 116 116 106 98 93 89 91 94 98 99 99 100 100 99 
101 135 135 137 140 142 142 142 140 137 135 133 133 134 137 142 146 151 155 160 162 159 154 148 142 140 142 144 145 143 145 144 140 136 139 148 157 166 174 176 171 162 155 157 160 152 132 125 142 157 131 134 144 146 144 140 135 132 130 133 139 141 144 147 145 140 139 137 134 127 128 125 124 146 149 145 139 123 124 119 124 126 129 132 132 129 128 126 126 124 125 143 166 156 136 129 131 132 134 136 138 140 142 150 159 163 163 154 151 149 138 128 111 118 140 145 142 135 131 130 130 130 124 123 126 127 128 125 125 126 127 128 129 132 148 157 131 119 119 120 120 119 121 125 126 127 133 137 140 140 140 139 136 133 128 121 120 124 129 121 113 125 128 122 129 152 132 122 112 110 110 111 117 122 123 126 125 123 120 120 120 121 123 124 122 118 116 123 130 131 122 128 141 153 161 166 164 158 152 148 141 134 133 131 131 133 134 133 135 151 167 165 162 157 136 132 157 140 124 117 99 113 129 148 163 148 136 137 137 141 146 147 141 133 126 126 131 134 162 143 127 133 132 131 128 126 131 126 124 118 113 108 103 100 95 93 95 97 99 101 100 103 107 110 112 115 117 117 118 118 118 117 115 112 110 111 117 123 127 131 134 130 119 109 106 109 114 117 120 119 117 114 112 112 110 108 107 104 122 147 132 118 112 119 129 140 146 148 148 154 148 138 126 114 105 103 113 132 135 134 134 130 121 108 102 107 114 117 115 109 103 98 95 95 95 98 99 101 105 103 106 
107 142 141 139 140 142 140 137 135 135 135 136 139 141 147 150 151 150 149 146 143 142 142 144 151 158 163 165 162 154 150 148 146 148 153 160 175 180 176 170 167 161 154 156 155 142 128 128 144 153 129 138 148 147 142 139 135 130 129 128 127 130 135 140 144 147 147 142 138 134 129 129 126 139 138 134 140 119 117 118 120 122 126 129 129 129 128 128 127 126 129 157 163 145 129 128 131 135 141 149 155 161 164 161 149 133 124 117 137 152 137 139 118 109 129 132 130 129 130 132 132 129 122 123 129 129 127 126 124 124 126 126 127 128 144 160 138 124 122 121 120 119 121 125 129 132 137 138 140 142 141 138 135 132 125 120 120 124 128 119 117 127 126 120 122 150 144 121 109 107 108 110 113 121 125 127 127 124 122 120 119 119 119 118 117 113 110 121 131 133 135 147 154 160 165 162 155 148 146 141 133 130 130 130 130 131 131 139 157 167 162 161 150 128 120 133 145 130 122 106 92 116 128 148 164 151 142 140 138 139 144 147 139 129 125 131 134 135 160 143 118 132 131 130 131 127 130 126 124 118 112 106 100 97 94 95 97 100 104 107 109 111 114 116 117 116 117 117 115 113 112 111 106 102 99 97 101 110 119 126 133 137 132 120 109 106 108 113 117 119 120 119 116 114 112 113 112 111 134 148 141 130 108 94 97 103 111 119 127 135 144 149 151 149 144 131 126 128 131 133 126 129 133 132 121 111 109 112 112 107 106 103 103 102 98 97 98 106 113 111 108 
107 143 140 139 137 135 134 133 135 136 138 141 142 142 142 141 139 138 137 136 138 145 152 159 169 175 175 174 171 162 153 143 137 139 149 167 183 184 171 160 158 157 153 155 149 132 127 130 149 148 129 141 146 145 140 134 132 129 126 122 122 124 127 133 137 141 143 145 143 140 150 161 136 133 129 126 127 121 116 116 115 118 123 126 126 126 126 128 127 126 146 166 152 131 124 135 145 156 162 163 157 145 132 120 119 127 137 148 154 153 139 138 130 112 113 128 127 127 128 130 133 128 123 125 128 126 126 123 122 120 122 124 125 124 139 158 143 132 124 121 122 122 125 129 134 137 137 139 140 143 140 136 133 129 123 120 119 124 126 116 118 127 125 120 124 148 153 125 107 105 106 108 113 120 125 127 128 124 121 118 115 116 114 114 113 111 110 126 143 147 152 159 163 162 156 148 145 143 138 137 134 129 129 129 127 131 148 166 164 160 155 138 123 118 126 128 123 124 126 118 94 95 103 114 128 127 132 142 141 140 141 145 138 128 131 138 137 137 158 148 117 127 131 128 132 128 130 124 123 119 113 108 104 103 104 104 107 108 112 113 115 116 119 123 122 122 120 116 109 105 102 99 97 95 96 99 102 106 114 124 130 136 137 128 116 107 105 107 111 115 118 120 120 119 118 119 117 126 140 142 135 118 100 94 97 103 106 106 105 107 116 126 134 146 149 150 153 152 144 142 128 118 117 126 133 134 125 115 105 104 106 108 110 110 105 102 107 113 110 108 105 
99 138 137 134 131 131 132 135 136 137 137 137 136 135 133 133 126 127 133 134 139 148 154 158 165 173 174 173 171 163 152 140 131 127 136 161 179 178 164 153 153 156 154 153 141 130 128 131 154 147 131 140 140 139 134 132 133 126 122 122 124 125 128 129 133 135 138 136 142 164 174 156 142 136 125 120 115 118 120 115 115 116 118 122 125 124 125 125 123 134 159 159 142 144 157 161 155 145 137 126 119 115 118 136 157 165 166 160 152 155 141 128 130 126 111 125 129 127 127 130 133 128 125 125 125 124 122 121 120 118 119 121 122 122 137 157 142 134 126 124 126 128 130 133 136 139 140 140 141 140 138 135 129 125 119 116 116 124 122 112 118 122 122 121 129 148 155 134 109 104 107 109 114 121 125 128 127 124 121 116 113 112 112 111 109 111 123 146 158 159 162 163 159 150 141 137 135 134 135 137 135 131 130 129 133 152 166 163 162 150 129 120 119 124 125 123 120 118 123 107 90 88 90 90 92 97 101 116 128 136 138 139 133 127 135 142 143 143 161 151 121 121 132 130 129 128 130 125 125 122 118 114 113 111 110 111 111 112 112 113 116 120 125 128 126 123 120 112 105 100 97 95 96 98 100 103 106 109 111 120 129 134 138 133 121 110 105 106 106 106 110 114 116 118 120 121 121 124 131 131 127 112 99 95 96 102 105 109 108 104 101 103 107 114 123 131 141 145 146 150 151 144 135 126 123 126 132 133 121 109 108 110 114 115 112 112 112 109 107 103 98 
95 134 133 132 130 131 131 133 135 135 133 132 135 134 131 129 122 124 130 132 137 145 151 157 162 169 172 171 167 161 150 138 130 127 139 160 172 167 155 151 154 158 154 148 140 139 141 138 152 136 129 134 132 132 131 131 129 123 122 124 125 126 129 131 135 133 130 147 169 168 155 148 141 128 123 129 123 116 113 117 115 113 115 118 121 125 126 134 144 159 163 148 141 144 136 125 119 117 117 122 127 128 139 159 164 159 153 137 136 159 141 128 125 129 116 116 129 128 128 133 132 125 124 124 124 122 119 119 120 117 117 118 118 120 141 156 139 130 124 128 135 140 142 141 140 140 141 140 140 138 135 130 125 122 118 113 113 122 115 112 117 120 121 120 132 145 153 147 117 105 107 110 115 122 127 128 126 125 120 115 113 112 109 109 115 130 145 159 164 164 161 153 143 135 128 125 126 129 132 136 137 132 130 139 160 165 160 158 141 124 117 122 123 124 123 121 118 119 121 108 104 109 110 122 119 106 100 102 111 123 136 139 132 121 114 119 125 135 159 150 122 115 128 131 126 126 130 126 126 125 121 117 114 110 107 106 105 104 105 107 113 120 124 127 126 122 119 115 105 101 99 99 101 102 104 106 108 111 111 114 124 131 136 136 126 116 108 103 103 100 100 103 107 111 115 118 121 122 122 122 119 114 108 102 99 103 104 105 104 103 104 105 105 106 109 109 109 117 126 133 141 150 152 152 151 142 138 135 133 127 121 118 118 120 115 111 111 108 105 99 96 
93 131 131 132 133 132 132 134 135 135 136 139 140 136 131 129 125 124 129 129 133 140 146 151 155 160 164 162 159 153 144 135 130 137 153 166 166 157 151 151 158 159 150 138 138 143 145 143 149 131 137 140 136 135 131 128 125 123 124 127 127 129 130 132 130 137 163 174 162 148 142 150 138 123 127 134 133 128 120 114 112 112 110 113 115 134 160 164 162 164 153 136 125 116 116 119 124 131 136 137 136 141 154 161 159 150 134 119 128 161 144 125 124 130 123 112 124 126 130 134 128 123 123 122 120 118 118 119 119 117 117 116 116 121 148 154 135 126 120 133 143 149 153 152 148 144 141 139 138 133 130 127 123 120 114 110 114 120 113 114 117 119 120 118 135 144 144 152 125 109 108 111 117 126 130 129 127 123 119 114 114 112 110 123 139 150 158 164 164 157 146 137 128 119 114 116 122 127 131 135 137 134 146 162 163 158 151 135 121 120 124 123 123 123 121 119 116 120 122 117 111 110 117 138 143 133 130 128 127 125 129 139 139 133 121 107 100 103 149 153 124 117 118 130 130 128 131 128 126 125 121 115 110 105 99 94 93 95 97 101 110 119 124 126 127 124 121 115 106 101 105 107 106 106 107 109 110 111 112 112 118 129 135 136 130 119 108 103 101 99 97 98 100 104 108 115 129 128 123 122 120 117 114 112 108 107 104 103 104 103 103 102 106 113 115 109 105 99 98 101 110 121 132 139 144 149 148 151 149 147 139 132 123 117 112 112 112 111 109 106 99 
92 133 137 140 134 131 132 133 133 133 135 136 138 134 130 129 125 123 128 127 130 136 141 144 148 151 153 151 149 145 137 133 138 155 168 169 159 151 149 151 158 154 142 127 129 132 134 144 146 127 143 148 148 146 142 140 134 128 127 128 129 131 129 129 150 171 166 150 137 128 142 149 134 123 124 126 129 130 128 127 133 141 131 113 113 118 130 136 155 159 141 134 134 133 129 129 131 137 141 141 145 155 162 159 147 131 119 115 125 158 144 137 148 141 136 117 125 126 130 133 126 124 124 121 118 117 115 116 116 116 115 114 114 124 154 151 134 126 119 139 152 156 157 158 154 149 141 137 133 129 126 123 122 118 111 109 118 117 111 114 116 118 119 118 136 145 136 156 134 115 111 116 122 127 130 130 128 124 119 112 112 120 133 146 155 161 163 159 151 141 129 120 113 108 107 113 119 126 131 133 137 153 164 161 158 145 128 119 122 124 123 124 125 124 122 119 117 121 121 118 113 111 120 138 138 130 132 139 144 142 133 136 142 145 144 130 113 103 141 152 121 121 108 106 119 128 129 127 124 123 117 109 102 95 88 83 83 88 94 102 110 119 124 127 125 123 119 116 110 109 106 107 109 110 109 109 110 109 110 109 115 125 134 136 131 120 109 103 101 99 97 96 98 102 104 125 142 137 127 121 119 119 119 117 116 115 110 105 103 99 97 101 109 115 109 104 104 103 101 97 93 91 95 102 112 123 130 138 144 147 151 153 149 143 131 122 121 118 115 107 101 
96 138 141 137 127 125 127 129 129 129 130 132 133 131 129 127 123 121 127 126 127 131 136 139 142 144 143 143 142 138 133 136 150 165 169 162 155 148 145 150 152 146 132 129 134 134 131 147 144 125 138 142 146 146 147 151 148 140 137 138 135 130 137 167 172 155 140 128 123 130 150 148 130 122 121 117 116 120 144 164 163 152 141 124 115 111 112 143 165 149 137 137 134 133 135 141 147 153 158 159 158 162 165 150 132 120 115 110 119 159 143 147 145 141 152 132 121 123 131 129 124 124 123 122 119 116 114 113 114 113 112 114 114 130 156 145 133 130 121 140 159 162 162 161 157 152 144 136 130 126 124 123 123 117 112 112 119 113 111 113 116 118 118 118 138 143 127 152 143 120 117 122 125 128 131 131 129 124 120 118 127 141 151 158 162 162 154 144 139 130 115 109 107 105 104 110 118 123 127 137 158 163 159 154 137 122 119 123 125 122 122 125 123 123 123 122 121 121 122 120 114 112 127 141 136 127 128 135 136 135 132 137 144 148 150 147 141 133 146 149 116 120 113 99 103 127 128 126 115 112 110 107 99 91 84 81 82 86 94 101 108 116 122 125 125 122 120 117 114 112 134 134 110 110 111 109 108 106 107 107 110 121 134 138 133 123 112 103 102 101 98 96 97 101 110 139 149 140 124 114 115 115 117 119 119 119 118 113 108 101 98 106 113 111 106 106 107 104 101 97 95 94 91 90 89 91 96 106 117 125 131 134 140 145 150 152 150 143 133 123 111 
101 133 130 125 123 124 126 130 129 130 131 132 131 128 125 125 121 120 125 126 124 127 131 133 135 135 136 137 134 133 134 146 160 168 164 156 150 143 145 146 145 139 133 138 142 143 140 151 136 127 136 135 136 140 142 144 144 143 144 142 144 159 174 164 145 133 124 121 122 137 155 144 128 122 121 117 111 109 121 130 121 119 123 127 125 116 126 156 155 138 136 141 146 153 158 162 163 165 166 162 159 165 163 142 126 116 109 122 143 159 142 139 129 123 123 126 120 115 122 126 123 125 124 125 123 119 115 114 115 114 114 117 118 138 159 141 129 130 121 137 160 164 164 162 157 150 143 136 129 125 125 124 122 117 114 117 117 109 111 113 115 118 116 118 141 142 125 143 151 125 120 123 126 128 131 130 128 126 131 139 146 153 158 161 155 149 145 134 130 119 109 108 109 107 104 110 116 124 142 162 160 157 148 130 119 121 127 126 122 120 121 122 123 123 124 125 124 122 122 120 115 115 133 142 133 123 125 129 133 132 131 140 142 145 147 145 140 141 146 147 136 119 115 108 112 124 129 128 110 102 105 106 103 101 96 91 89 89 94 102 106 111 119 122 123 123 119 116 114 109 123 136 118 111 110 110 109 107 105 104 106 119 135 140 136 126 112 103 101 100 99 96 98 101 126 148 147 132 114 104 106 110 111 114 117 120 119 118 114 108 107 113 112 107 105 106 106 102 99 94 92 91 91 90 89 90 88 89 90 95 108 119 120 127 130 135 139 146 148 149 145 
137 125 122 122 125 129 130 131 133 132 131 131 131 127 121 122 122 121 124 125 123 123 128 130 131 131 133 133 132 133 143 157 167 166 156 149 143 142 145 146 139 130 134 140 140 140 143 150 130 136 145 142 140 140 140 139 137 135 133 154 174 169 151 139 136 134 131 125 125 145 154 136 123 120 119 118 115 107 100 102 108 116 127 140 142 135 145 159 144 128 135 154 160 161 162 160 159 156 154 154 156 168 167 143 122 124 143 154 150 157 142 127 119 120 120 120 121 113 112 121 126 127 128 127 126 123 120 118 118 118 118 119 122 144 159 136 126 129 121 131 158 163 163 160 155 146 141 136 129 125 124 123 121 117 115 119 112 107 111 111 112 116 115 119 144 142 124 133 155 129 121 123 126 128 126 127 132 138 145 152 157 159 155 147 139 143 136 126 125 114 108 109 109 110 108 108 125 150 163 159 153 143 125 119 123 126 125 122 120 120 120 120 123 125 127 128 124 123 121 121 116 118 137 140 127 121 123 125 133 130 137 145 140 139 142 143 143 141 142 144 147 127 114 112 132 128 129 130 119 105 101 100 100 101 104 103 102 100 100 104 108 111 117 121 122 123 120 116 114 112 108 108 113 116 112 109 107 106 104 103 106 119 137 144 141 132 116 103 100 98 98 97 94 109 141 150 142 123 106 102 100 99 104 110 113 116 118 119 118 116 117 115 111 106 106 105 103 101 98 94 91 89 89 88 87 90 90 90 93 90 94 121 126 119 115 119 121 124 129 131 138 
142 126 124 124 126 131 134 133 133 133 131 130 129 125 120 118 120 122 125 123 120 119 125 126 128 130 132 132 131 139 155 167 167 157 150 141 140 143 146 144 129 123 127 132 132 132 144 145 127 141 147 146 145 145 146 144 139 143 166 173 158 139 128 132 138 139 137 134 139 155 149 129 121 118 117 118 116 110 106 103 110 130 139 142 145 151 158 150 133 121 126 137 144 147 147 146 145 142 141 143 146 164 167 142 137 151 152 142 134 157 144 127 120 122 121 121 125 123 111 115 126 128 129 129 127 127 125 123 123 123 123 121 123 149 153 132 125 127 122 125 152 161 161 157 150 143 138 135 129 124 124 123 120 116 117 117 108 108 111 108 111 112 114 120 147 140 123 124 156 134 122 124 124 126 130 135 145 151 157 160 158 151 140 130 130 138 126 120 123 114 110 110 111 111 112 130 156 158 157 152 137 123 124 132 129 124 121 120 121 119 118 121 124 128 130 129 125 124 123 125 119 124 141 139 122 115 121 131 132 132 143 149 141 135 136 139 143 144 146 147 148 138 122 109 128 132 129 130 127 123 112 104 99 98 98 97 98 100 102 103 106 108 112 117 122 124 122 117 114 113 110 108 108 111 114 110 105 105 105 104 106 119 136 143 141 134 120 105 100 99 97 96 96 126 149 146 132 113 101 98 98 97 98 103 109 111 112 114 117 118 119 117 111 109 109 106 103 100 98 95 90 86 86 86 86 88 90 91 90 90 89 114 135 121 117 121 121 120 119 117 121 
125 130 126 125 129 131 133 135 133 133 132 131 129 126 121 117 117 118 123 123 119 118 123 126 125 128 131 131 137 151 164 167 159 151 143 137 140 146 147 135 122 118 123 126 124 128 148 140 123 138 141 142 145 147 143 147 164 175 165 146 138 132 125 123 122 126 129 132 149 160 144 130 131 128 125 122 120 116 115 114 125 145 144 140 153 162 155 138 133 122 129 140 133 131 135 136 137 136 133 132 134 156 162 151 152 144 133 120 118 155 147 127 120 121 120 122 127 126 118 109 118 127 127 128 130 129 128 128 127 127 126 124 130 157 150 129 125 128 126 121 141 154 153 149 144 140 137 135 131 125 124 124 119 118 120 113 105 109 108 107 109 110 108 127 155 138 124 120 151 141 123 121 123 132 141 149 155 160 160 154 146 135 124 118 132 134 121 121 124 114 112 114 111 117 142 162 156 149 146 132 122 129 136 134 128 122 120 121 121 120 119 122 126 130 128 127 125 124 122 124 120 128 143 136 116 112 125 134 133 139 146 151 145 133 132 137 139 140 143 146 144 142 130 118 124 133 128 130 129 127 117 108 101 97 93 93 94 97 100 101 102 102 104 105 111 115 117 116 114 112 108 106 105 107 106 109 113 109 104 101 105 117 132 135 136 130 119 105 99 98 96 93 109 143 149 138 121 103 96 96 96 96 97 101 107 109 109 109 112 116 118 118 117 113 111 111 109 103 100 95 89 87 86 86 85 87 89 90 90 91 90 108 135 126 113 116 123 126 125 124 118 
116 127 127 126 130 132 132 134 135 134 131 131 129 128 122 116 117 118 121 122 120 118 124 127 127 127 129 136 149 161 168 162 154 145 138 137 143 147 141 130 124 118 118 129 126 134 153 133 124 131 133 135 135 141 157 171 165 147 137 139 144 147 144 138 129 123 119 128 153 158 139 131 138 142 142 136 134 135 135 135 140 147 146 151 159 157 145 134 140 139 124 134 148 135 128 132 134 135 134 129 138 152 148 145 135 121 114 115 120 156 150 127 119 119 118 125 127 119 118 115 112 122 126 127 129 130 130 130 129 130 129 131 140 161 143 126 126 129 129 123 131 142 141 139 138 136 135 134 133 128 125 123 119 119 119 109 107 109 107 110 107 109 119 148 152 140 128 115 144 150 123 126 134 143 151 159 161 158 150 140 131 123 115 117 137 130 118 124 123 115 112 112 127 151 158 152 145 138 129 125 133 138 134 130 125 119 119 122 122 121 122 124 128 130 127 124 125 126 118 123 120 128 142 130 111 116 132 132 134 143 149 153 151 136 127 131 133 134 137 145 144 143 137 130 127 135 130 133 130 127 117 110 104 98 93 92 94 99 107 112 113 109 105 102 101 104 107 109 110 110 106 103 102 104 105 105 105 108 110 105 101 109 124 129 129 123 114 104 100 96 95 96 127 149 144 129 110 97 95 94 94 94 96 99 105 108 107 108 112 113 112 115 118 118 116 114 113 112 106 98 92 88 86 86 85 85 89 88 90 93 95 103 127 128 112 110 117 120 123 125 126 
123 123 125 127 130 133 133 134 135 136 134 133 131 128 123 118 118 120 121 120 122 118 122 128 129 130 134 149 160 167 164 155 148 139 136 140 145 144 133 130 129 121 115 126 128 140 148 125 127 129 128 128 143 169 169 151 135 127 133 140 143 146 149 150 146 142 135 143 158 152 131 122 133 146 149 144 144 146 147 147 148 150 153 158 156 148 135 128 139 130 124 126 134 147 139 127 131 133 137 147 152 144 140 130 113 111 112 113 118 154 149 127 116 116 122 130 122 113 112 117 115 114 123 127 128 129 130 129 129 130 135 137 147 158 137 125 125 130 131 122 119 129 130 130 131 132 134 133 133 133 130 125 122 122 115 108 111 110 111 108 110 129 150 157 149 144 128 114 134 158 141 140 147 155 160 158 153 143 134 125 119 116 115 127 135 121 117 127 121 112 116 134 155 154 147 141 135 126 128 139 136 132 128 125 121 118 122 122 122 121 121 125 129 128 125 123 125 124 115 122 119 124 140 124 112 128 133 127 132 140 147 154 156 143 128 125 126 127 129 142 147 146 142 138 133 138 132 132 128 128 120 112 107 100 96 96 99 106 113 118 122 124 125 120 112 107 103 103 104 106 106 103 103 106 106 106 106 105 105 106 106 106 113 114 117 116 109 102 97 96 94 111 141 147 137 119 100 93 93 93 93 93 94 98 104 104 108 112 109 103 100 106 113 117 120 119 117 116 112 108 103 93 87 86 86 86 89 88 92 96 99 103 122 128 114 110 114 114 116 119 122 
122 119 120 123 126 132 133 135 135 136 137 136 134 130 125 121 118 120 122 119 118 120 121 126 130 135 146 161 167 165 156 148 140 136 138 143 144 136 126 133 136 124 116 119 128 146 142 123 128 124 134 161 171 155 138 129 125 124 124 126 130 135 139 141 143 145 148 158 159 142 126 121 128 138 141 138 138 138 141 143 144 146 158 159 151 137 125 122 140 122 120 130 127 132 148 141 129 143 151 146 137 144 144 122 113 112 112 112 117 153 146 126 114 118 128 127 114 107 110 111 116 115 116 127 129 129 128 127 128 134 139 141 153 154 133 125 124 127 132 121 114 120 122 123 126 128 130 133 133 134 133 127 125 121 109 112 114 111 107 117 137 150 146 142 155 145 124 123 136 161 154 152 157 159 153 145 135 125 119 116 117 118 121 135 128 117 121 127 116 120 142 153 148 142 137 133 123 127 138 138 132 127 125 124 120 123 124 123 122 123 124 125 127 127 123 123 126 120 114 122 120 120 135 120 120 134 127 123 129 138 145 152 157 151 131 123 122 124 127 136 147 149 147 142 137 140 133 132 129 128 122 115 109 103 100 99 105 112 115 119 121 126 131 131 127 122 113 105 101 100 101 103 105 107 110 107 106 107 108 106 105 105 108 110 109 102 101 101 99 94 99 129 145 142 128 107 93 92 92 92 91 92 92 99 104 105 108 109 103 97 97 99 103 107 113 116 118 118 114 113 112 105 97 90 88 89 88 89 93 100 106 106 120 132 118 108 112 111 108 111 116 
119 118 116 119 121 126 129 132 133 132 132 134 135 132 128 126 123 121 123 120 116 119 121 125 130 143 158 168 166 158 149 140 135 137 141 145 140 127 125 137 139 129 120 116 124 149 137 122 132 154 170 159 141 128 126 126 127 123 122 122 122 122 124 126 129 132 146 161 154 140 137 133 130 129 126 123 126 128 129 133 134 144 163 154 142 131 117 123 143 122 120 125 126 127 128 142 141 135 136 128 131 155 145 120 112 112 115 113 117 154 146 125 116 125 129 119 108 105 105 107 110 118 115 121 125 127 127 127 132 138 140 143 155 146 129 123 123 126 129 124 112 113 116 117 121 124 128 132 134 135 132 128 127 115 111 114 112 114 129 146 147 140 127 121 135 137 132 138 145 162 160 158 154 146 137 127 116 112 113 116 119 119 127 134 121 116 125 128 130 148 151 143 136 135 131 120 126 137 135 134 131 125 123 123 126 129 126 124 123 125 128 127 126 126 124 123 125 117 115 124 124 118 124 121 130 130 117 119 127 136 145 150 155 157 140 124 122 122 128 137 144 147 148 142 141 141 137 137 131 128 123 116 109 105 101 101 107 112 117 120 124 129 133 131 127 125 119 113 105 100 98 97 98 102 106 106 105 106 107 109 108 106 105 105 107 104 100 99 102 99 114 143 146 135 115 96 90 89 90 90 90 90 92 99 103 105 107 105 98 98 99 101 100 98 102 108 111 113 115 116 116 113 109 102 95 91 91 90 96 103 108 109 114 130 120 104 105 105 103 104 109 
112 117 117 116 118 119 121 123 127 130 130 131 133 134 132 129 127 123 122 121 117 117 121 126 137 154 165 167 160 150 142 135 134 139 143 142 131 122 129 134 137 134 125 114 124 144 126 146 168 161 144 130 124 125 127 126 125 122 122 123 123 120 117 118 116 119 144 161 148 135 139 139 132 124 117 116 120 124 125 126 133 151 158 146 137 123 114 124 142 121 114 119 134 148 142 131 142 144 133 128 135 155 139 117 110 110 112 111 117 155 144 124 120 129 124 114 108 107 106 107 111 117 119 116 122 123 128 131 135 139 141 146 158 143 126 121 121 122 125 124 112 107 111 111 117 123 126 132 136 136 131 132 125 113 119 117 124 141 150 145 132 123 115 116 126 138 144 150 155 160 156 148 139 129 118 108 104 109 113 115 117 119 132 128 117 119 132 137 144 147 138 132 137 131 121 123 130 130 130 131 128 127 125 129 131 128 124 122 123 126 127 127 127 125 124 126 123 116 118 123 122 118 119 128 133 120 109 117 125 135 143 149 156 160 148 129 124 123 126 135 146 147 145 139 140 142 139 140 134 128 123 115 108 104 102 104 107 112 115 121 125 130 132 130 126 122 118 112 106 101 98 96 96 98 99 101 103 104 107 107 106 104 104 104 102 100 103 107 103 100 101 114 130 124 103 91 90 90 89 89 89 89 90 99 103 106 107 100 96 99 99 101 103 100 96 96 101 106 110 113 116 117 115 112 108 102 97 94 99 102 107 113 109 124 125 104 99 96 94 95 97 
102 118 117 117 116 116 118 120 123 126 130 130 132 132 131 128 129 129 128 125 121 118 121 134 150 162 167 163 151 142 136 134 138 143 144 136 124 124 128 129 131 134 128 116 123 130 133 161 143 131 125 123 124 127 124 123 123 121 121 121 120 118 117 117 113 119 152 162 141 124 127 131 126 117 113 116 118 120 123 127 140 155 148 141 130 116 114 126 141 118 131 149 155 144 131 127 131 147 147 133 137 156 138 118 112 111 111 108 114 156 143 123 125 126 116 112 111 110 111 115 117 119 121 116 118 126 131 133 137 140 143 149 157 138 123 118 118 118 121 123 111 102 108 110 114 121 127 132 135 135 133 131 118 117 127 138 151 148 137 129 118 116 123 133 142 148 153 156 156 152 151 137 122 113 106 103 104 107 111 112 114 125 134 119 117 133 145 144 143 135 135 140 129 119 122 123 125 125 127 130 131 131 133 133 127 123 119 120 124 126 125 125 127 124 125 125 119 117 122 124 124 119 121 134 126 110 107 114 124 132 142 150 155 160 153 135 125 123 124 132 145 150 147 136 136 139 139 141 136 130 124 114 107 104 102 104 106 110 116 122 128 130 131 128 123 120 116 110 105 101 99 97 97 98 98 98 100 102 102 104 104 102 102 102 101 99 98 98 102 106 100 97 98 101 99 93 90 87 87 89 88 88 91 97 103 106 102 97 95 97 95 97 103 103 99 96 95 98 103 106 107 112 114 114 113 111 108 104 102 103 109 112 107 118 132 110 95 91 86 86 89 
93 120 118 117 118 116 116 118 120 122 126 127 128 128 127 129 127 130 132 130 128 124 130 147 160 167 164 153 144 136 132 136 143 143 140 129 124 127 127 129 134 137 131 120 118 122 133 137 132 128 125 122 123 124 122 121 122 120 120 120 119 117 115 115 113 131 160 156 131 115 117 121 119 112 115 117 117 118 120 134 150 152 139 139 120 115 114 130 139 127 153 139 125 120 120 122 126 132 145 145 136 150 136 119 115 113 111 106 116 155 138 124 126 120 113 114 115 114 115 119 121 121 121 122 115 124 133 134 139 141 140 154 153 133 118 114 115 114 118 122 113 102 107 111 115 120 126 132 134 133 135 125 116 130 148 154 147 132 124 121 124 132 142 147 152 155 155 150 142 139 149 129 111 105 105 104 103 105 108 108 111 130 127 124 141 148 141 137 135 144 144 127 118 118 121 122 123 125 128 133 135 137 135 129 121 117 116 120 123 127 126 126 126 125 127 121 115 119 122 125 126 120 122 129 114 109 110 112 120 131 141 149 155 160 158 140 127 124 124 128 140 151 151 136 131 135 137 141 140 135 124 115 109 105 103 104 106 110 117 124 128 130 130 128 122 119 115 107 103 101 98 95 95 97 99 97 99 99 99 101 102 103 103 103 100 101 101 99 110 133 123 111 109 105 102 97 96 95 90 88 87 87 93 101 105 102 98 97 95 93 94 96 100 103 101 100 96 94 95 97 99 102 106 109 112 114 115 112 111 110 111 110 103 116 138 114 88 86 81 81 84 
87 120 119 120 119 117 117 118 120 122 123 123 125 124 124 127 126 129 131 131 131 134 145 159 166 166 157 147 138 131 132 141 144 142 133 125 127 129 134 145 151 144 136 125 116 119 125 132 132 130 125 123 123 123 122 121 120 118 118 120 118 117 115 113 116 143 161 145 121 113 116 118 116 111 113 117 117 117 127 145 154 141 138 134 113 112 112 134 137 120 119 114 113 116 119 120 123 127 129 140 138 137 133 117 116 112 110 105 119 154 135 125 120 116 115 116 116 116 117 120 123 126 127 131 121 118 130 136 138 136 139 157 148 127 114 113 113 112 115 122 115 104 107 111 117 119 123 130 133 135 130 117 133 151 151 141 131 126 129 134 142 147 153 156 155 151 144 137 130 126 150 134 108 101 104 105 103 104 105 106 117 135 142 152 150 136 133 137 145 144 125 117 117 119 122 122 124 126 129 133 137 136 131 122 117 116 118 121 123 125 127 127 126 126 123 118 117 119 120 126 130 121 119 114 107 109 110 112 116 129 140 148 156 161 161 146 129 125 124 125 135 150 154 136 128 130 134 143 144 143 133 120 111 105 104 103 106 110 117 124 127 128 127 125 121 118 114 108 102 98 95 92 92 93 96 97 98 97 96 97 100 102 103 104 102 102 102 106 133 151 149 134 110 106 109 106 105 102 99 97 93 91 99 105 102 97 95 93 95 91 90 94 98 100 103 102 99 94 95 95 98 99 100 103 105 109 113 116 117 115 113 111 104 110 134 119 85 79 78 78 80 
83 117 121 122 122 120 120 120 122 123 125 124 122 120 120 123 125 128 130 131 135 146 158 166 167 159 148 140 132 129 140 144 143 137 126 126 132 142 153 156 152 147 143 132 119 116 121 131 135 134 132 125 123 122 122 121 119 118 115 115 116 115 113 112 123 154 158 136 116 113 115 117 116 110 111 116 116 124 142 152 145 131 140 124 109 108 110 136 135 113 114 116 117 117 117 118 122 126 128 128 138 141 132 121 114 112 110 104 125 154 136 123 117 115 116 116 116 117 118 122 125 131 137 141 133 116 124 135 134 132 142 158 140 121 111 113 112 113 115 122 116 106 109 114 118 119 122 127 131 133 126 139 154 148 137 128 130 137 143 147 151 151 152 149 144 138 131 127 123 117 148 142 111 99 100 101 102 104 105 103 128 154 158 147 135 135 144 147 136 120 116 118 119 119 120 121 122 125 129 133 135 132 125 117 118 120 122 123 125 126 127 128 125 121 117 117 118 118 119 126 133 123 119 108 108 109 109 112 117 126 138 148 155 161 163 151 132 126 123 124 131 147 151 135 126 127 134 144 145 146 146 134 124 116 110 106 105 110 117 122 125 125 126 123 120 117 113 108 103 100 96 93 91 91 94 95 96 96 94 94 96 98 99 101 102 102 104 124 144 147 142 135 109 92 93 98 105 111 108 103 99 99 101 101 97 95 92 90 91 90 89 93 96 99 103 107 104 98 95 97 100 99 102 101 100 102 105 111 115 117 118 116 113 110 120 123 96 82 79 78 79 
84 113 119 123 123 122 122 124 125 125 124 125 124 121 119 122 126 130 131 132 143 158 166 168 161 150 141 132 127 134 143 143 138 127 122 131 145 153 152 148 145 142 142 143 129 117 117 123 134 137 135 130 125 122 122 121 120 117 115 116 116 117 116 116 135 159 151 127 115 115 116 115 116 112 111 116 121 137 150 149 132 131 137 114 105 104 110 137 131 113 114 118 118 119 119 119 124 127 130 133 136 141 139 129 114 108 106 103 135 155 133 117 114 115 117 118 117 118 119 123 127 132 140 145 145 124 119 128 130 132 146 154 134 116 110 113 114 114 115 122 119 107 109 116 118 120 122 125 133 141 149 154 147 134 129 134 140 144 147 149 149 146 142 136 133 128 122 122 117 112 144 148 113 97 97 99 100 98 102 128 157 155 143 136 140 151 147 129 117 117 118 117 118 118 119 119 119 122 129 132 130 124 118 115 120 123 123 123 125 127 127 125 122 118 118 118 118 117 118 127 132 122 117 110 111 111 109 113 119 127 138 148 156 161 165 155 134 126 124 123 125 139 147 139 128 126 129 131 137 144 147 143 139 135 129 124 118 113 115 119 122 122 123 121 119 118 115 110 104 102 98 94 91 90 90 93 93 93 93 92 93 95 96 99 100 100 105 122 134 135 133 126 105 94 90 85 85 90 99 105 107 106 101 95 95 96 92 90 89 88 90 91 95 102 106 106 109 103 96 99 100 100 101 101 99 98 100 104 109 114 117 117 118 116 118 121 109 98 92 86 84 
86 112 116 122 122 122 123 125 124 125 123 123 124 124 125 124 124 129 134 140 152 163 167 162 152 143 134 126 130 139 142 140 129 123 128 144 152 152 147 141 135 135 139 146 129 119 114 116 128 134 133 128 125 122 120 120 120 118 117 118 117 117 117 123 148 160 142 122 116 117 117 116 118 115 110 118 134 146 149 136 124 139 132 107 101 101 110 139 123 111 114 117 119 120 120 121 125 128 130 137 147 135 139 136 128 108 101 109 140 151 127 108 109 112 114 116 117 116 119 125 133 137 140 142 143 137 120 121 127 128 150 147 129 110 110 112 113 114 115 121 119 108 110 116 118 121 120 128 149 156 151 143 134 133 140 142 145 147 147 145 141 136 132 128 126 122 121 122 120 110 137 152 118 99 100 101 99 107 140 160 151 138 136 148 149 137 125 118 115 117 118 117 117 116 116 116 117 122 126 125 121 120 118 120 121 122 123 123 125 127 125 121 119 121 120 119 118 117 120 129 130 125 121 113 108 109 109 112 118 128 137 147 156 161 163 157 140 127 125 122 122 135 146 141 128 128 125 121 126 134 141 143 142 139 136 136 135 127 117 116 119 122 121 121 118 117 115 112 106 101 99 97 94 94 92 90 92 92 92 91 92 94 95 97 104 104 102 107 118 131 130 114 100 96 91 89 88 86 85 93 103 108 108 108 105 103 98 97 95 91 89 90 91 103 109 107 108 107 101 96 98 99 100 101 100 98 97 98 101 103 107 110 113 115 118 119 117 111 108 103 97 
91 113 114 119 122 122 121 122 123 122 122 120 121 123 128 126 123 127 137 149 160 167 163 153 144 137 129 128 135 140 140 132 124 129 144 151 149 145 140 134 135 139 142 145 122 124 117 113 119 128 131 127 123 123 121 119 119 118 118 119 119 117 118 131 154 156 134 120 117 120 120 118 118 114 113 131 144 148 139 122 126 145 123 101 99 98 113 142 122 109 113 116 120 122 122 121 124 128 131 140 156 137 129 143 141 122 113 123 145 148 120 100 105 109 110 111 112 114 122 128 134 138 140 141 140 140 127 113 122 132 153 140 120 105 108 110 110 112 115 119 118 108 112 119 118 117 126 147 153 148 140 135 138 144 145 147 147 146 143 138 133 128 125 124 123 121 120 120 121 111 127 155 124 105 101 104 124 156 159 144 131 131 153 151 134 122 121 117 115 115 116 117 118 116 114 116 120 121 120 118 117 120 122 123 120 119 123 125 125 125 121 122 124 123 121 119 118 117 126 129 121 146 154 142 134 119 112 112 117 126 137 147 155 159 160 160 144 128 124 122 122 131 142 136 127 129 123 117 122 128 136 142 143 136 130 133 137 138 131 120 117 120 121 119 117 116 114 111 106 101 99 97 96 97 95 93 93 91 92 91 92 92 97 108 122 130 124 113 127 145 135 107 98 95 93 90 88 87 90 99 103 102 99 99 102 106 110 108 103 99 97 95 93 97 108 109 106 108 105 97 96 98 100 99 98 97 96 96 97 97 96 97 100 106 117 119 116 116 115 111 106 
101 117 115 116 121 122 121 120 120 119 118 119 118 119 124 125 123 132 146 156 165 164 154 143 137 132 132 136 139 139 133 124 130 143 149 148 142 136 135 135 135 137 144 135 126 133 122 114 112 119 124 123 123 122 122 120 120 120 118 118 119 118 123 139 159 150 130 120 119 120 120 117 118 118 129 145 150 140 125 113 136 143 115 96 94 93 116 141 117 106 112 115 119 123 123 123 125 130 134 144 156 133 121 134 144 136 129 125 150 143 113 100 105 107 109 111 115 121 125 128 133 136 139 140 138 134 131 118 118 145 152 133 112 104 104 108 108 110 113 117 119 110 113 117 118 133 153 152 145 139 137 143 146 148 147 146 140 137 132 126 121 119 121 122 122 120 119 119 120 114 123 155 125 108 111 139 159 155 144 130 117 142 154 132 122 127 124 115 115 116 117 117 118 116 117 120 121 118 115 114 116 122 123 122 120 119 121 125 125 122 124 128 127 124 121 120 118 124 133 123 108 119 126 122 140 137 122 114 116 126 136 146 151 156 158 159 149 130 123 122 121 127 130 130 125 129 120 113 119 124 129 136 139 135 126 125 131 139 140 131 122 119 118 117 116 115 113 110 106 102 99 98 98 98 96 97 96 95 95 92 90 94 108 120 132 148 143 132 137 152 136 107 97 95 93 90 88 91 98 101 101 102 98 94 90 89 95 106 111 108 106 101 99 100 104 108 105 105 106 103 98 99 100 98 96 97 97 99 99 99 96 95 96 98 111 120 114 112 115 116 115 
112 116 116 114 118 120 119 118 118 115 115 116 116 117 121 121 125 141 153 163 165 156 145 137 131 133 139 143 142 136 126 132 145 149 146 141 133 130 135 134 131 136 147 125 131 138 128 116 112 113 120 122 123 121 120 120 120 120 119 119 119 117 125 147 159 144 126 119 118 120 119 118 120 130 146 154 144 130 114 116 143 137 106 90 88 91 124 138 107 103 109 114 118 124 124 124 126 129 135 147 146 126 122 122 139 144 134 127 152 135 108 102 105 107 110 117 123 127 129 130 133 135 135 135 132 127 125 126 117 137 145 125 104 103 102 106 108 110 113 116 119 112 110 122 142 154 152 145 142 141 145 147 148 145 140 135 128 122 117 113 113 116 118 119 120 119 119 117 118 116 118 154 132 129 155 158 148 138 132 114 123 141 129 116 124 129 119 115 114 115 116 116 117 118 122 121 118 115 111 111 117 121 122 121 119 118 121 124 123 121 126 128 125 123 120 119 122 131 128 115 110 116 120 113 112 117 118 118 116 124 122 129 148 151 159 163 153 132 123 124 123 123 119 117 123 130 118 114 121 123 123 129 134 136 130 122 121 128 137 138 132 123 119 117 115 113 110 106 104 102 100 98 98 98 98 98 98 98 98 96 96 105 117 121 133 144 138 124 123 141 137 112 96 95 93 91 91 98 101 100 102 100 98 95 92 89 86 87 92 99 106 110 107 105 103 105 106 105 103 106 103 101 100 98 99 99 100 100 98 99 97 95 95 92 99 120 116 105 108 112 116 
118 116 114 111 113 115 117 115 115 113 112 112 113 115 120 124 135 149 160 165 158 147 137 130 130 140 145 145 140 130 132 142 147 145 139 131 127 130 132 131 130 141 141 121 132 135 133 122 114 113 116 120 122 121 119 119 119 119 118 118 120 120 131 154 155 135 123 119 117 118 116 119 135 147 154 148 132 120 112 128 145 126 98 83 82 90 132 136 102 101 107 113 118 121 123 125 125 129 137 140 135 130 128 129 132 139 139 140 150 129 105 103 105 109 115 124 128 130 133 132 130 129 129 131 126 122 125 128 121 118 135 120 104 102 104 106 109 110 112 115 121 115 129 152 156 150 148 145 145 146 145 142 139 134 128 122 116 110 111 111 113 113 114 115 116 116 115 115 116 113 113 152 155 159 157 144 129 131 124 113 129 123 109 116 129 125 116 115 114 112 111 115 120 121 121 120 117 112 110 111 116 119 120 119 116 117 119 120 120 121 123 125 125 120 119 121 129 128 121 115 111 115 122 118 114 111 110 112 112 115 116 114 136 128 133 143 147 139 132 128 126 121 113 111 122 128 118 118 124 125 121 123 131 133 132 125 119 117 124 135 138 133 126 119 114 111 106 102 100 98 98 97 97 98 98 99 100 99 100 102 107 113 117 124 137 135 123 108 105 128 137 119 99 94 93 92 97 101 100 98 100 102 99 97 96 93 91 89 87 87 89 94 103 112 115 108 105 104 104 107 107 103 101 99 101 103 101 99 98 95 93 93 92 88 92 118 121 97 95 101 106 
110 117 112 107 108 111 113 113 112 112 111 111 113 114 120 134 148 159 165 160 148 140 130 125 136 144 144 144 137 133 139 144 143 137 129 124 127 128 129 127 130 147 129 121 131 130 131 128 116 113 112 115 118 121 119 117 118 118 117 117 120 122 140 156 146 129 119 119 117 116 118 132 149 154 147 132 121 112 115 138 144 118 98 88 82 95 137 131 99 99 105 112 115 119 124 124 128 135 135 132 137 139 135 136 127 125 136 150 149 123 101 105 110 117 122 128 131 135 135 134 131 127 122 122 120 120 126 131 133 117 125 117 111 109 108 109 111 112 113 118 129 144 154 154 150 149 149 148 146 142 137 131 125 118 112 110 111 109 110 110 113 114 114 112 112 112 112 110 107 114 138 163 157 150 138 122 130 131 115 118 119 107 105 121 129 121 112 112 111 110 115 120 122 120 119 118 114 111 110 112 114 116 118 118 115 115 117 117 117 118 121 123 121 118 119 129 129 122 122 116 110 114 122 118 114 113 112 112 115 120 122 116 113 115 111 121 147 148 139 136 131 122 115 113 118 120 115 123 129 130 123 118 128 130 132 128 123 118 115 123 135 137 132 125 115 110 104 100 97 95 94 94 95 97 98 100 100 100 102 108 116 118 118 133 134 121 109 100 97 117 135 125 102 95 94 98 102 100 96 99 101 102 100 97 98 97 94 90 88 89 88 88 90 94 102 110 112 110 107 106 107 105 101 99 103 105 103 100 97 94 93 92 91 88 90 112 126 101 87 90 95 
99 113 109 105 102 103 106 109 109 109 111 113 116 119 130 147 159 166 163 151 140 130 121 127 139 142 142 140 135 136 143 143 135 128 126 124 122 124 126 124 136 146 122 125 127 127 128 128 120 112 111 113 116 119 119 117 117 116 117 118 119 127 147 154 138 123 119 119 117 118 132 147 152 147 132 120 116 111 120 146 140 112 100 98 92 105 140 119 95 99 104 109 113 115 118 126 136 139 134 134 136 133 135 127 114 109 124 152 145 121 102 110 118 123 126 131 135 137 136 133 130 124 117 115 113 121 125 138 148 120 117 116 116 118 114 114 117 121 128 140 154 154 150 148 149 148 146 141 137 129 123 117 112 108 108 109 113 112 110 111 113 113 112 111 111 109 106 109 128 150 160 150 143 127 119 145 138 118 111 112 104 104 108 123 127 117 110 111 113 117 121 121 120 117 114 112 112 112 111 111 113 116 117 116 114 114 114 114 114 117 118 120 120 118 126 132 122 122 124 114 111 115 121 118 117 115 114 114 115 120 126 132 135 132 130 150 155 149 146 141 134 125 118 114 113 114 114 123 130 132 126 115 124 127 128 129 125 122 116 115 125 133 137 131 120 108 101 99 99 96 92 90 90 92 95 100 104 107 108 116 127 121 128 136 125 110 98 94 93 106 130 131 110 95 98 104 100 97 98 102 102 101 98 97 96 97 95 92 90 88 86 89 92 94 94 94 100 107 111 112 110 108 105 104 106 105 101 98 96 92 90 90 90 90 90 107 123 110 88 87 88 
89 106 105 103 99 98 102 104 104 105 109 114 120 131 145 157 165 163 153 142 131 119 120 132 140 140 139 136 136 143 145 138 134 129 128 126 123 122 122 125 144 134 122 127 128 129 127 125 122 115 115 116 116 118 119 119 116 115 116 115 117 132 152 150 131 121 118 118 120 132 147 152 145 132 121 111 113 110 127 148 133 109 104 103 101 115 139 112 101 102 104 108 110 111 119 136 139 136 131 133 128 120 124 120 115 106 119 151 138 122 115 118 124 126 130 133 135 137 134 131 125 118 116 113 113 121 124 146 144 128 116 117 120 126 129 133 137 142 150 156 150 148 148 146 144 138 134 130 123 112 110 110 110 109 111 112 114 112 110 110 111 111 111 110 106 106 122 143 158 154 140 138 138 130 155 144 122 112 109 106 105 105 112 126 124 112 109 114 120 121 119 117 116 111 109 111 113 113 111 112 113 114 117 116 115 114 112 111 112 114 115 118 119 126 134 124 118 125 121 111 111 115 123 124 119 117 116 114 115 118 123 130 137 147 155 153 152 150 146 138 132 123 117 114 113 112 111 115 122 129 129 114 120 125 127 128 126 124 120 117 119 124 131 134 128 113 101 100 102 100 101 102 105 108 112 116 122 122 118 124 122 127 138 129 114 103 98 95 93 99 123 132 118 102 104 102 95 94 98 100 99 99 98 97 96 96 96 93 89 88 88 88 92 95 95 95 95 98 102 106 108 108 106 105 103 104 104 100 94 89 88 87 85 87 90 103 121 112 90 88 88 
89 104 102 101 100 97 98 102 102 104 107 112 125 143 155 162 163 156 145 135 123 116 124 133 136 137 135 133 142 141 137 147 146 133 130 128 126 123 120 131 145 123 123 129 127 128 127 125 121 117 117 121 120 117 118 116 115 114 114 113 117 138 154 144 125 118 118 120 130 144 149 144 130 124 114 106 107 111 138 147 124 109 108 109 109 123 135 109 106 106 107 107 107 116 135 140 134 130 129 133 123 115 121 123 124 114 131 152 134 123 122 124 126 128 130 133 134 135 132 125 119 116 116 117 119 119 132 151 138 132 123 124 134 139 145 150 151 152 151 149 147 144 138 135 129 126 124 119 111 106 105 109 111 114 115 116 115 113 109 108 109 110 108 106 117 138 154 154 143 132 116 138 159 160 147 126 114 106 111 109 107 109 118 126 118 110 116 121 121 118 114 111 108 108 108 111 111 111 112 114 113 114 117 117 114 111 109 109 109 112 115 116 124 136 129 117 119 124 115 110 113 115 125 131 119 116 115 115 114 116 123 126 139 152 152 153 151 146 139 131 125 120 112 111 115 116 111 109 111 113 118 113 117 123 124 128 128 128 125 122 121 119 122 131 135 128 119 115 117 119 121 120 120 122 122 122 125 128 128 123 122 137 133 118 106 100 100 98 96 95 115 132 124 108 103 97 94 93 99 99 96 96 96 96 98 98 96 95 91 89 88 90 94 95 95 96 95 97 99 102 101 101 107 107 105 103 103 105 102 96 92 88 84 85 86 99 119 114 95 93 93 
94 105 103 101 100 98 98 100 101 103 105 117 136 151 159 162 157 148 138 130 117 119 129 132 135 134 132 137 137 132 142 151 148 134 130 131 127 123 121 140 136 116 124 127 128 129 129 126 123 120 118 123 124 120 117 117 113 113 113 114 123 144 152 136 121 116 120 130 142 147 141 128 122 119 110 104 105 119 147 142 115 106 108 111 111 130 130 108 109 108 107 107 115 134 140 134 130 132 138 136 123 120 128 130 129 125 146 149 129 121 124 124 126 129 130 130 131 130 125 118 117 115 120 126 126 125 147 147 140 134 136 133 141 144 147 148 148 146 144 143 141 133 124 120 119 121 118 111 108 106 105 107 111 113 116 119 117 115 111 109 107 108 116 136 154 155 147 136 121 107 116 153 156 135 124 120 105 106 110 110 108 111 123 125 118 118 121 120 117 111 107 106 105 106 107 108 108 111 111 114 115 113 113 115 113 111 108 107 109 111 113 118 132 131 120 120 128 124 112 109 113 114 124 144 125 115 114 113 112 115 118 133 152 155 150 146 145 144 133 128 122 116 116 121 124 121 115 111 111 111 109 111 117 120 121 129 132 131 132 129 128 127 127 130 135 136 131 125 121 120 118 114 111 109 108 109 111 119 120 118 134 139 124 109 101 99 99 99 98 96 110 129 128 109 98 93 93 98 101 98 94 92 94 96 97 99 97 95 92 90 90 93 95 95 94 94 94 95 97 99 101 101 106 108 107 106 103 104 104 104 102 97 93 88 86 95 116 117 100 98 99 
99 107 104 102 101 99 98 98 103 104 111 131 147 157 163 160 150 139 134 123 118 125 132 132 135 133 135 133 127 134 143 144 142 134 131 131 129 125 128 144 124 120 124 124 125 128 128 126 126 125 120 120 125 124 121 119 115 111 113 115 129 149 146 128 118 118 130 140 145 138 125 119 119 118 108 101 106 131 150 132 108 104 105 109 114 137 122 109 111 111 110 118 134 140 136 132 132 135 135 133 122 125 133 136 134 137 152 142 128 123 125 124 128 129 127 127 124 121 119 118 118 121 132 139 134 144 153 144 140 136 140 137 139 143 145 144 141 138 137 136 134 126 117 113 118 120 117 111 107 106 104 105 109 113 117 120 120 118 112 108 114 134 151 154 147 135 123 107 97 119 154 153 128 120 126 111 105 110 110 109 109 117 126 127 123 120 119 114 110 104 104 105 103 102 105 105 108 109 111 115 115 114 114 113 113 111 108 108 110 111 116 130 132 127 127 132 134 125 114 111 113 113 122 139 128 115 113 112 111 111 127 153 156 151 139 139 145 139 130 128 121 116 123 134 133 127 122 123 118 114 112 112 114 116 119 125 130 133 133 132 129 129 128 127 130 136 132 123 115 110 107 103 98 94 93 95 98 100 103 124 142 133 114 100 96 97 97 98 99 96 105 125 132 113 96 95 96 102 101 99 94 91 90 92 94 96 96 95 93 91 91 93 94 93 93 92 92 91 95 98 98 103 104 106 107 105 105 104 104 105 104 103 101 99 94 95 114 118 101 99 100 
100 112 106 103 102 100 102 102 103 112 126 144 154 162 161 151 140 133 128 120 123 131 134 135 135 133 130 124 125 138 139 137 134 130 129 130 128 125 137 137 116 121 123 121 122 124 125 125 124 125 120 117 126 135 131 124 120 113 111 119 136 149 137 121 115 123 133 141 138 123 114 115 119 116 108 99 111 141 146 119 103 105 104 106 121 140 114 112 113 111 123 138 139 137 135 134 134 129 124 130 121 128 137 139 138 147 149 134 138 134 123 126 127 130 127 122 119 121 124 126 129 138 145 143 142 153 146 144 141 140 140 138 137 140 138 133 132 131 128 126 124 120 114 108 113 119 115 109 109 108 103 103 107 111 115 119 120 119 123 136 150 154 146 137 124 112 99 101 137 157 138 125 119 127 120 108 111 110 111 112 116 125 127 122 118 114 109 105 102 101 102 103 102 100 102 105 105 109 111 115 116 115 114 113 113 114 115 119 123 126 134 134 127 126 129 134 136 128 115 112 113 113 118 135 130 115 112 110 107 119 149 157 153 135 131 139 145 133 129 128 117 116 130 139 139 143 138 129 125 120 114 112 112 113 116 120 125 128 129 129 127 121 118 115 115 128 136 125 115 107 103 100 97 93 92 94 95 93 108 137 139 122 103 94 94 95 94 96 96 98 106 123 133 121 101 96 99 104 103 101 95 90 88 88 90 93 94 94 95 93 93 92 94 94 91 91 91 90 94 98 98 102 105 103 102 104 104 103 102 103 103 105 105 101 100 100 109 118 101 94 96 
98 122 119 116 115 115 116 118 121 130 142 152 160 162 153 143 133 128 121 124 130 134 137 136 130 126 118 119 129 134 135 133 128 125 126 127 127 127 141 125 114 118 119 119 119 120 122 122 120 119 117 114 129 145 141 133 126 118 114 125 144 144 127 115 117 124 130 132 123 117 113 114 118 117 109 104 125 150 138 111 100 104 105 108 131 135 109 112 112 124 141 141 138 138 134 132 128 124 127 131 120 132 140 141 146 153 141 136 144 143 133 121 123 125 128 124 131 137 139 139 143 147 147 144 148 150 144 143 138 134 132 132 126 128 125 129 128 124 123 125 124 119 115 107 105 112 115 112 111 111 107 104 107 111 114 115 125 140 151 155 149 137 123 114 108 100 115 153 161 132 118 119 134 125 109 118 117 115 118 123 129 132 124 113 110 105 100 98 98 100 99 101 99 99 101 102 103 106 108 113 116 118 120 124 129 133 136 140 141 144 140 121 114 115 118 130 133 123 115 114 115 113 119 134 132 116 111 108 118 148 157 151 133 124 131 144 141 128 126 123 114 119 138 144 144 153 148 135 132 128 123 115 112 111 112 116 123 126 128 127 124 120 118 118 117 123 133 132 121 112 105 105 101 98 97 96 95 102 127 139 128 109 93 91 90 91 92 93 96 105 105 118 133 130 107 98 102 106 104 101 96 92 88 87 88 89 92 93 93 96 95 93 94 93 91 91 90 90 92 95 97 100 103 101 98 98 101 103 101 101 99 100 105 106 104 100 101 106 103 98 98 
100 135 134 135 136 135 137 140 146 150 155 159 163 156 146 134 130 124 121 128 135 138 137 128 123 120 113 122 131 131 132 130 127 123 120 122 123 138 137 114 113 116 116 114 116 119 118 118 117 116 113 112 131 147 143 136 129 119 121 137 149 139 119 113 117 120 122 118 115 115 114 115 117 117 110 113 140 151 128 106 101 101 104 111 136 122 105 110 126 142 141 140 140 135 130 127 125 128 132 131 121 135 141 146 151 150 136 140 144 143 143 129 122 123 125 134 140 144 145 148 148 145 145 145 149 145 140 132 125 128 134 130 121 121 132 131 125 126 129 127 127 124 120 113 105 105 113 116 113 111 109 107 111 110 117 138 153 157 146 135 126 113 108 104 104 127 158 153 125 116 113 116 130 113 112 140 124 123 124 129 135 132 115 105 105 101 99 99 97 99 99 97 98 99 99 102 107 112 119 126 132 137 141 142 143 142 139 136 143 141 126 113 112 112 114 124 124 114 111 113 115 114 118 133 135 117 110 119 147 156 150 129 116 120 138 146 134 126 122 113 113 131 145 148 146 151 146 136 135 132 127 122 116 112 110 114 120 125 130 130 124 119 115 111 111 116 126 135 130 119 110 107 105 101 99 98 98 115 137 132 117 98 87 91 90 89 89 93 103 104 99 113 129 131 117 102 107 107 103 99 96 92 90 89 87 87 90 92 95 96 95 95 94 94 94 92 90 91 91 93 97 99 101 100 97 91 93 98 100 101 100 95 95 97 102 105 103 100 101 103 103 
104 138 138 140 141 142 147 152 157 163 166 165 158 148 137 129 129 122 128 132 136 135 126 121 119 118 121 124 132 132 130 129 126 122 118 116 124 143 123 116 114 113 113 111 112 114 117 114 114 112 111 115 135 146 137 131 122 115 128 147 148 131 113 106 112 115 113 110 111 114 114 114 118 117 113 128 150 142 118 107 105 106 106 118 138 112 108 129 142 138 137 137 130 126 126 128 129 129 134 129 124 138 143 148 149 143 137 143 142 142 139 134 124 124 125 132 137 139 141 143 142 142 141 142 145 136 127 119 127 131 122 122 122 118 129 126 127 129 130 128 127 129 126 120 112 105 107 115 117 115 112 110 110 119 153 169 147 133 125 116 111 106 102 110 143 157 143 122 118 122 113 124 120 103 118 144 129 122 124 128 135 125 107 102 101 99 98 99 97 99 101 103 108 111 117 124 130 136 140 144 146 143 139 132 129 127 124 132 136 126 119 118 116 116 118 119 115 106 104 111 114 115 119 132 137 118 119 146 159 150 129 110 109 126 144 141 127 118 112 112 127 143 146 143 139 138 133 127 127 125 123 119 116 115 113 113 118 122 127 129 127 128 127 114 105 108 118 131 137 130 120 115 112 109 104 100 107 132 135 122 107 91 85 90 91 90 89 98 103 97 98 120 135 132 123 110 110 110 105 100 94 92 92 90 87 87 90 94 95 95 95 95 94 93 93 92 91 93 93 93 97 101 101 101 98 91 86 87 93 98 100 98 94 92 94 98 104 105 103 100 101 
110 134 135 137 139 144 151 160 167 170 169 163 154 142 131 130 125 126 134 134 134 126 120 120 120 119 122 122 128 133 132 125 123 120 117 114 135 135 116 117 115 113 110 108 109 111 114 114 113 112 111 122 142 144 130 120 113 116 136 150 142 123 109 102 108 110 108 109 111 114 114 115 119 118 120 143 152 131 114 111 112 112 110 130 132 113 131 142 138 133 131 121 118 121 125 129 129 130 135 128 130 143 146 145 148 141 139 138 136 136 131 127 126 124 125 131 135 138 140 139 138 137 135 144 135 129 119 124 123 117 123 134 128 117 122 125 128 128 128 127 127 130 129 122 117 110 106 112 118 117 113 108 108 129 145 133 120 116 112 108 107 105 124 152 153 134 119 116 126 116 120 125 108 108 115 138 140 121 118 127 130 115 102 102 101 102 104 109 113 118 123 127 132 133 134 135 137 137 135 133 129 125 120 117 117 118 126 139 128 117 117 118 117 116 117 117 117 107 102 110 115 114 121 128 136 124 144 159 152 129 109 104 112 136 145 135 120 112 113 126 136 138 133 130 126 124 124 124 125 126 123 121 118 119 119 114 118 121 124 125 125 128 133 128 116 108 111 127 143 139 124 115 117 119 119 112 121 135 126 109 99 91 85 88 90 91 99 104 98 93 108 138 132 120 122 120 111 110 107 101 94 93 93 90 88 89 92 93 95 95 94 93 94 91 92 92 92 92 92 95 97 101 102 102 99 93 87 84 85 90 96 99 97 96 97 100 103 113 112 112 108 
106 125 126 129 132 139 149 161 168 170 166 156 147 136 132 129 126 135 137 136 127 119 118 120 121 122 122 121 122 131 129 121 118 118 114 121 140 121 110 111 113 113 111 108 110 111 112 114 114 112 113 132 147 141 123 112 117 125 144 148 133 121 111 105 107 108 108 108 112 114 115 118 120 117 129 154 147 123 116 115 115 113 119 137 120 136 138 136 126 118 112 107 111 117 122 125 126 127 134 127 134 145 145 145 148 137 134 130 129 127 124 120 121 123 123 128 131 133 134 134 135 131 144 139 126 114 113 113 118 132 135 126 128 122 120 121 123 126 130 132 132 131 129 125 118 112 108 107 116 116 113 107 105 111 109 111 114 113 111 104 111 140 155 146 124 113 111 122 122 118 128 113 112 122 110 126 147 127 118 127 124 110 109 113 115 118 124 128 131 132 132 131 129 124 121 118 117 117 115 114 113 113 113 114 117 118 130 134 120 116 117 115 114 114 113 117 120 110 105 110 113 112 121 124 136 146 158 155 132 111 104 107 122 141 141 129 117 119 124 127 128 130 131 129 127 130 130 129 128 129 126 124 120 119 121 116 116 119 124 126 125 127 130 130 122 112 108 123 144 144 125 111 111 114 117 121 121 119 118 108 99 93 83 85 90 98 106 99 91 94 121 135 105 100 112 122 120 109 109 104 97 95 93 92 90 93 91 92 95 95 94 92 93 92 91 92 92 92 93 95 96 99 104 103 102 97 93 88 84 85 91 96 99 100 101 102 103 115 123 118 112 
112 116 117 118 121 130 141 155 165 168 160 147 138 133 133 127 137 142 138 128 118 117 120 125 126 125 123 120 118 124 121 117 116 115 113 136 132 109 107 107 108 109 110 108 111 112 114 114 114 110 119 140 147 137 119 117 131 142 150 139 122 120 121 113 111 108 107 108 110 113 114 120 120 119 141 157 138 118 118 117 116 116 131 127 126 139 132 123 111 110 108 107 109 114 116 120 122 125 128 126 137 145 144 149 145 134 129 125 122 118 116 117 117 118 121 123 123 124 128 133 130 138 146 130 116 105 113 128 138 133 125 121 126 124 119 119 119 125 135 138 139 138 136 131 127 123 114 106 110 117 115 109 103 104 107 109 112 110 109 125 156 154 130 118 112 111 116 125 119 127 119 106 133 128 111 119 145 139 125 127 115 109 117 121 122 123 123 122 119 118 114 110 107 104 103 104 106 107 110 111 112 112 114 115 117 116 118 121 117 116 114 113 111 111 111 119 119 109 106 109 110 112 120 125 149 161 155 131 117 114 116 122 133 139 136 127 122 125 130 135 140 142 141 139 136 136 133 133 132 131 129 126 122 117 120 117 113 117 125 130 126 126 128 127 121 110 106 111 132 140 125 112 107 106 106 108 113 115 117 119 118 112 98 85 93 103 99 90 85 102 124 114 93 94 100 112 123 116 108 107 103 100 97 96 96 94 94 94 94 95 96 92 91 92 92 91 91 91 92 95 97 99 107 108 107 104 101 97 95 94 95 99 102 103 100 98 96 106 115 109 106 
106 115 112 112 116 123 136 149 159 164 154 140 134 136 135 143 148 143 131 118 116 122 124 130 131 128 123 118 115 117 117 117 115 110 122 141 115 106 107 108 106 107 110 112 116 116 116 118 116 116 131 146 145 130 117 124 140 151 148 127 111 106 117 121 116 109 107 110 110 114 117 121 118 125 152 150 125 116 117 117 117 123 133 120 132 128 119 112 112 114 117 118 116 117 120 123 127 125 130 131 136 143 144 149 139 131 125 120 117 114 113 113 112 109 113 119 119 120 123 124 130 148 132 122 110 117 135 139 130 123 121 120 124 125 117 116 115 118 125 132 134 135 134 135 134 133 124 113 109 124 130 125 121 120 121 118 117 123 143 157 142 120 113 116 117 116 121 125 126 123 108 117 140 135 121 127 136 145 126 118 103 99 106 107 108 107 105 103 102 100 100 97 98 98 98 101 104 107 111 111 113 114 114 114 115 114 113 114 115 115 111 109 108 107 110 120 117 107 106 110 111 113 125 143 160 155 134 119 120 120 120 123 134 140 133 123 129 143 151 153 152 149 145 141 137 133 132 133 133 133 131 127 121 117 121 117 113 119 126 132 130 124 123 122 118 111 102 101 118 132 125 111 108 109 120 122 113 108 108 114 116 121 123 113 111 105 92 82 88 113 120 99 86 89 92 99 113 124 111 104 105 104 100 96 97 95 95 95 94 96 95 93 93 94 93 92 91 92 97 100 102 104 110 113 110 111 108 106 106 103 100 101 104 104 101 98 95 103 108 104 100 
93 114 112 113 118 126 138 149 158 160 150 138 138 142 148 154 146 133 122 118 122 125 128 132 135 131 124 118 112 111 113 112 112 113 136 130 107 105 105 107 108 106 110 117 122 123 123 121 120 124 140 149 141 126 120 132 146 151 141 124 109 102 106 118 121 113 107 111 112 115 122 122 118 137 155 138 116 114 114 118 127 131 125 126 126 117 115 116 119 121 122 126 126 125 126 132 136 131 127 126 136 139 146 147 135 126 122 121 118 116 112 110 108 108 110 116 120 121 120 132 149 136 126 117 125 138 136 126 120 118 119 117 121 126 116 113 113 113 119 126 127 126 126 127 129 129 122 113 110 120 132 133 133 134 131 132 144 155 147 129 114 118 125 128 128 123 122 126 126 113 116 128 137 135 116 118 118 142 132 108 95 92 95 95 95 97 98 100 100 98 98 97 98 98 99 101 105 110 112 113 114 114 115 113 112 112 111 111 110 108 106 106 104 102 109 120 116 105 108 112 114 121 144 159 155 136 120 114 112 110 110 123 141 142 128 124 143 156 158 157 152 146 141 139 135 134 134 133 134 134 131 126 120 116 121 118 113 120 127 131 131 125 120 119 117 112 105 98 106 126 129 114 105 117 138 136 119 109 106 108 106 110 115 118 117 118 116 103 104 123 111 84 82 85 88 93 100 117 121 107 102 102 103 99 96 94 94 94 96 98 95 94 94 95 96 96 96 97 100 103 104 107 109 110 110 110 113 114 111 105 101 97 96 98 99 98 98 99 101 101 90 
86 113 112 113 117 124 136 149 157 158 149 141 144 149 152 146 136 125 121 125 130 130 130 133 136 134 129 120 112 111 111 110 106 128 138 114 107 109 108 109 109 107 110 117 124 130 132 128 124 131 145 149 137 125 126 142 150 146 135 127 123 111 103 109 117 116 108 111 114 118 125 121 125 149 149 124 110 109 117 135 132 124 119 121 115 115 118 121 124 125 127 130 130 131 132 139 139 132 126 125 137 140 150 141 128 120 119 122 121 118 115 110 109 112 111 114 119 121 121 146 146 125 122 130 138 132 121 114 115 118 117 116 118 127 116 110 111 113 120 123 124 123 120 120 121 123 119 111 111 110 114 119 119 119 133 150 152 134 117 112 117 121 121 121 123 124 123 130 118 108 116 114 139 136 108 101 108 134 141 111 98 98 98 98 97 99 101 103 100 99 99 99 99 100 101 101 103 109 114 114 114 113 115 113 111 110 108 106 104 103 104 104 106 109 116 123 113 104 104 111 124 145 160 157 140 125 111 104 103 102 106 129 145 139 123 131 150 155 156 155 148 143 138 136 135 134 135 136 136 135 129 124 119 118 120 119 115 121 128 131 130 124 121 120 116 113 109 102 102 120 132 120 108 129 139 124 112 112 113 108 101 100 108 109 110 115 118 120 120 125 115 93 82 80 84 89 93 103 121 120 103 101 103 101 97 93 93 95 99 102 98 95 95 93 97 99 98 98 98 99 103 104 104 107 108 110 115 114 109 104 97 92 87 83 88 100 101 98 98 103 88 
82 113 111 111 114 122 135 148 154 154 148 142 144 145 142 135 128 123 126 133 134 133 133 134 135 136 132 123 114 115 116 112 117 141 125 107 107 109 110 108 107 108 110 118 124 132 138 137 129 137 150 147 134 126 134 147 151 140 130 130 130 123 112 106 109 115 113 113 117 121 126 124 138 153 137 111 107 123 137 132 121 118 117 115 117 119 121 124 125 127 130 131 134 136 139 142 139 130 124 129 140 148 148 134 123 119 119 120 122 121 118 114 114 113 108 115 133 125 117 124 128 127 132 136 125 115 113 114 115 116 116 115 115 128 115 106 107 114 122 123 123 120 118 121 121 119 118 112 110 109 104 104 112 139 155 141 120 108 107 110 109 106 110 112 118 124 131 124 110 110 107 105 141 140 106 103 118 129 144 124 102 99 101 99 100 103 105 105 104 102 102 101 101 101 100 101 103 108 113 116 115 114 114 113 110 109 109 111 113 114 115 116 119 121 126 124 109 101 112 134 151 161 158 136 130 127 110 105 104 101 113 135 143 134 122 134 149 152 154 151 145 140 136 137 136 136 137 139 138 133 127 121 119 119 121 120 115 122 129 131 129 124 124 122 118 113 108 104 103 116 132 124 120 137 130 114 108 110 112 111 109 110 104 96 93 97 108 113 115 119 123 124 116 108 92 87 87 92 106 123 112 101 103 101 100 98 96 98 100 104 105 101 100 96 96 98 98 94 92 92 96 98 99 102 101 107 112 108 103 96 89 87 83 77 87 105 105 101 98 102 95 
83 111 108 107 113 124 137 148 152 153 147 141 141 139 135 130 123 125 133 136 136 136 136 134 133 133 133 125 117 120 119 117 135 131 110 103 105 106 108 109 107 107 112 119 124 131 136 140 136 143 151 141 129 128 140 150 145 133 129 132 131 128 122 110 106 110 114 116 119 126 125 131 150 146 121 115 132 138 131 135 118 113 116 118 119 120 121 125 127 129 132 134 138 140 142 144 140 129 125 135 148 151 139 130 122 119 117 117 118 119 119 120 116 115 130 146 141 126 118 118 123 135 134 120 111 110 112 114 115 114 115 113 113 126 113 103 108 117 123 122 118 114 116 118 119 119 118 113 110 109 108 129 154 151 130 114 106 104 103 106 104 103 107 111 119 132 132 113 111 111 107 106 139 141 108 114 125 120 139 135 107 102 102 100 102 105 107 106 105 105 105 103 101 100 100 100 104 110 119 126 128 126 125 122 120 123 125 125 125 126 125 122 120 118 126 123 118 130 141 151 160 156 140 117 126 132 111 107 105 105 121 136 141 128 122 135 147 151 150 148 144 138 136 138 138 139 140 139 137 132 126 121 118 118 121 120 115 123 130 129 125 123 124 123 119 113 106 102 102 113 130 130 134 135 117 106 104 108 110 109 113 110 96 88 81 78 83 106 113 111 116 118 121 128 125 114 101 92 93 110 123 110 103 103 102 102 101 103 104 108 109 107 103 99 97 97 97 93 89 87 90 93 94 92 93 104 108 102 97 90 86 85 83 85 101 106 104 100 101 100 98 
87 110 105 103 112 126 142 151 153 151 145 140 139 137 132 123 121 128 136 137 137 136 136 134 130 130 132 126 121 123 122 134 139 119 111 106 103 105 106 109 108 108 112 118 122 129 133 137 140 149 149 135 127 133 145 148 137 125 126 127 127 126 126 116 107 105 109 113 122 126 129 144 151 136 128 136 136 127 119 115 110 114 116 118 118 119 120 123 126 129 132 136 139 141 143 145 141 130 132 149 156 144 139 135 122 117 116 116 116 119 119 119 127 143 145 133 122 135 124 116 120 128 118 108 108 111 111 113 114 114 113 111 110 124 113 104 114 121 121 118 109 107 112 115 117 118 118 114 111 123 146 153 135 116 106 105 107 105 103 107 106 103 106 114 131 135 117 110 115 111 108 109 140 135 110 125 124 107 125 142 116 103 103 104 103 105 107 107 107 106 106 104 102 101 100 101 105 113 126 137 140 137 134 130 129 132 132 130 127 125 121 116 111 112 129 136 137 136 146 156 152 133 129 113 121 133 113 108 107 111 127 137 137 125 123 136 145 150 148 147 143 139 139 140 142 143 143 141 136 131 126 119 118 120 122 119 116 123 130 127 123 122 124 124 120 115 107 99 99 110 126 135 141 127 109 102 104 109 108 110 111 100 90 87 85 80 84 118 121 92 88 100 110 115 118 125 126 119 110 104 118 121 104 103 102 102 100 103 107 108 110 109 107 102 97 94 94 93 91 89 87 88 89 90 96 102 102 100 95 88 87 87 89 101 105 104 95 88 103 105 99 
93 106 103 106 119 137 153 157 154 150 145 140 137 135 123 118 124 133 138 140 139 137 135 133 130 129 131 128 124 125 135 144 125 117 117 111 108 105 103 105 108 108 108 114 122 126 131 135 143 150 145 132 130 141 148 141 129 122 124 123 124 124 123 119 113 108 107 108 118 128 139 152 150 141 139 132 122 111 104 104 107 112 115 116 118 120 121 122 124 129 133 134 137 139 141 143 135 128 145 160 148 138 147 139 127 117 113 115 117 116 125 142 145 131 118 115 130 139 125 117 116 116 108 107 109 112 111 110 113 111 109 108 108 125 114 108 118 120 119 111 102 102 108 112 114 114 114 121 141 151 143 120 108 103 102 106 106 105 105 104 105 102 106 131 139 119 120 129 122 120 116 116 141 137 116 128 116 103 113 143 127 107 106 105 105 108 109 108 108 107 108 105 101 102 102 102 105 112 124 133 136 133 130 128 125 126 125 121 118 115 111 108 114 130 140 132 129 142 156 150 128 115 115 113 118 132 113 109 111 118 131 139 134 122 125 137 144 146 147 146 142 141 142 143 145 146 144 140 135 129 124 117 117 119 121 121 117 122 129 124 125 125 125 126 123 122 117 110 106 112 124 134 136 122 103 100 102 105 108 111 103 95 94 92 90 83 99 128 115 80 71 75 82 93 104 111 114 118 120 121 119 122 116 101 98 98 101 105 107 107 109 109 108 104 97 93 89 88 91 90 86 87 87 91 100 102 99 98 94 91 88 88 98 107 106 98 86 82 98 111 103 
98 103 105 118 138 155 160 158 155 149 144 139 135 128 117 124 129 134 139 142 140 137 135 133 132 129 129 129 125 132 140 125 122 123 119 114 111 109 105 104 103 103 103 109 118 125 131 139 147 150 141 131 136 145 145 134 123 121 121 122 123 123 121 121 117 113 107 105 112 129 150 157 146 133 131 122 108 103 105 106 107 108 112 115 117 119 121 124 125 127 131 134 136 138 139 139 130 132 160 163 139 150 157 146 133 118 113 111 117 138 149 136 123 118 118 129 144 127 126 119 114 118 111 110 111 110 110 110 112 111 108 107 106 124 117 114 120 119 113 103 101 101 105 109 109 117 136 150 144 124 112 110 105 103 100 103 105 105 105 104 104 101 122 140 122 109 120 122 113 114 115 117 139 137 111 116 109 106 106 132 139 113 108 108 107 109 110 109 110 108 108 106 102 102 103 104 108 112 118 124 124 123 120 116 115 114 112 109 106 104 110 127 139 135 124 127 146 156 149 128 116 113 110 110 117 131 114 109 114 126 135 138 129 121 125 135 141 143 145 144 143 143 145 146 149 149 144 140 136 130 125 119 117 118 119 119 117 119 121 119 122 123 125 125 123 121 117 113 110 115 127 133 127 112 101 99 100 104 109 102 98 98 100 97 94 90 115 129 98 75 73 74 76 78 84 91 101 108 111 113 117 120 124 114 100 98 100 102 103 104 106 106 104 100 95 90 86 86 89 90 89 90 91 96 101 100 97 94 92 92 87 95 107 106 101 90 86 85 91 113 108 
102 104 121 144 156 157 154 155 152 146 140 136 127 120 120 127 131 135 140 142 140 138 136 134 132 130 129 129 129 137 123 123 129 126 123 118 113 111 107 105 101 99 102 106 115 125 134 142 147 148 135 132 143 146 138 127 123 121 118 118 121 120 118 117 117 116 114 106 107 121 143 141 128 125 120 115 110 108 108 109 111 113 114 116 118 121 125 126 127 128 130 133 137 139 139 138 129 142 174 160 152 169 162 150 134 118 113 129 147 143 129 118 119 119 128 146 127 124 122 114 114 116 117 112 111 111 110 110 112 110 108 106 105 124 119 117 118 115 105 100 99 99 98 108 127 153 151 128 112 106 108 114 107 103 101 104 106 106 105 103 100 110 133 120 108 107 109 107 106 105 107 111 137 138 108 108 107 105 102 116 143 122 103 106 108 112 112 111 112 111 110 108 104 102 102 104 109 112 115 117 115 114 112 109 107 106 103 100 106 122 135 134 125 119 127 144 153 149 128 117 116 112 108 107 117 131 114 109 118 134 139 135 125 121 125 134 137 140 141 143 145 145 148 151 152 148 143 137 129 124 122 119 116 115 117 120 117 113 111 111 115 118 120 118 117 115 111 103 100 110 134 133 122 108 99 100 102 106 102 97 99 102 103 101 100 104 125 123 86 74 73 75 76 79 84 87 91 95 99 103 106 111 115 117 119 112 105 98 96 101 102 98 97 96 94 91 87 85 89 92 92 94 95 97 101 98 93 88 90 89 92 105 108 103 92 89 89 87 87 113 113 
103 134 151 155 152 149 152 154 148 141 135 127 118 116 121 126 130 134 138 139 139 137 137 136 133 132 130 128 145 145 125 128 128 129 127 122 116 113 111 108 105 102 102 106 112 120 135 143 148 143 132 139 146 141 131 125 122 120 118 117 118 118 115 115 116 120 124 119 107 109 119 124 121 119 117 117 113 112 111 110 113 116 116 119 120 124 126 126 129 132 133 133 135 138 137 133 129 156 175 168 175 175 166 152 138 133 144 146 129 119 116 117 117 126 146 131 121 122 125 124 116 114 119 119 113 111 109 109 111 108 108 104 105 125 121 117 116 107 98 97 97 97 116 143 152 134 115 108 105 104 103 110 111 104 102 103 106 106 103 101 101 127 120 110 104 106 107 108 109 106 106 115 138 139 109 108 108 108 106 108 137 132 104 100 102 103 102 104 106 109 111 112 114 110 107 107 110 112 116 117 116 114 112 109 108 106 105 120 136 136 126 117 120 136 149 152 140 128 123 124 119 111 109 105 118 133 116 111 126 138 138 132 124 119 124 130 132 136 139 142 145 144 143 141 136 129 126 120 116 115 115 113 110 108 114 121 117 113 111 112 114 117 118 116 116 115 110 101 95 103 130 132 122 109 99 98 103 102 97 97 102 104 103 103 102 113 127 108 83 80 78 78 80 84 90 94 96 95 96 96 96 99 105 109 110 115 118 115 103 98 95 97 98 99 95 93 90 88 90 93 93 93 92 93 96 95 90 85 84 90 103 107 106 93 92 98 96 92 87 106 116 
103 154 149 142 142 150 154 151 143 135 127 119 115 115 120 126 130 131 136 138 138 138 138 137 134 132 130 129 133 130 131 127 127 129 128 124 121 119 115 111 108 104 103 106 112 119 134 143 148 138 134 142 144 133 125 123 120 118 116 117 117 116 114 114 120 131 141 132 113 106 110 112 115 117 116 114 111 109 107 106 109 112 115 119 122 123 124 126 128 131 133 134 133 136 135 130 134 161 173 179 180 175 167 156 152 151 134 117 113 112 114 114 124 146 130 121 121 125 131 135 128 115 116 123 119 112 109 107 109 109 108 106 110 125 120 115 110 98 96 97 105 135 155 141 119 108 104 105 103 103 100 103 112 107 104 102 104 104 102 100 119 146 117 108 104 107 109 109 109 106 111 123 138 132 107 107 107 108 110 109 126 139 113 101 101 101 102 101 101 102 104 107 111 111 110 108 106 108 115 118 118 116 113 110 108 115 129 136 126 118 116 118 139 153 151 141 126 125 130 127 123 115 111 106 116 130 116 117 133 139 136 128 123 119 124 128 130 131 130 131 130 126 123 121 117 116 114 113 111 113 111 110 109 110 116 121 117 118 122 119 119 120 119 117 117 115 111 103 96 103 123 129 122 109 101 99 98 98 94 97 101 103 105 105 107 120 123 98 85 87 86 86 88 91 93 95 98 98 97 93 93 93 95 106 110 108 111 116 118 115 106 100 99 97 96 95 94 92 92 95 94 92 90 89 91 90 86 84 85 103 108 106 97 91 101 99 96 96 89 105 123 
